TECHNICOOLER FLOG2_8.DSCF9360.cube
TITLE "Generated by Resolve"
LUT_3D_SIZE 65
0.00622568 0.00622568 0.00622568
0.0120699 0.00573739 0.00550851
0.0187991 0.00526436 0.00482185
0.0259403 0.00486763 0.00427253
0.0334936 0.00442512 0.00369268
0.0415808 0.00404364 0.00321965
0.0502174 0.00364691 0.00277714
0.0594339 0.00315862 0.00227359
0.0695201 0.00271611 0.00184634
0.079469 0.00215152 0.00134279
0.089601 0.0016022 0.000900282
0.100038 0.000976577 0.000411994
0.110628 0.000274662 0
0.121904 0 0
0.133577 0 0
0.146273 0 0
0.159731 0 0
0.174563 0 0
0.19089 0 0
0.208835 0 0
0.229297 0 0
0.251377 0 0
0.275959 0 0
0.302754 0 0
0.331487 0 0
0.362539 0 0
0.396201 0 0
0.432288 0 0
0.471336 0 0
0.512657 0 0
0.557031 0 0
0.603021 0 0
0.651545 0 0
0.700999 0 0
0.751476 0 0
0.801907 0 0
0.851301 0 0
0.899397 0 0
0.944869 0 0
0.987915 0 0
1 0 0
1 0 0
1 0 0
1 0 0
1 0 0
1 0 0
1 0 0
1 0 0
1 0 0
1 0 0
1 0 0
1 0 0
1 0 0
1 0 0
1 0 0
1 0 0
1 0 0
1 0 0
1 0 0
1 0 0
1 0 0
1 0 0
1 0 0
1 0 0
1 0 0
0 0.0107271 0.0102541
0.0104067 0.00970474 0.00579843
0.0171664 0.00926223 0.00515755
0.0242313 0.0087892 0.00454719
0.0318761 0.0083772 0.00401312
0.0399481 0.00796521 0.00352483
0.0484627 0.00747692 0.00299077
0.0577554 0.00698863 0.00250248
0.0677043 0.00642405 0.00198367
0.0778515 0.00584421 0.00149538
0.0880293 0.00521859 0.0010071
0.0983902 0.00445563 0.00047303
0.109194 0.00366217 0
0.120409 0.00270085 0
0.132326 0.00169375 0
0.144961 0.000534066 0
0.158602 0 0
0.173495 0 0
0.189685 0 0
0.207828 0 0
0.228183 0 0
0.250431 0 0
0.275105 0 0
0.301778 0 0
0.330785 0 0
0.361685 0 0
0.39559 0 0
0.431708 0 0
0.47068 0 0
0.512108 0 0
0.556237 0 0
0.602502 0 0
0.650874 0 0
0.70042 0 0
0.751034 0 0
0.801251 0 0
0.850965 0 0
0.89897 0 0
0.944656 0 0
0.987732 0 0
1 0 0
1 0 0
1 0 0
1 0 0
1 0 0
1 0 0
1 0 0
1 0 0
1 0 0
1 0 0
1 0 0
1 0 0
1 0 0
1 0 0
1 0 0
1 0 0
1 0 0
1 0 0
1 0 0
1 0 0
1 0 0
1 0 0
1 0 0
1 0 0
1 0 0
0 0.0157626 0.0148318
0.000350958 0.0148623 0.00993362
0.015198 0.0136721 0.00535592
0.0222782 0.0132143 0.00476081
0.0298466 0.0127565 0.00419623
0.0377661 0.0122377 0.00361639
0.0462959 0.0117494 0.00309758
0.0553902 0.0111543 0.00254826
0.0654307 0.010605 0.00204471
0.0757 0.00999466 0.00154116
0.0858778 0.00927749 0.000991836
0.0964828 0.00851453 0.000488289
0.10724 0.00761425 0
0.118669 0.00662242 0
0.130648 0.00549325 0
0.143313 0.0041352 0
0.157015 0.00265507 0
0.171817 0.000946059 0
0.188235 0 0
0.206302 0 0
0.226856 0 0
0.24921 0 0
0.273777 0 0
0.300694 0 0
0.329564 0 0
0.360693 0 0
0.394629 0 0
0.430564 0 0
0.469795 0 0
0.510994 0 0
0.555413 0 0
0.601541 0 0
0.65005 0 0
0.699763 0 0
0.750179 0 0
0.800748 0 0
0.85034 0 0
0.898482 0 0
0.944289 0 0
0.987182 0 0
1 0 0
1 0 0
1 0 0
1 0 0
1 0 0
1 0 0
1 0 0
1 0 0
1 0 0
1 0 0
1 0 0
1 0 0
1 0 0
1 0 0
1 0 0
1 0 0
1 0 0
1 0 0
1 0 0
1 0 0
1 0 0
1 0 0
1 0 0
1 0 0
1 0 0
0 0.0211337 0.0198062
0 0.0201877 0.0143435
0.00433356 0.019028 0.00924697
0.0203098 0.0178531 0.00497444
0.0277409 0.0172885 0.00433356
0.0357061 0.0168002 0.00378424
0.0441138 0.0162203 0.00320439
0.053315 0.015671 0.00268559
0.0631113 0.0151064 0.00216678
0.0736095 0.0143893 0.0016022
0.0840314 0.0136873 0.00108339
0.0946059 0.0128176 0.000503548
0.105562 0.0119173 0
0.117082 0.0108644 0
0.128985 0.00959792 0
0.141894 0.00820935 0
0.15555 0.00654612 0
0.170596 0.00468452 0
0.186954 0.00250248 0
0.205264 0.000167849 0
0.225925 0 0
0.248203 0 0
0.27303 0 0
0.29984 0 0
0.328954 0 0
0.360174 0 0
0.393973 0 0
0.430213 0 0
0.469291 0 0
0.510842 0 0
0.555352 0 0
0.601495 0 0
0.650172 0 0
0.699687 0 0
0.750423 0 0
0.800809 0 0
0.850553 0 0
0.898802 0 0
0.944411 0 0
0.987594 0 0
1 0 0
1 0 0
1 0 0
1 0 0
1 0 0
1 0 0
1 0 0
1 0 0
1 0 0
1 0 0
1 0 0
1 0 0
1 0 0
1 0 0
1 0 0
1 0 0
1 0 0
1 0 0
1 0 0
1 0 0
1 0 0
1 0 0
1 0 0
1 0 0
1 0 0
0 0.0267338 0.0250248
0 0.0256809 0.0189975
0 0.0246281 0.0134279
0.00848402 0.0234379 0.00863661
0.0256657 0.0222019 0.00451667
0.0335241 0.021622 0.00390631
0.0419928 0.021088 0.00335698
0.0511635 0.0205081 0.00280766
0.0608072 0.0198215 0.00222782
0.071519 0.0191501 0.00169375
0.0819409 0.0183413 0.00111391
0.0927596 0.0174868 0.000549325
0.103838 0.0165408 3.0518e-05
0.115343 0.0153811 0
0.127504 0.0141299 0
0.140383 0.012604 0
0.154284 0.0109102 0
0.169436 0.00892653 0
0.185901 0.00654612 0
0.204318 0.00384527 0
0.224933 0.000762951 0
0.247471 0 0
0.272236 0 0
0.299321 0 0
0.328557 0 0
0.359701 0 0
0.393835 0 0
0.429984 0 0
0.469413 0 0
0.511086 0 0
0.555444 0 0
0.601938 0 0
0.650416 0 0
0.700267 0 0
0.750866 0 0
0.80148 0 0
0.851392 0 0
0.899458 0 0
0.945403 0 0
0.988434 0 0
1 0 0
1 0 0
1 0 0
1 0 0
1 0 0
1 0 0
1 0 0
1 0 0
1 0 0
1 0 0
1 0 0
1 0 0
1 0 0
1 0 0
1 0 0
1 0 0
1 0 0
1 0 0
1 0 0
1 0 0
1 0 0
1 0 0
1 0 0
1 0 0
1 0 0
0 0.032578 0.0305486
0 0.0315557 0.024033
0 0.030396 0.0178683
0 0.0293584 0.0126802
0.0131838 0.0281529 0.00808728
0.0313725 0.0267796 0.00407416
0.0398108 0.026215 0.00349432
0.0488441 0.0255283 0.00288396
0.0585946 0.0249027 0.00233463
0.069276 0.0241245 0.00173953
0.0799725 0.0233616 0.0011902
0.0909438 0.0224918 0.00062562
0.102052 0.0214389 6.10361e-05
0.113817 0.0203098 0
0.125963 0.0189364 0
0.139101 0.0174105 0
0.153109 0.0156252 0
0.168246 0.0134737 0
0.18497 0.011017 0
0.203357 0.00807202 0
0.224262 0.00468452 0
0.246784 0.0010071 0
0.271855 0 0
0.299107 0 0
0.328313 0 0
0.359808 0 0
0.393866 0 0
0.430365 0 0
0.469932 0 0
0.511467 0 0
0.556207 0 0
0.602564 0 0
0.651484 0 0
0.701503 0 0
0.752178 0 0
0.802991 0 0
0.852689 0 0
0.90103 0 0
0.946731 0 0
0.989822 0 0
1 0 0
1 0 0
1 0 0
1 0 0
1 0 0
1 0 0
1 0 0
1 0 0
1 0 0
1 0 0
1 0 0
1 0 0
1 0 0
1 0 0
1 0 0
1 0 0
1 0 0
1 0 0
1 0 0
1 0 0
1 0 0
1 0 0
1 0 0
1 0 0
1 0 0
0 0.038819 0.0365148
0 0.0376745 0.0293278
0 0.0365454 0.0226749
0 0.0354925 0.0169833
0.00234989 0.0343175 0.0119173
0.0179751 0.0330816 0.0075227
0.0374151 0.0316014 0.00357061
0.04654 0.0309758 0.00300603
0.0561837 0.0302586 0.00241093
0.0670329 0.0295262 0.00183108
0.0779126 0.028748 0.00128176
0.0889296 0.0277714 0.000671397
0.100313 0.0267643 0.000106813
0.112093 0.0255131 0
0.124514 0.0241703 0
0.137774 0.0225834 0
0.151797 0.020676 0
0.167208 0.0184939 0
0.183932 0.0158541 0
0.20264 0.0128328 0
0.223713 0.00920119 0
0.246403 0.00514229 0
0.271656 0.000793469 0
0.298894 0 0
0.328435 0 0
0.359854 0 0
0.394293 0 0
0.430945 0 0
0.470466 0 0
0.512444 0 0
0.557137 0 0
0.603983 0 0
0.653086 0 0
0.702968 0 0
0.754025 0 0
0.804578 0 0
0.854582 0 0
0.902724 0 0
0.948608 0 0
0.991791 0 0
1 0 0
1 0 0
1 0 0
1 0 0
1 0 0
1 0 0
1 0 0
1 0 0
1 0 0
1 0 0
1 0 0
1 0 0
1 0 0
1 0 0
1 0 0
1 0 0
1 0 0
1 0 0
1 0 0
1 0 0
1 0 0
1 0 0
1 0 0
1 0 0
1 0 0
0 0.0453193 0.042771
0 0.0442206 0.0350805
0 0.0430457 0.0278477
0 0.0419471 0.0216373
0 0.0409094 0.0161593
0.00590524 0.0396735 0.0112917
0.0228885 0.0383764 0.00697337
0.044007 0.03682 0.00306706
0.053666 0.0361028 0.00247196
0.0643168 0.0353552 0.00189212
0.0755016 0.0344701 0.00129702
0.0868238 0.0335393 0.000701915
0.0982376 0.0324254 0.000106813
0.110307 0.03122 0
0.122881 0.0298314 0
0.136202 0.0281224 0
0.15053 0.0262303 0
0.165957 0.0239109 0
0.183017 0.0212406 0
0.201892 0.0180819 0
0.222995 0.0142061 0
0.246006 0.00993362 0
0.271244 0.005066 0
0.298833 0.000106813 0
0.328359 0 0
0.360204 0 0
0.394873 0 0
0.431525 0 0
0.471534 0 0
0.513481 0 0
0.558633 0 0
0.605631 0 0
0.654566 0 0
0.704845 0 0
0.755734 0 0
0.806745 0 0
0.856901 0 0
0.905119 0 0
0.95111 0 0
0.994018 0 0
1 0 0
1 0 0
1 0 0
1 0 0
1 0 0
1 0 0
1 0 0
1 0 0
1 0 0
1 0 0
1 0 0
1 0 0
1 0 0
1 0 0
1 0 0
1 0 0
1 0 0
1 0 0
1 0 0
1 0 0
1 0 0
1 0 0
1 0 0
1 0 0
1 0 0
0 0.0522927 0.0495613
0 0.0511482 0.0412299
0 0.0499123 0.0333715
0 0.0488594 0.026688
0 0.0477455 0.0206912
0 0.0466773 0.0154421
0.00988785 0.0454414 0.0106966
0.0284428 0.043946 0.00634775
0.0510262 0.0423438 0.002533
0.0615702 0.0414893 0.00190738
0.0730602 0.0406806 0.00134279
0.0844892 0.0396429 0.000717174
0.0962387 0.0386053 0.00015259
0.108507 0.0373846 0
0.121157 0.0358892 0
0.134783 0.034226 0
0.149157 0.0321813 0
0.16492 0.0298619 0
0.182132 0.0270848 0
0.201038 0.0237278 0
0.222477 0.0197604 0
0.245533 0.0152132 0
0.271183 0.0100862 0
0.299001 0.00447089 0
0.328817 0 0
0.360922 0 0
0.39559 0 0
0.4327 0 0
0.472648 0 0
0.515038 0 0
0.560388 0 0
0.607324 0 0
0.656825 0 0
0.707073 0 0
0.758526 0 0
0.809705 0 0
0.859648 0 0
0.908125 0 0
0.95375 0 0
0.996811 0 0
1 0 0
1 0 0
1 0 0
1 0 0
1 0 0
1 0 0
1 0 0
1 0 0
1 0 0
1 0 0
1 0 0
1 0 0
1 0 0
1 0 0
1 0 0
1 0 0
1 0 0
1 0 0
1 0 0
1 0 0
1 0 0
1 0 0
1 0 0
1 0 0
1 0 0
0 0.0597848 0.0569314
0 0.0585336 0.0478523
0 0.0573281 0.0394293
0 0.0561532 0.0321202
0 0.0551461 0.0256809
0 0.0541238 0.0199588
0 0.0529335 0.014786
0.0139925 0.0516213 0.0100557
0.0338445 0.0500343 0.00576791
0.0586252 0.048249 0.00192264
0.0702525 0.0474098 0.00134279
0.0819715 0.0464179 0.000732433
0.0939498 0.0453651 0.00015259
0.106325 0.0440223 0
0.119295 0.0425879 0
0.132982 0.0407874 0
0.147677 0.0387732 0
0.163607 0.0363775 0
0.180926 0.033463 0
0.200214 0.0300603 0
0.221744 0.0258793 0
0.245243 0.02121 0
0.271122 0.0158236 0
0.299031 0.00978103 0
0.329244 0.00335698 0
0.361318 0 0
0.396445 0 0
0.433555 0 0
0.474037 0 0
0.516762 0 0
0.562173 0 0
0.609735 0 0
0.659205 0 0
0.709972 0 0
0.761517 0 0
0.812436 0 0
0.862699 0 0
0.910918 0 0
0.956893 0 0
1 0 0
1 0 0
1 0 0
1 0 0
1 0 0
1 0 0
1 0 0
1 0 0
1 0 0
1 0 0
1 0 0
1 0 0
1 0 0
1 0 0
1 0 0
1 0 0
1 0 0
1 0 0
1 0 0
1 0 0
1 0 0
1 0 0
1 0 0
1 0 0
1 0 0
1 0 0
0 0.0678264 0.0649577
0 0.0666972 0.0550851
0 0.0653697 0.0458839
0 0.0640726 0.0380713
0 0.0630198 0.0310979
0 0.0620279 0.0248875
0 0.0610056 0.0193179
0.00134279 0.0597086 0.0141299
0.0181735 0.0583658 0.00949111
0.0401312 0.0566873 0.00515755
0.0671397 0.0546883 0.00131228
0.0792096 0.0537423 0.000717174
0.0913252 0.0525826 0.000122072
0.104051 0.0513161 0
0.117128 0.0497597 0
0.131182 0.0480354 0
0.146136 0.0460059 0
0.162203 0.043473 0
0.179904 0.0405737 0
0.199283 0.0369879 0
0.221241 0.0327306 0
0.244923 0.027863 0
0.270893 0.0221561 0
0.299214 0.0158541 0
0.329503 0.00888075 0
0.362112 0.00169375 0
0.397559 0 0
0.43508 0 0
0.475944 0 0
0.5187 0 0
0.564675 0 0
0.612146 0 0
0.662104 0 0
0.713039 0 0
0.764492 0 0
0.815976 0 0
0.866148 0 0
0.914839 0 0
0.960861 0 0
1 0 0
1 0 0
1 0 0
1 0 0
1 0 0
1 0 0
1 0 0
1 0 0
1 0 0
1 0 0
1 0 0
1 0 0
1 0 0
1 0 0
1 0 0
1 0 0
1 0 0
1 0 0
1 0 0
1 0 0
1 0 0
1 0 0
1 0 0
1 0 0
1 0 0
1 0 0
0 0.0760052 0.0733349
0 0.074815 0.0628672
0 0.0736706 0.0530709
0 0.0726787 0.0446632
0 0.0716106 0.0370642
0 0.0707408 0.030396
0 0.0697642 0.0242924
0 0.0687266 0.0187228
0.00376898 0.0674754 0.0136263
0.0224918 0.0659342 0.00885023
0.0462806 0.0639658 0.00454719
0.0758221 0.061677 0.00062562
0.088365 0.0606394 7.62951e-05
0.101335 0.0593423 0
0.114763 0.057847 0
0.129107 0.0561227 0
0.144183 0.0539559 0
0.160647 0.0514687 0
0.178424 0.0483711 0
0.198199 0.0447547 0
0.220371 0.0403296 0
0.244251 0.0352331 0
0.27071 0.0294194 0
0.299184 0.0227665 0
0.330053 0.0155032 0
0.362997 0.00762951 0
0.398596 0 0
0.436622 0 0
0.47744 0 0
0.52076 0 0
0.56672 0 0
0.614862 0 0
0.665232 0 0
0.716243 0 0
0.768383 0 0
0.819745 0 0
0.870344 0 0
0.918975 0 0
0.964538 0 0
1 0 0
1 0 0
1 0 0
1 0 0
1 0 0
1 0 0
1 0 0
1 0 0
1 0 0
1 0 0
1 0 0
1 0 0
1 0 0
1 0 0
1 0 0
1 0 0
1 0 0
1 0 0
1 0 0
1 0 0
1 0 0
1 0 0
1 0 0
1 0 0
1 0 0
1 0 0
0 0.0842756 0.0818647
0 0.083238 0.0715801
0 0.0821698 0.0609903
0 0.081117 0.0518044
0 0.0802319 0.0436866
0 0.0793011 0.0363928
0 0.0785382 0.0298619
0 0.0776226 0.0237888
0 0.076585 0.0182498
0.00640879 0.0753796 0.0130922
0.0267796 0.0738079 0.00828565
0.0532692 0.0719921 0.00384527
0.0849928 0.0696574 0
0.0982834 0.0683909 0
0.112078 0.0669871 0
0.126543 0.0651102 0
0.142016 0.0628214 0
0.158618 0.0601663 0
0.176867 0.0571298 0
0.196994 0.0534676 0
0.219394 0.0488441 0
0.243778 0.0437018 0
0.270405 0.0375677 0
0.299413 0.0307317 0
0.330526 0.0230716 0
0.363592 0.0146639 0
0.39971 0.00556954 0
0.437812 0 0
0.479362 0 0
0.52311 0 0
0.56965 0 0
0.618265 0 0
0.66865 0 0
0.720256 0 0
0.772152 0 0
0.823941 0 0
0.874571 0 0
0.922957 0 0
0.968963 0 0
1 0 0
1 0 0
1 0 0
1 0 0
1 0 0
1 0 0
1 0 0
1 0 0
1 0 0
1 0 0
1 0 0
1 0 0
1 0 0
1 0 0
1 0 0
1 0 0
1 0 0
1 0 0
1 0 0
1 0 0
1 0 0
1 0 0
1 0 0
1 0 0
1 0 0
1 0 0
0 0.0928817 0.0908064
0 0.0919356 0.0804303
0 0.0908064 0.0697642
0 0.0899367 0.0598459
0 0.0890059 0.0509651
0 0.0882887 0.043183
0 0.0876173 0.0361334
0 0.0868086 0.0295109
0 0.0860609 0.0235599
0 0.0849775 0.0178683
0.00848402 0.0838026 0.012665
0.0311284 0.0822156 0.00769055
0.0602426 0.0802319 0.00311284
0.0945602 0.0777295 0
0.108568 0.0763104 0
0.123552 0.0747234 0
0.13933 0.0727398 0
0.156374 0.0702983 0
0.175006 0.0673381 0
0.195315 0.0632639 0
0.218235 0.0586404 0
0.24271 0.0531624 0
0.269841 0.0469215 0
0.299138 0.0397803 0
0.33051 0.0317693 0
0.364233 0.0230411 0
0.40058 0.0132448 0
0.43949 0.0031281 0
0.481468 0 0
0.52546 0 0
0.572595 0 0
0.621118 0 0
0.672114 0 0
0.723644 0 0
0.776272 0 0
0.828443 0 0
0.879042 0 0
0.928008 0 0
0.973693 0 0
1 0 0
1 0 0
1 0 0
1 0 0
1 0 0
1 0 0
1 0 0
1 0 0
1 0 0
1 0 0
1 0 0
1 0 0
1 0 0
1 0 0
1 0 0
1 0 0
