TECHNICOOLER FLOG2_8.DSCF9360.cube
TITLE "Generated by Resolve"
LUT_3D_SIZE 5
0.00622568 0.00622568 0.00622568
0.159731 0 0
0.651545 0 0
1 0 0
1 0 0
0 0.120974 0.120485
0.127413 0.105211 0
0.683909 0 0
1 0 0
1 0 0
0 0.455711 0.500069
0 0.523812 0.293217
0.613153 0.503151 0
1 0.39942 0
1 0.364004 0
0 1 0.983398
0 1 0.941573
0 1 0.507988
1 0.974578 0
1 0.973281 0
0 1 1
0 1 1
0 1 1
0 1 0.599954
1 1 0
0 0.00604257 0.133623
0.153628 0 0.116442
0.648508 0 0.0158846
1 0 0
1 0 0
0 0.114122 0.105241
0.108171 0.108171 0.108171
0.675776 0 0.01738
1 0 0
1 0 0
0 0.474998 0.497368
0 0.551263 0.573068
0.619348 0.537575 0
1 0.447181 0
1 0.414389 0
0 1 0.984909
0 1 0.998077
0 1 0.791806
1 0.981506 0
1 0.980835 0
0 1 1
0 1 1
0 1 1
0 1 0.849744
1 1 0
0 0 0.648737
0.0059205 0 0.62092
0.604685 0 0.488502
1 0 0.234058
1 0 0.0197299
0 0.0939956 0.614237
0 0.0929427 0.6271
0.650172 0 0.534203
1 0 0.327413
1 0 0.148806
0 0.471565 0.44416
0 0.553719 0.525139
0.552956 0.552956 0.552956
1 0.465599 0.385855
1 0.433402 0.208469
0 1 0.977569
0 1 0.99324
0 1 0.998383
1 0.983566 0.472221
1 0.983368 0.295293
0 1 1
0 1 1
0 1 1
0 1 1
1 1 0.472358
0 0 1
0 0 1
0.39826 0 1
1 0 0.98146
1 0 0.842466
0 0.0541695 1
0 0.0584573 1
0.46949 0 1
1 0 1
1 0 0.95581
0 0.451453 1
0 0.540658 1
0.353445 0.553079 1
1 0.455314 1
1 0.422538 0.985489
0 1 0.958755
0 1 0.981033
0 1 0.986572
0.982193 0.982193 0.982193
1 0.980835 0.958282
0 1 1
0 1 1
0 1 1
0 1 1
1 1 0.980133
0 0 1
0 0 1
0.223102 0 1
1 0 1
1 0 1
0 0.0339971 1
0 0.0410163 1
0.31519 0 1
1 0 1
1 0 1
0 0.434928 1
0 0.529427 1
0.127214 0.553384 1
1 0.449058 1
1 0.412161 1
0 1 1
0 1 1
0 1 1
0.961288 0.983795 1
1 0.980621 1
0 1 1
0 1 1
0 1 1
0.970764 1 1
1 1 1
