TECHNICOOLER FLOG2_8.DSCF9360.cube
TITLE "Generated by Resolve"
LUT_3D_SIZE 9
0.00622568 0.00622568 0.00622568
0.0695201 0.00271611 0.00184634
0.159731 0 0
0.331487 0 0
0.651545 0 0
1 0 0
1 0 0
1 0 0
1 0 0
0 0.0522927 0.0495613
0.0510262 0.0423438 0.002533
0.149157 0.0321813 0
0.328817 0 0
0.656825 0 0
1 0 0
1 0 0
1 0 0
1 0 0
0 0.120974 0.120485
0 0.116564 0.0442054
0.127413 0.105211 0
0.329763 0.0679789 0
0.683909 0 0
1 0 0
1 0 0
1 0 0
1 0 0
0 0.233906 0.246189
0 0.241871 0.15819
0 0.253208 0.0716716
0.287129 0.235096 0
0.694392 0.162036 0
1 0 0
1 0 0
1 0 0
1 0 0
0 0.455711 0.500069
0 0.487953 0.399558
0 0.523812 0.293217
0 0.542504 0.0772564
0.613153 0.503151 0
1 0.442939 0
1 0.39942 0
1 0.377569 0
1 0.364004 0
0 0.778714 0.822766
0 0.819348 0.755337
0 0.857801 0.668223
0 0.879911 0.432456
0 0.88365 0
0.933959 0.826413 0
1 0.8047 0
1 0.793637 0
1 0.788418 0
0 1 0.983398
0 1 0.966796
0 1 0.941573
0 1 0.839216
0 1 0.507988
0 1 0
1 0.974578 0
1 0.972656 0
1 0.973281 0
0 1 1
0 1 1
0 1 1
0 1 0.991836
0 1 0.904372
0 1 0.581216
0.625269 1 0
1 1 0
1 1 0
0 1 1
0 1 1
0 1 1
0 1 1
0 1 1
0 1 0.934432
0 1 0.599954
0.990143 1 0
1 1 0
9.15541e-05 0.00630198 0.0526284
0.0666209 0.002533 0.0471809
0.1579 0 0.0358129
0.330297 0 0.0113375
0.650553 0 0
1 0 0
1 0 0
1 0 0
1 0 0
0 0.0476081 0.0435035
0.042237 0.042237 0.042237
0.14078 0.032517 0.0307469
0.320272 0 0.00766003
0.647501 0 0
1 0 0
1 0 0
1 0 0
1 0 0
0 0.117891 0.113298
0 0.116854 0.114382
0.119341 0.106935 0.0332189
0.323995 0.0715648 0.0106508
0.680278 0 0
1 0 0
1 0 0
1 0 0
1 0 0
0 0.235172 0.240467
0 0.246387 0.253315
0 0.259968 0.159579
0.28484 0.243702 0.00234989
0.696437 0.172946 0
1 0 0
1 0 0
1 0 0
1 0 0
0 0.465751 0.499641
0 0.499886 0.534188
0 0.537621 0.424216
0 0.558328 0.199329
0.617044 0.520272 0
1 0.464073 0
1 0.423789 0
1 0.403235 0
1 0.389975 0
0 0.792218 0.825544
0 0.832578 0.856596
0 0.870359 0.789944
0 0.892088 0.584695
0 0.895705 0.169528
0.935958 0.839033 0
1 0.818494 0
1 0.807935 0
1 0.804639 0
0 1 0.984253
0 1 0.991958
0 1 0.976669
0 1 0.912474
0 1 0.659175
0 1 0.144015
1 0.978256 0
1 0.976608 0
1 0.97731 0
0 1 1
0 1 1
0 1 1
0 1 1
0 1 0.954314
0 1 0.725048
0.645075 1 0.152422
1 1 0
1 1 0
0 1 1
0 1 1
0 1 1
0 1 1
0 1 1
0 1 0.971832
0 1 0.738445
0.991318 1 0.11725
1 1 0
0 0.00604257 0.133623
0.0513313 0.00241093 0.126726
0.153628 0 0.116442
0.327611 0 0.0776989
0.648508 0 0.0158846
1 0 0
1 0 0
1 0 0
1 0 0
0 0.0468147 0.123323
0.0278019 0.0417487 0.122026
0.136339 0.0315709 0.111391
0.318212 0 0.0733349
0.647334 0 0.0137942
1 0 0
1 0 0
1 0 0
1 0 0
0 0.114122 0.105241
0 0.112352 0.106523
0.108171 0.108171 0.108171
0.316518 0.0749218 0.0750134
0.675776 0 0.01738
1 0 0
1 0 0
1 0 0
1 0 0
0 0.23592 0.233616
0 0.249378 0.248417
0 0.266514 0.266865
0.280522 0.25243 0.07953
0.697551 0.184298 0.0209659
1 0.0106966 0
1 0 0
1 0 0
1 0 0
0 0.474998 0.497368
0 0.51162 0.534035
0 0.551263 0.573068
0 0.573816 0.337072
0.619348 0.537575 0
1 0.484474 0
1 0.447181 0
1 0.426673 0
1 0.414389 0
0 0.804654 0.827085
0 0.845212 0.858915
0 0.882139 0.886976
0 0.902724 0.730129
0 0.906798 0.344625
0.93666 0.850538 0
1 0.83122 0
1 0.822003 0
1 0.819699 0
0 1 0.984909
0 1 0.992447
0 1 0.998077
0 1 0.961166
0 1 0.791806
0 1 0.346624
1 0.981506 0
1 0.980133 0
1 0.980835 0
0 1 1
0 1 1
0 1 1
0 1 1
0 1 0.985107
0 1 0.841825
0.658106 1 0.363455
1 1 0
1 1 0
0 1 1
0 1 1
0 1 1
0 1 1
0 1 1
0 1 0.9944
0 1 0.849744
0.99025 1 0.340658
1 1 0
0 0.00300603 0.308888
0.01355 4.57771e-05 0.299214
0.116457 0 0.285939
0.313436 0 0.247257
0.636301 0 0.166247
1 0 0.0632486
1 0 0
1 0 0
1 0 0
0 0.0414588 0.296208
0 0.0370336 0.294926
0.0971847 0.0283665 0.281819
0.304952 0 0.245014
0.636896 0 0.166796
1 0 0.0678721
1 0 0
1 0 0
1 0 0
0 0.108919 0.277348
0 0.108034 0.280461
0.0637064 0.105135 0.284703
0.306523 0.0712139 0.256703
0.672557 0 0.187594
1 0 0.0999466
1 0 0.010544
1 0 0
1 0 0
0 0.230655 0.215244
0 0.245441 0.231067
0 0.261967 0.250126
0.256107 0.256107 0.256107
0.680751 0.192172 0.196292
1 0.0245212 0.115114
1 0 0.0261234
1 0 0
1 0 0
0 0.477226 0.479362
0 0.515831 0.517632
0 0.557427 0.558389
0 0.581582 0.582635
0.601984 0.549081 0.197787
1 0.497826 0.11043
1 0.461631 0.00779736
1 0.441794 0
1 0.429267 0
0 0.811353 0.817975
0 0.852094 0.851575
0 0.888609 0.880964
0 0.908766 0.897261
0 0.912795 0.613306
0.927428 0.857755 0.0600748
1 0.838651 0
1 0.831052 0
1 0.829664 0
0 1 0.982925
0 1 0.990814
0 1 0.99675
0 1 0.999802
0 1 0.92607
0 1 0.627939
1 0.983368 0
1 0.982254 0
1 0.982971 0
0 1 1
0 1 1
0 1 1
0 1 1
0 1 1
0 1 0.949477
0.64416 1 0.646265
1 1 0
1 1 0
0 1 1
0 1 1
0 1 1
0 1 1
0 1 1
0 1 1
0 1 0.952132
0.980255 1 0.628641
1 1 0
0 0 0.648737
0 0 0.636957
0.0059205 0 0.62092
0.237064 0 0.573175
0.604685 0 0.488502
0.998642 0 0.363073
1 0 0.234058
1 0 0.11725
1 0 0.0197299
0 0.0271611 0.6336
0 0.0235904 0.632593
0 0.0171511 0.617563
0.228489 0 0.573007
0.607996 0 0.493675
1 0 0.375341
1 0 0.254978
1 0 0.148898
1 0 0.0582589
0 0.0939956 0.614237
0 0.0941939 0.619852
0 0.0929427 0.6271
0.23003 0.0633707 0.595956
0.650172 0 0.534203
1 0 0.433555
1 0 0.327413
1 0 0.229816
1 0 0.148806
0 0.221118 0.547875
0 0.23743 0.572091
0 0.255497 0.599481
0.167254 0.252049 0.609979
0.664134 0.186206 0.565667
1 0.0183566 0.479728
1 0 0.385351
1 0 0.294759
1 0 0.21767
0 0.471565 0.44416
0 0.511589 0.483268
0 0.553719 0.525139
0 0.573175 0.549737
0.552956 0.552956 0.552956
1 0.502617 0.475792
1 0.465599 0.385855
1 0.44593 0.293873
1 0.433402 0.208469
0 0.811261 0.795377
0 0.852644 0.832258
0 0.889357 0.864546
0 0.909438 0.882506
0 0.913695 0.88806
0.900862 0.860151 0.505043
1 0.840635 0.409476
1 0.834241 0.311131
1 0.833951 0.218341
0 1 0.977569
0 1 0.986465
0 1 0.99324
0 1 0.996887
0 1 0.998383
0 1 0.892363
1 0.983566 0.472221
1 0.982528 0.383001
1 0.983368 0.295293
0 1 1
0 1 1
0 1 1
0 1 1
0 1 1
0 1 1
0.60209 1 0.8981
1 1 0.472053
1 1 0.383276
0 1 1
0 1 1
0 1 1
0 1 1
0 1 1
0 1 1
0 1 1
0.963027 1 0.88864
1 1 0.472358
0 0 0.953811
0 0 0.948287
0 0 0.940551
0.0988479 0 0.915816
0.502754 0 0.864164
0.962615 0 0.786358
1 0 0.658259
1 0 0.514351
1 0 0.381598
0 0.00903334 0.946517
0 0.00604257 0.946151
0 0.00167849 0.939162
0.0859998 0 0.916487
0.508766 0 0.869535
0.977691 0 0.80058
1 0 0.688151
1 0 0.564477
1 0 0.450248
0 0.0716869 0.937911
0 0.072694 0.941161
0 0.073579 0.945464
0.0902266 0.0483406 0.931395
0.559319 0 0.899168
1 0 0.85153
1 0 0.768383
1 0 0.671473
1 0 0.575555
0 0.205631 0.905867
0 0.22385 0.920195
0 0.244022 0.934661
0 0.243595 0.940124
0.578241 0.184588 0.918761
1 0.00128176 0.88539
1 0 0.823438
1 0 0.749081
1 0 0.671336
0 0.462181 0.845304
0 0.503914 0.872007
0 0.54789 0.896666
0 0.569757 0.909682
0.454871 0.553338 0.911315
0.99971 0.498711 0.884825
1 0.461158 0.831632
1 0.442008 0.765072
1 0.429923 0.691508
0 0.808042 0.764462
0 0.850111 0.805173
0 0.886137 0.840635
0 0.902831 0.860609
0.204807 0.891112 0.864302
0.859983 0.859983 0.859983
1 0.839765 0.806745
1 0.833844 0.74345
1 0.834424 0.677607
0 1 0.96965
0 1 0.980087
0 1 0.988098
0 1 0.992645
0 1 0.994461
0 1 0.994171
0.995666 0.982544 0.843153
1 0.981262 0.795117
1 0.982132 0.741695
0 1 1
0 1 1
0 1 1
0 1 1
0 1 1
0 1 1
0.5561 1 0.990814
1 1 0.841978
1 1 0.794202
0 1 1
0 1 1
0 1 1
0 1 1
0 1 1
0 1 1
0 1 1
0.950698 1 0.986084
1 1 0.841993
0 0 1
0 0 1
0 0 1
0 0 1
0.39826 0 1
0.877043 0 1
1 0 0.98146
1 0 0.922774
1 0 0.842466
0 0 1
0 0 1
0 0 1
0 0 1
0.407446 0 1
0.899336 0 1
1 0 0.992233
1 0 0.94873
1 0 0.8925
0 0.0541695 1
0 0.0557107 1
0 0.0584573 1
0 0.0395666 1
0.46949 0 1
0.973816 0 1
1 0 1
1 0 0.988342
1 0 0.95581
0 0.191867 1
0 0.211627 1
0 0.2336 1
0 0.236805 1
0.49424 0.18587 1
1 0.0047303 1
1 0 1
1 0 1
1 0 0.987961
0 0.451453 1
0 0.495232 1
0 0.540658 1
0 0.565591 1
0.353445 0.553079 1
0.953597 0.498131 1
1 0.455314 1
1 0.434836 1
1 0.422538 0.985489
0 0.80325 0.993179
0 0.84651 0.999832
0 0.883528 1
0 0.901366 1
0 0.891691 1
0.806546 0.86009 1
1 0.837736 0.993103
1 0.832197 0.981201
1 0.833036 0.966873
0 1 0.958755
0 1 0.971313
0 1 0.981033
0 1 0.986282
0 1 0.986572
0.764828 0.996078 0.983719
0.982193 0.982193 0.982193
1 0.980331 0.971481
1 0.980835 0.958282
0 1 1
0 1 1
0 1 1
0 1 1
0 1 1
0 1 1
0.503304 1 1
1 1 0.980148
1 1 0.969635
0 1 1
0 1 1
0 1 1
0 1 1
0 1 1
0 1 1
0 1 1
0.941115 1 1
1 1 0.980133
0 0 1
0 0 1
0 0 1
0 0 1
0.307027 0 1
0.792065 0 1
1 0 1
1 0 1
1 0 1
0 0 1
0 0 1
0 0 1
0 0 1
0.319036 0 1
0.821744 0 1
1 0 1
1 0 1
1 0 1
0 0.0429236 1
0 0.0449836 1
0 0.0487373 1
0 0.035111 1
0.389212 0 1
0.912978 0 1
1 0 1
1 0 1
1 0 1
0 0.181415 1
0 0.201968 1
0 0.224918 1
0 0.231205 1
0.417166 0.189029 1
0.962295 0.0159152 1
1 0 1
1 0 1
1 0 1
0 0.442161 1
0 0.487175 1
0 0.534432 1
0 0.561669 1
0.249775 0.552972 1
0.907546 0.49897 1
1 0.451469 1
1 0.428763 1
1 0.416312 1
0 0.798962 1
0 0.842985 1
0 0.881148 1
0 0.89987 1
0 0.8925 1
0.75285 0.861494 1
1 0.83714 1
1 0.83151 1
1 0.832273 1
0 1 1
0 1 1
0 1 1
0 1 1
0 1 1
0.715206 0.998703 1
0.971771 0.982834 1
1 0.980179 1
1 0.980529 1
0 1 1
0 1 1
0 1 1
0 1 1
0 1 1
0.753964 1 1
0.970657 1 1
1 1 1
1 1 1
0 1 1
0 1 1
0 1 1
0 1 1
0 1 1
0 1 1
0.531243 1 1
0.930236 1 1
1 1 1
0 0 1
0 0 1
0 0 1
0 0 1
0.223102 0 1
0.708675 0 1
1 0 1
1 0 1
1 0 1
0 0 1
0 0 1
0 0 1
0 0 1
0.238346 0 1
0.745953 0 1
1 0 1
1 0 1
1 0 1
0 0.0339971 1
0 0.0365606 1
0 0.0410163 1
0 0.0315099 1
0.31519 0 1
0.850278 0 1
1 0 1
1 0 1
1 0 1
0 0.172732 1
0 0.194095 1
0 0.217868 1
0 0.226429 1
0.343664 0.191882 1
0.911299 0.0309911 1
1 0 1
1 0 1
1 0 1
0 0.434928 1
0 0.480827 1
0 0.529427 1
0 0.558556 1
0.127214 0.553384 1
0.858793 0.501396 1
1 0.449058 1
1 0.424506 1
1 0.412161 1
0 0.795911 1
0 0.840421 1
0 0.879377 1
0 0.89868 1
0 0.893385 1
0.695552 0.863996 1
1 0.837644 1
1 0.831708 1
1 0.83299 1
0 1 1
0 1 1
0 1 1
0 1 1
0 1 1
0.662379 1 1
0.961288 0.983795 1
1 0.980316 1
1 0.980621 1
0 1 1
0 1 1
0 1 1
0 1 1
0 1 1
0.707546 1 1
0.961685 1 1
1 1 1
1 1 1
0 1 1
0 1 1
0 1 1
0 1 1
0 1 1
0.755428 1 1
0.970764 1 1
1 1 1
1 1 1
