V260804-024219-mslog3_sonysg-rec709_rec709-x33.cube
# mcpro24fps generated LUT mS-Log3-S-Gamut/-3 to Off-sRGB/Rec.709, size 33 
TITLE "V260804-024219-mslog3_sonysg-rec709_rec709-x33"
LUT_3D_SIZE 5
0.0000000149 0.0000000149 0.0000000149
0.2385228723 0.0017693341 0.0017693341
0.854582727 0.0061593503 0.0061593503
0.9780778289 0.0071456134 0.0071456134
0.9780778289 0.0071456134 0.0071456134
0.0013500899 0.1813534349 0.0013500899
0.1471801996 0.1592425555 0.0011871308
0.8343717456 0.0060142726 0.0060142726
0.9780778289 0.0071456134 0.0071456134
0.9780778289 0.0071456134 0.0071456134
0.0052378476 0.7245325446 0.0052378476
0.0051988065 0.7189792395 0.0051988065
0.6457565427 0.6737291217 0.0048807114
0.9780778289 0.6025500894 0.0071456134
0.9780778289 0.5966469646 0.0071456134
0.0071456134 0.9780778289 0.0071456134
0.0071456134 0.9780778289 0.0071456134
0.0942015946 0.9780778289 0.0071456134
0.9623962045 0.9780778289 0.0071456134
0.9780778289 0.9780778289 0.0071456134
0.0071456134 0.9780778289 0.0071456134
0.0071456134 0.9780778289 0.0071456134
0.0071456134 0.9780778289 0.0071456134
0.9502567053 0.9780778289 0.0071456134
0.9766854048 0.9780778289 0.0071456134
0.0011872798 0.0011872798 0.1592617631
0.2302372009 0.001708746 0.1561514437
0.8525635004 0.0061447918 0.1274870336
0.9780778289 0.0071456134 0.0764761791
0.9780778289 0.0071456134 0.0686257184
0.001202032 0.1612625718 0.1403252929
0.1346617192 0.1346617192 0.1346617341
0.8322690725 0.0059992522 0.1023052558
0.9780778289 0.0071456134 0.0461752713
0.9780778289 0.0071456134 0.0418851972
0.0051995963 0.719093442 0.0051995963
0.0051601976 0.7134896517 0.0051601976
0.642799139 0.6675825119 0.0048374981
0.9780778289 0.5956961513 0.0071456134
0.9780778289 0.5898435116 0.0071456134
0.0071456134 0.9780778289 0.0071456134
0.0071456134 0.9780778289 0.0071456134
0.0769640058 0.9780778289 0.0071456134
0.9610432386 0.9780778289 0.0071456134
0.9780778289 0.9780778289 0.0071456134
0.0071456134 0.9780778289 0.0071456134
0.0071456134 0.9780778289 0.0071456134
0.0071456134 0.9780778289 0.0071456134
0.948777914 0.9780778289 0.0071456134
0.9755430818 0.9780778289 0.0071456134
0.0048803538 0.0048803538 0.6736783385
0.1556161046 0.0048753321 0.672963798
0.8358582258 0.006024912 0.6658363342
0.9780778289 0.0071456134 0.655632019
0.9780778289 0.0071456134 0.6548506618
0.0048451275 0.0048451275 0.6686702967
0.0122402608 0.0048385262 0.6677314043
0.8149191141 0.0058756769 0.6607541442
0.9780778289 0.0071456134 0.6504585147
0.9780778289 0.0071456134 0.6496700644
0.0048847795 0.6743083 0.6272681355
0.0048438311 0.6684852839 0.6264315844
0.6200703979 0.6200702786 0.6200704575
0.9927641749 0.5402875543 0.6087999344
0.992584765 0.5337086916 0.6079344749
0.0071456134 0.9780778289 0.5628305078
0.0071456134 0.9780778289 0.5617325306
0.0071456134 0.9780778289 0.5531014204
0.9623395205 0.9815171361 0.5413504243
0.9905338883 0.9785442352 0.5403819084
0.0071456134 0.9780778289 0.5576021075
0.0071456134 0.9780778289 0.556494534
0.0071456134 0.9780778289 0.5477750897
0.94767946 0.9926430583 0.5358456969
0.9797716141 0.9926163554 0.5348666906
0.0071456134 0.0071456134 0.9780778289
0.0071456134 0.0071456134 0.9780778289
0.8113853931 0.0071456134 0.9780778289
0.9780778289 0.0071456134 0.9780778289
0.9780778289 0.0071456134 0.9780778289
0.0071456134 0.0071456134 0.9780778289
0.0071456134 0.0071456134 0.9780778289
0.7895017862 0.0071456134 0.9780778289
0.9780778289 0.0071456134 0.9780778289
0.9780778289 0.0071456134 0.9780778289
0.0070687979 0.6044816375 0.9705201983
0.0070642233 0.5976580381 0.970049262
0.5836883783 0.5415642858 0.9813212752
0.990221858 0.4474233687 0.9738556147
0.9900069833 0.4395933151 0.9732412696
0.0071456134 0.9780778289 0.9413365722
0.0071456134 0.9780778289 0.9407561421
0.0070359558 0.9670844078 0.9369626641
0.947431922 0.9474317431 0.9474321008
0.9842405915 0.9439049363 0.9468806982
0.0071456134 0.9780778289 0.9389871359
0.0071456134 0.9780778289 0.9384002686
0.0071456134 0.9780778289 0.9345619082
0.9312691689 0.974257946 0.9444683194
0.9689927101 0.9709983468 0.9439880252
0.0071456134 0.0071456134 0.9780778289
0.0071456134 0.0071456134 0.9780778289
0.8093835115 0.0071456134 0.9780778289
0.9780778289 0.0071456134 0.9780778289
0.9780778289 0.0071456134 0.9780778289
0.0071456134 0.0071456134 0.9780778289
0.0071456134 0.0071456134 0.9780778289
0.7874308825 0.0071456134 0.9780778289
0.9780778289 0.0071456134 0.9780778289
0.9780778289 0.0071456134 0.9780778289
0.0071456134 0.5988195539 0.9780778289
0.0071456134 0.5919223428 0.9780778289
0.5807957053 0.5350850224 0.9926223159
0.9900096655 0.4396921992 0.9893190861
0.989785552 0.431528002 0.988789916
0.0071456134 0.9780778289 0.9597449899
0.0071456134 0.9780778289 0.9592239857
0.0070144087 0.9647701979 0.9554773569
0.9456133246 0.9440040588 0.9710149169
0.9829562306 0.9404615164 0.970467329
0.0071456134 0.9780778289 0.95765239
0.0071456134 0.9780778289 0.9571231604
0.0071456134 0.9780778289 0.9533177614
0.9294268489 0.9709715247 0.9676431417
0.9673677683 0.9673675299 0.9673677683
