V260804-024219-mslog3_sonysg-rec709_rec709-x33.cube
# mcpro24fps generated LUT mS-Log3-S-Gamut/-3 to Off-sRGB/Rec.709, size 33 
TITLE "V260804-024219-mslog3_sonysg-rec709_rec709-x33"
LUT_3D_SIZE 33
0.0000000149 0.0000000149 0.0000000149
0.0000000149 0.0000000149 0.0000000149
0.0138355345 0.0001040995 0.0001040995
0.0535075963 0.0004015416 0.0004015416
0.0896814764 0.0006715059 0.0006715059
0.1208019182 0.000902757 0.000902757
0.1555134654 0.0011596084 0.0011596084
0.1938140988 0.0014417171 0.0014417171
0.2385228723 0.0017693341 0.0017693341
0.2870387137 0.0021229535 0.0021229535
0.3423448801 0.0025237352 0.0025237352
0.4045948088 0.0029719621 0.0029719621
0.4748535752 0.0034744143 0.0034744143
0.5540104508 0.0040365905 0.0040365905
0.6432056427 0.0046659857 0.0046659857
0.7435282469 0.0053714365 0.0053714365
0.854582727 0.0061593503 0.0061593503
0.965000391 0.0070165247 0.0070165247
0.9780778289 0.0071456134 0.0071456134
0.9780778289 0.0071456134 0.0071456134
0.9780778289 0.0071456134 0.0071456134
0.9780778289 0.0071456134 0.0071456134
0.9780778289 0.0071456134 0.0071456134
0.9780778289 0.0071456134 0.0071456134
0.9780778289 0.0071456134 0.0071456134
0.9780778289 0.0071456134 0.0071456134
0.9780778289 0.0071456134 0.0071456134
0.9780778289 0.0071456134 0.0071456134
0.9780778289 0.0071456134 0.0071456134
0.9780778289 0.0071456134 0.0071456134
0.9780778289 0.0071456134 0.0071456134
0.9780778289 0.0071456134 0.0071456134
0.9780778289 0.0071456134 0.0071456134
0.0000000149 0.0000000149 0.0000000149
0.0000000149 0.0000000149 0.0000000149
0.0000000149 0.0000000149 0.0000000149
0.0360502601 0.0002708435 0.0002708435
0.0722111613 0.0005412847 0.0005412847
0.1093969196 0.0008181036 0.0008181036
0.1438884884 0.0010737032 0.0010737032
0.1857534945 0.0013824552 0.0013824552
0.2305526286 0.0017110556 0.0017110556
0.2811957896 0.0020804703 0.0020804703
0.3373253345 0.0024874657 0.0024874657
0.400261879 0.0029408634 0.0029408634
0.4711019397 0.0034476817 0.0034476817
0.5507959127 0.0040138215 0.0040138215
0.6405469179 0.0046472847 0.0046472847
0.7410638928 0.0053541064 0.0053541064
0.8528600931 0.0061469227 0.0061469227
0.9639101028 0.0070064962 0.0070064962
0.9780778289 0.0071456134 0.0071456134
0.9780778289 0.0071456134 0.0071456134
0.9780778289 0.0071456134 0.0071456134
0.9780778289 0.0071456134 0.0071456134
0.9780778289 0.0071456134 0.0071456134
0.9780778289 0.0071456134 0.0071456134
0.9780778289 0.0071456134 0.0071456134
0.9780778289 0.0071456134 0.0071456134
0.9780778289 0.0071456134 0.0071456134
0.9780778289 0.0071456134 0.0071456134
0.9780778289 0.0071456134 0.0071456134
0.9780778289 0.0071456134 0.0071456134
0.9780778289 0.0071456134 0.0071456134
0.9780778289 0.0071456134 0.0071456134
0.9780778289 0.0071456134 0.0071456134
0.0000000149 0.0000000149 0.0000000149
0.0000000149 0.0000000149 0.0000000149
0.0000000149 0.0000000149 0.0000000149
0.0221018493 0.0001661927 0.0001661927
0.0582638085 0.0004371256 0.0004371256
0.0941405594 0.0007046908 0.0007046908
0.1338057518 0.000999108 0.000999108
0.1757459939 0.0013087988 0.0013087988
0.2235413641 0.001659736 0.001659736
0.2743965685 0.0020310134 0.0020310134
0.3316788673 0.0024466366 0.0024466366
0.3955636621 0.0029071122 0.0029071122
0.467197597 0.0034198463 0.0034198463
0.5475187898 0.0039906353 0.0039906353
0.6376975179 0.0046272129 0.0046272129
0.7388798594 0.0053387433 0.0053387433
0.8507584333 0.006131798 0.006131798
0.9624567032 0.0069932491 0.0069932491
0.9780778289 0.0071456134 0.0071456134
0.9780778289 0.0071456134 0.0071456134
0.9780778289 0.0071456134 0.0071456134
0.9780778289 0.0071456134 0.0071456134
0.9780778289 0.0071456134 0.0071456134
0.9780778289 0.0071456134 0.0071456134
0.9780778289 0.0071456134 0.0071456134
0.9780778289 0.0071456134 0.0071456134
0.9780778289 0.0071456134 0.0071456134
0.9780778289 0.0071456134 0.0071456134
0.9780778289 0.0071456134 0.0071456134
0.9780778289 0.0071456134 0.0071456134
0.9780778289 0.0071456134 0.0071456134
0.9780778289 0.0071456134 0.0071456134
0.9780778289 0.0071456134 0.0071456134
0.000166446 0.0221345276 0.000166446
0.0001343638 0.0178635418 0.0001343638
0.0001022667 0.0135924816 0.0001022667
0.0046452433 0.0093213618 0.0000701398
0.040806666 0.0085857809 0.0003064871
0.0804764405 0.0044633746 0.0006029308
0.1206965744 0.0009019822 0.0009019822
0.1670515537 0.0012447387 0.0012447387
0.2150724977 0.0015977025 0.0015977025
0.2683261335 0.0019867867 0.0019867867
0.3265188932 0.0024092942 0.0024092942
0.3911428452 0.0028753579 0.0028753579
0.4633902907 0.0033926815 0.0033926815
0.5442573428 0.0039675087 0.0039675087
0.6350085139 0.0046082884 0.0046082884
0.7363996506 0.0053212941 0.0053212941
0.8490203619 0.006119296 0.006119296
0.9613392949 0.006983161 0.006983161
0.9780778289 0.0071456134 0.0071456134
0.9780778289 0.0071456134 0.0071456134
0.9780778289 0.0071456134 0.0071456134
0.9780778289 0.0071456134 0.0071456134
0.9780778289 0.0071456134 0.0071456134
0.9780778289 0.0071456134 0.0071456134
0.9780778289 0.0071456134 0.0071456134
0.9780778289 0.0071456134 0.0071456134
0.9780778289 0.0071456134 0.0071456134
0.9780778289 0.0071456134 0.0071456134
0.9780778289 0.0071456134 0.0071456134
0.9780778289 0.0071456134 0.0071456134
0.9780778289 0.0071456134 0.0071456134
0.9780778289 0.0071456134 0.0071456134
0.9780778289 0.0071456134 0.0071456134
0.0003679097 0.0490089655 0.0003679097
0.0003359318 0.0447382182 0.0003359318
0.000303939 0.0404674709 0.000303939
0.0002719462 0.0361966789 0.0002719462
0.0268607736 0.0354353338 0.000266239
0.063019976 0.0311753452 0.0004726499
0.1092915535 0.0267472863 0.0008173287
0.1560924649 0.0184908956 0.001163885
0.2076549083 0.0134095997 0.0015433282
0.261205256 0.002044037 0.0019349158
0.3206769526 0.0023670048 0.0023670048
0.38632375 0.0028406978 0.0028406978
0.4594106078 0.0033642799 0.0033642799
0.5409442782 0.0039440542 0.0039440542
0.6321356297 0.0045880526 0.0045880526
0.7341952324 0.0053057969 0.0053057969
0.8469052315 0.0061040968 0.0061040968
0.959854126 0.0069698542 0.0069698542
0.9780778289 0.0071456134 0.0071456134
0.9780778289 0.0071456134 0.0071456134
0.9780778289 0.0071456134 0.0071456134
0.9780778289 0.0071456134 0.0071456134
0.9780778289 0.0071456134 0.0071456134
0.9780778289 0.0071456134 0.0071456134
0.9780778289 0.0071456134 0.0071456134
0.9780778289 0.0071456134 0.0071456134
0.9780778289 0.0071456134 0.0071456134
0.9780778289 0.0071456134 0.0071456134
0.9780778289 0.0071456134 0.0071456134
0.9780778289 0.0071456134 0.0071456134
0.9780778289 0.0071456134 0.0071456134
0.9780778289 0.0071456134 0.0071456134
0.9780778289 0.0071456134 0.0071456134
0.000568673 0.0758818835 0.000568673
0.0005367994 0.0716113746 0.0005367994
0.0005049258 0.067340821 0.0005049258
0.0004730374 0.0630702674 0.0004730374
0.0094479769 0.0587996542 0.0004411191
0.0490741879 0.058038339 0.0004354268
0.0940352082 0.0535825789 0.000703916
0.1465874314 0.0452519208 0.0010936707
0.1985949427 0.0400131792 0.0014768243
0.2548779547 0.0272795558 0.0018887669
0.3153637052 0.0140972584 0.0023285151
0.3818092346 0.002808243 0.002808243
0.4555450678 0.0033366829 0.0033366829
0.5376341343 0.0039205998 0.0039205998
0.6294155121 0.0045689046 0.0045689046
0.7316988707 0.0052882284 0.0052882284
0.8451517224 0.0060914904 0.0060914904
0.9587106705 0.0069597214 0.0069597214
0.9780778289 0.0071456134 0.0071456134
0.9780778289 0.0071456134 0.0071456134
0.9780778289 0.0071456134 0.0071456134
0.9780778289 0.0071456134 0.0071456134
0.9780778289 0.0071456134 0.0071456134
0.9780778289 0.0071456134 0.0071456134
0.9780778289 0.0071456134 0.0071456134
0.9780778289 0.0071456134 0.0071456134
0.9780778289 0.0071456134 0.0071456134
0.9780778289 0.0071456134 0.0071456134
0.9780778289 0.0071456134 0.0071456134
0.9780778289 0.0071456134 0.0071456134
0.9780778289 0.0071456134 0.0071456134
0.9780778289 0.0071456134 0.0071456134
0.9780778289 0.0071456134 0.0071456134
0.0007925481 0.1059559807 0.0007925481
0.000765264 0.102285713 0.000765264
0.0007596165 0.1015244424 0.0007596165
0.0007316321 0.0977600887 0.0007316321
0.000702858 0.0938948691 0.000702858
0.0272622257 0.089921318 0.0006732792
0.0759888962 0.0856362209 0.0006413758
0.1311801076 0.0805982724 0.0009796619
0.1882703602 0.0718186796 0.0014009625
0.2454653829 0.0624765009 0.0018200576
0.307754457 0.0454203039 0.0022733659
0.3755928278 0.0275543034 0.0027634948
0.4504447579 0.00364016 0.0033002496
0.5334270597 0.0038907677 0.0038907677
0.6258132458 0.004543528 0.004543528
0.7288967371 0.0052685291 0.0052685291
0.8425632715 0.0060729235 0.0060729235
0.9568893313 0.0069437027 0.0069437027
0.9780778289 0.0071456134 0.0071456134
0.9780778289 0.0071456134 0.0071456134
0.9780778289 0.0071456134 0.0071456134
0.9780778289 0.0071456134 0.0071456134
0.9780778289 0.0071456134 0.0071456134
0.9780778289 0.0071456134 0.0071456134
0.9780778289 0.0071456134 0.0071456134
0.9780778289 0.0071456134 0.0071456134
0.9780778289 0.0071456134 0.0071456134
0.9780778289 0.0071456134 0.0071456134
0.9780778289 0.0071456134 0.0071456134
0.9780778289 0.0071456134 0.0071456134
0.9780778289 0.0071456134 0.0071456134
0.9780778289 0.0071456134 0.0071456134
0.9780778289 0.0071456134 0.0071456134
0.0010698885 0.1433720589 0.0010698885
0.0010482222 0.14044182 0.0010482222
0.0010261685 0.137460202 0.0010261685
0.0010036975 0.134424895 0.0010036975
0.0009807944 0.1313332021 0.0009807944
0.0010770112 0.1305719614 0.0009751618
0.0489277393 0.1272263825 0.0009503812
0.1098067835 0.1209144294 0.0009035915
0.1705962867 0.1138904393 0.0012708604
0.2328018248 0.1059793457 0.0017275065
0.2974708974 0.0938540548 0.0021987408
0.3670958281 0.0760083795 0.0027022958
0.4433530569 0.0496614277 0.0032495707
0.5274689794 0.0188392997 0.003848508
0.6207813621 0.0045080632 0.0045080632
0.7246519923 0.005238682 0.005238682
0.839050889 0.0060477555 0.0060477555
0.9544322491 0.0069223493 0.0069223493
0.9780778289 0.0071456134 0.0071456134
0.9780778289 0.0071456134 0.0071456134
0.9780778289 0.0071456134 0.0071456134
0.9780778289 0.0071456134 0.0071456134
0.9780778289 0.0071456134 0.0071456134
0.9780778289 0.0071456134 0.0071456134
0.9780778289 0.0071456134 0.0071456134
0.9780778289 0.0071456134 0.0071456134
0.9780778289 0.0071456134 0.0071456134
0.9780778289 0.0071456134 0.0071456134
0.9780778289 0.0071456134 0.0071456134
0.9780778289 0.0071456134 0.0071456134
0.9780778289 0.0071456134 0.0071456134
0.9780778289 0.0071456134 0.0071456134
0.9780778289 0.0071456134 0.0071456134
0.0013500899 0.1813534349 0.0013500899
0.0013444871 0.1805921793 0.0013444871
0.0013266504 0.1781693846 0.0013266504
0.0013085753 0.1757154763 0.0013085753
0.0012902766 0.1732295007 0.0012902766
0.0012846589 0.1724682599 0.0012846589
0.0096586496 0.1697543859 0.0012646616
0.0762334093 0.1647917181 0.0012280792
0.1471801996 0.1592425555 0.0011871308
0.2149993479 0.1529539376 0.001597181
0.2832840383 0.1436046958 0.0020956546
0.3555119634 0.1304681599 0.0026187897
0.4337630272 0.1096508801 0.0031809807
0.5194447637 0.0769004002 0.0037915856
0.614187181 0.0363328904 0.0044616014
0.7189876437 0.0051988661 0.0051988661
0.8343717456 0.0060142726 0.0060142726
0.9511233568 0.0068940371 0.0068940371
0.9780778289 0.0071456134 0.0071456134
0.9780778289 0.0071456134 0.0071456134
0.9780778289 0.0071456134 0.0071456134
0.9780778289 0.0071456134 0.0071456134
0.9780778289 0.0071456134 0.0071456134
0.9780778289 0.0071456134 0.0071456134
0.9780778289 0.0071456134 0.0071456134
0.9780778289 0.0071456134 0.0071456134
0.9780778289 0.0071456134 0.0071456134
0.9780778289 0.0071456134 0.0071456134
0.9780778289 0.0071456134 0.0071456134
0.9780778289 0.0071456134 0.0071456134
0.9780778289 0.0071456134 0.0071456134
0.9780778289 0.0071456134 0.0071456134
0.9780778289 0.0071456134 0.0071456134
0.0016787946 0.2261437476 0.0016787946
0.0016643256 0.2241673023 0.0016643256
0.0016497225 0.222172305 0.0016497225
0.0016441494 0.2214111835 0.0016441494
0.0016293973 0.2193974555 0.0016293973
0.0016144961 0.2173644155 0.0016144961
0.0015980303 0.2151170224 0.0015980303
0.0271800905 0.2124630064 0.0015785843
0.1101210788 0.2079956979 0.0015458316
0.188720271 0.2014383823 0.0014977008
0.2630681396 0.1938970387 0.0019484758
0.3393709064 0.1835004687 0.0025022477
0.42061764 0.167735979 0.0030868649
0.5085901618 0.1468239427 0.003714487
0.6050401926 0.1134950444 0.0043971092
0.711497426 0.0587940067 0.0051462054
0.8282449841 0.0059705377 0.0059705377
0.9467737675 0.0068574995 0.0068574995
0.9780778289 0.0071456134 0.0071456134
0.9780778289 0.0071456134 0.0071456134
0.9780778289 0.0071456134 0.0071456134
0.9780778289 0.0071456134 0.0071456134
0.9780778289 0.0071456134 0.0071456134
0.9780778289 0.0071456134 0.0071456134
0.9780778289 0.0071456134 0.0071456134
0.9780778289 0.0071456134 0.0071456134
0.9780778289 0.0071456134 0.0071456134
0.9780778289 0.0071456134 0.0071456134
0.9780778289 0.0071456134 0.0071456134
0.9780778289 0.0071456134 0.0071456134
0.9780778289 0.0071456134 0.0071456134
0.9780778289 0.0071456134 0.0071456134
0.9780778289 0.0071456134 0.0071456134
0.0020327121 0.2746311724 0.0020327121
0.0020271689 0.2738705277 0.0020271689
0.0020152777 0.272236675 0.0020152777
0.0020032972 0.270591557 0.0020032972
0.0019912273 0.2689348161 0.0019912273
0.0019856989 0.268174082 0.0019856989
0.001972124 0.2663109899 0.001972124
0.0019488484 0.2631179392 0.0019488484
0.0495072901 0.2594369352 0.0019220114
0.1496639699 0.2551233768 0.001890555
0.2345393747 0.2489624023 0.0018455833
0.3171171546 0.2394724935 0.0023412257
0.4026883841 0.2282355279 0.0029582828
0.4938410521 0.2108285874 0.0036096275
0.5929048061 0.1865516156 0.0043114871
0.7012658119 0.1503339857 0.0050742924
0.8201550245 0.0900366604 0.0059129
0.9409908056 0.0068098754 0.0068098754
0.9780778289 0.0071456134 0.0071456134
0.9780778289 0.0071456134 0.0071456134
0.9780778289 0.0071456134 0.0071456134
0.9780778289 0.0071456134 0.0071456134
0.9780778289 0.0071456134 0.0071456134
0.9780778289 0.0071456134 0.0071456134
0.9780778289 0.0071456134 0.0071456134
0.9780778289 0.0071456134 0.0071456134
0.9780778289 0.0071456134 0.0071456134
0.9780778289 0.0071456134 0.0071456134
0.9780778289 0.0071456134 0.0071456134
0.9780778289 0.0071456134 0.0071456134
0.9780778289 0.0071456134 0.0071456134
0.9780778289 0.0071456134 0.0071456134
0.9780778289 0.0071456134 0.0071456134
0.0024331063 0.3298080564 0.0024331063
0.0024233907 0.3284660578 0.0024233907
0.0024136305 0.3271170259 0.0024136305
0.002408132 0.3263568878 0.002408132
0.0023983121 0.3250007629 0.0023983121
0.0023884475 0.3236374855 0.0023884475
0.0023771077 0.322072506 0.0023771077
0.0023629367 0.3201143146 0.0023629367
0.0023409426 0.3170779347 0.0023409426
0.0804541707 0.3127741218 0.0023097545
0.1908108443 0.3076291084 0.0022724569
0.2848719656 0.3006744981 0.0022220016
0.3775049746 0.2906972468 0.0027772635
0.4735364318 0.277739048 0.0034650415
0.5762674212 0.2590399384 0.0041939914
0.6875439882 0.2325046062 0.0049778372
0.8089172244 0.1915706247 0.0058330595
0.932705462 0.1276900023 0.0067432374
0.9780778289 0.0071456134 0.0071456134
0.9780778289 0.0071456134 0.0071456134
0.9780778289 0.0071456134 0.0071456134
0.9780778289 0.0071456134 0.0071456134
0.9780778289 0.0071456134 0.0071456134
0.9780778289 0.0071456134 0.0071456134
0.9780778289 0.0071456134 0.0071456134
0.9780778289 0.0071456134 0.0071456134
0.9780778289 0.0071456134 0.0071456134
0.9780778289 0.0071456134 0.0071456134
0.9780778289 0.0071456134 0.0071456134
0.9780778289 0.0071456134 0.0071456134
0.9780778289 0.0071456134 0.0071456134
0.9780778289 0.0071456134 0.0071456134
0.9780778289 0.0071456134 0.0071456134
0.0028759688 0.3912280798 0.0028759688
0.0028680265 0.3901232779 0.0028680265
0.0028600544 0.3890141249 0.0028600544
0.0028545856 0.3882547915 0.0028545856
0.0028465837 0.3871411383 0.0028465837
0.0028385371 0.3860231042 0.0028385371
0.0028290749 0.3847061992 0.0028290749
0.0028167963 0.3829994202 0.0028167963
0.0027986318 0.3804734349 0.0027986318
0.0027733296 0.3769574165 0.0027733296
0.1137775108 0.3726290464 0.0027421564
0.2352624983 0.3668104708 0.0027002543
0.3409334719 0.3586465716 0.0026413947
0.445196569 0.3479935229 0.0032627434
0.553373754 0.3330072165 0.0040320754
0.6690246463 0.3122509122 0.0048476309
0.7936096191 0.2819679677 0.0057246089
0.9211879373 0.2390645146 0.0066529959
0.9780778289 0.1671665609 0.0071456134
0.9780778289 0.0597338974 0.0071456134
0.9780778289 0.0506468415 0.0071456134
0.9780778289 0.0423631519 0.0071456134
0.9780778289 0.0377589762 0.0071456134
0.9780778289 0.0333575457 0.0071456134
0.9780778289 0.0291179717 0.0071456134
0.9780778289 0.0219021291 0.0071456134
0.9780778289 0.0210804939 0.0071456134
0.9780778289 0.0172963291 0.0071456134
0.9780778289 0.0136992037 0.0071456134
0.9780778289 0.0103316158 0.0071456134
0.9780778289 0.007257089 0.0071456134
0.9780778289 0.0071456134 0.0071456134
0.9780778289 0.0071456134 0.0071456134
0.0033710301 0.4603561163 0.0033710301
0.0033645481 0.4594502449 0.0033645481
0.0033580661 0.4585415721 0.0033580661
0.0033526719 0.4577835202 0.0033526719
0.0033461601 0.4568719864 0.0033461601
0.0033396333 0.4559575915 0.0033396333
0.0033317059 0.454846561 0.0033317059
0.003320992 0.4533478022 0.003320992
0.0033059418 0.4512417912 0.0033059418
0.0032866895 0.4485449791 0.0032866895
0.0032592118 0.4447008669 0.0032592118
0.1528979242 0.4397904873 0.0032241046
0.2866311073 0.4330499172 0.0031758845
0.4043474793 0.424161613 0.0031122416
0.5213992 0.4119123518 0.0038054436
0.6431990266 0.3951672912 0.0046659559
0.7729705572 0.3719387054 0.0055788457
0.905521512 0.3392559588 0.0065334737
0.9780778289 0.2902233601 0.0071456134
0.9780778289 0.2330789119 0.0071456134
0.9780778289 0.2283614725 0.0071456134
0.9780778289 0.2243101597 0.0071456134
0.9780778289 0.2217187881 0.0071456134
0.9780778289 0.2192724198 0.0071456134
0.9780778289 0.2169183344 0.0071456134
0.9780778289 0.2146268934 0.0071456134
0.9780778289 0.212379694 0.0071456134
0.9780778289 0.210163936 0.0071456134
0.9780778289 0.2079704255 0.0071456134
0.9780778289 0.2057919949 0.0071456134
0.9780778289 0.2036231607 0.0071456134
0.9780778289 0.2014592737 0.0071456134
0.9780778289 0.2007415742 0.0071456134
0.0039249063 0.5382431149 0.0039249063
0.0039196908 0.5375058055 0.0039196908
0.0039144456 0.5367667675 0.0039144456
0.0039092004 0.5360259414 0.0039092004
0.003903836 0.5352697968 0.003903836
0.0038985759 0.5345272422 0.0038985759
0.00389193 0.5335894823 0.00389193
0.0038826019 0.5322741866 0.0038826019
0.0038700998 0.5305115581 0.0038700998
0.0038535148 0.5281729698 0.0038535148
0.0038313717 0.5250521302 0.0038313717
0.0038018078 0.5208869576 0.0038018078
0.1939332932 0.5152990818 0.0037621409
0.3432596922 0.5078167319 0.0037090033
0.4755496383 0.4976944327 0.0036370456
0.6073004603 0.4839534163 0.0044130534
0.7441051602 0.4650004506 0.0053755045
0.8831769228 0.4395235777 0.0063673258
0.9780778289 0.4021784663 0.0071456134
0.9780778289 0.3626410365 0.0071456134
0.9780778289 0.3593705297 0.0071456134
0.9780778289 0.3568128645 0.0071456134
0.9780778289 0.354988277 0.0071456134
0.9780778289 0.3528409004 0.0071456134
0.9780778289 0.3512740135 0.0071456134
0.9780778289 0.3497835994 0.0071456134
0.9780778289 0.3483515978 0.0071456134
0.9780778289 0.3469657004 0.0071456134
0.9780778289 0.3461276293 0.0071456134
0.9780778289 0.3448160887 0.0071456134
0.9780778289 0.3435303569 0.0071456134
0.9780778289 0.3422664404 0.0071456134
0.9780778289 0.3410211802 0.0071456134
0.0045446754 0.6259757876 0.0045446754
0.0045404881 0.6253809929 0.0045404881
0.004536286 0.6247849464 0.004536286
0.0045309812 0.6240324378 0.0045309812
0.0045267791 0.6234351397 0.0045267791
0.0045225471 0.622836709 0.0045225471
0.0045169741 0.6220447421 0.0045169741
0.0045087039 0.6208695769 0.0045087039
0.0044984072 0.6194092631 0.0044984072
0.0044850558 0.6175156832 0.0044850558
0.0044662803 0.6148495078 0.0044662803
0.0044412464 0.6112999916 0.0044412464
0.0044084936 0.6066541672 0.0044084936
0.2407387793 0.6003091931 0.0043637455
0.4066331983 0.591876924 0.0043042302
0.5556372404 0.5804652572 0.0042236447
0.70380795 0.5650116801 0.0050921589
0.8519390821 0.5443320274 0.0061402917
0.9780778289 0.5149999857 0.0071456134
0.9780778289 0.4846978188 0.0071456134
0.9780778289 0.4821490049 0.0071456134
0.9780778289 0.4803232551 0.0071456134
0.9780778289 0.4788709283 0.0071456134
0.9780778289 0.4775791168 0.0071456134
0.9780778289 0.4763958454 0.0071456134
0.9780778289 0.4752922654 0.0071456134
0.9780778289 0.4742501974 0.0071456134
0.9780778289 0.4732576609 0.0071456134
0.9780778289 0.4723058939 0.0071456134
0.9780778289 0.47138834 0.0071456134
0.9780778289 0.470500052 0.0071456134
0.9780778289 0.4696370959 0.0071456134
0.9780778289 0.4689226747 0.0071456134
0.0052378476 0.7245325446 0.0052378476
0.0052345246 0.7240607142 0.0052345246
0.0052312016 0.7235881686 0.0052312016
0.0052259564 0.7228431702 0.0052259564
0.0052226335 0.7223697901 0.0052226335
0.0052193105 0.7218955755 0.0052193105
0.0052146316 0.7212302089 0.0052146316
0.0052072853 0.7201858163 0.0052072853
0.0051988065 0.7189792395 0.0051988065
0.0051881522 0.7174666524 0.0051881522
0.0051721781 0.7151923776 0.0051721781
0.005150944 0.7121710777 0.005150944
0.0051238984 0.7083238363 0.0051238984
0.0050860494 0.7029385567 0.0050860494
0.2918092608 0.6959106326 0.0050366372
0.4780027866 0.6864013672 0.0049698055
0.6457565427 0.6737291217 0.0048807114
0.8072677851 0.6567301154 0.0058213472
0.965266645 0.6329879165 0.0070189834
0.9780778289 0.6090874672 0.0071456134
0.9780778289 0.6070021987 0.0071456134
0.9780778289 0.6056408882 0.0071456134
0.9780778289 0.6044254303 0.0071456134
0.9780778289 0.6033707857 0.0071456134
0.9780778289 0.6025500894 0.0071456134
0.9780778289 0.6016837358 0.0071456134
0.9780778289 0.6007575989 0.0071456134
0.9780778289 0.6000055671 0.0071456134
0.9780778289 0.5992951989 0.0071456134
0.9780778289 0.5986202955 0.0071456134
0.9780778289 0.5979757309 0.0071456134
0.9780778289 0.5973576307 0.0071456134
0.9780778289 0.5966469646 0.0071456134
0.0059928298 0.8313689232 0.0059928298
0.005990237 0.8310046792 0.005990237
0.0059850663 0.8302806616 0.0059850663
0.0059824586 0.8299158216 0.0059824586
0.0059798509 0.8295504451 0.0059798509
0.0059772432 0.8291844726 0.0059772432
0.0059733093 0.8286328912 0.0059733093
0.0059667528 0.8277127147 0.0059667528
0.0059597343 0.8267310858 0.0059597343
0.0059487671 0.8251932859 0.0059487671
0.005937621 0.8236279488 0.005937621
0.0059194863 0.8210791349 0.0059194863
0.0058945715 0.8175777197 0.0058945715
0.0058647841 0.8133878708 0.0058647841
0.0058547258 0.8075675964 0.0058234781
0.3529418707 0.7996707559 0.0057675093
0.5611537695 0.788961947 0.0056917518
0.7443033457 0.7752531767 0.0055949539
0.9240301847 0.755818367 0.0066750497
0.9780778289 0.736308217 0.0071456134
0.9780778289 0.7348407507 0.0071456134
0.9780778289 0.7338049412 0.0071456134
0.9780778289 0.7327598333 0.0071456134
0.9780778289 0.7318741083 0.0071456134
0.9780778289 0.7310965061 0.0071456134
0.9780778289 0.7303987741 0.0071456134
0.9780778289 0.7297633886 0.0071456134
0.9780778289 0.7291783094 0.0071456134
0.9780778289 0.7286351323 0.0071456134
0.9780778289 0.7281273603 0.0071456134
0.9780778289 0.7276500463 0.0071456134
0.9780778289 0.7269238234 0.0071456134
0.9780778289 0.7264977694 0.0071456134
0.0068534315 0.9462857246 0.0068534315
0.0068514496 0.9460473657 0.0068514496
0.0068494678 0.9458085299 0.0068494678
0.0068474859 0.9455692768 0.0068474859
0.0068423897 0.9449541569 0.0068423897
0.0068404078 0.9447137117 0.0068404078
0.0068371147 0.9443149567 0.0068371147
0.0068343431 0.943977952 0.0068343431
0.0068255216 0.9429056644 0.0068255216
0.0068189949 0.9421095848 0.0068189949
0.0068073124 0.9406763911 0.0068073124
0.0067918301 0.9387696385 0.0067918301
0.0067733973 0.9364823103 0.0067733973
0.0067459196 0.9330438375 0.0067459196
0.006711483 0.9286904335 0.006711483
0.0174946636 0.922701776 0.0066647232
0.4182022214 0.9148628712 0.0066043586
0.646728456 0.9039984941 0.0065219998
0.8557329178 0.8892525434 0.0064121187
0.9780778289 0.873958528 0.0071456134
