ZIRCON_TECHNICOOLER.cube
TITLE "Zircon Log to Technicooler FLOG2"
LUT_3D_SIZE 9
0.031244 0.031245 0.031261
0.109727 0.024905 0.023390
0.235715 0.006148 0.008846
0.426512 0.000000 0.000000
0.589642 0.000000 0.000000
0.746587 0.000000 0.000000
0.889148 0.000000 0.000000
0.962145 0.000000 0.000000
0.991434 0.000000 0.000000
0.000000 0.090367 0.087256
0.086004 0.081122 0.026514
0.231922 0.058912 0.010724
0.437498 0.006984 0.000000
0.609962 0.000000 0.000000
0.773772 0.000000 0.000000
0.919156 0.000000 0.000000
0.984972 0.000000 0.000000
1.000000 0.000000 0.000000
0.000000 0.181492 0.182985
0.000000 0.185674 0.108986
0.194599 0.173559 0.009075
0.442062 0.136313 0.000000
0.634927 0.081212 0.000000
0.810498 0.008404 0.000000
0.959258 0.000000 0.000000
1.000000 0.000000 0.000000
1.000000 0.000000 0.000000
0.000000 0.319106 0.335961
0.000000 0.340209 0.252908
0.000000 0.354062 0.118015
0.386396 0.329080 0.000000
0.611440 0.300858 0.000000
0.801362 0.265222 0.000000
0.955872 0.226228 0.000000
1.000000 0.203699 0.000000
1.000000 0.190647 0.000000
0.000000 0.444045 0.475734
0.000000 0.475759 0.386983
0.000000 0.499906 0.232230
0.001881 0.499562 0.017350
0.547680 0.468821 0.000000
0.765863 0.444103 0.000000
0.927489 0.419485 0.000000
0.990266 0.406636 0.000000
1.000000 0.399322 0.000000
0.000000 0.569742 0.611547
0.000000 0.608775 0.525517
0.000000 0.639394 0.359794
0.000000 0.648401 0.118503
0.028723 0.637842 0.000005
0.713172 0.603885 0.000000
0.885260 0.586193 0.000000
0.961308 0.576868 0.000000
0.990798 0.572202 0.000000
0.000000 0.691524 0.733601
0.000000 0.733163 0.659825
0.000000 0.764822 0.499225
0.000000 0.776488 0.243643
0.000000 0.774789 0.029571
0.277161 0.757697 0.000000
0.826371 0.726343 0.000000
0.916834 0.718242 0.000000
0.956645 0.714545 0.000000
0.000000 0.758026 0.794835
0.000000 0.797947 0.730682
0.000000 0.828135 0.581913
0.000000 0.839263 0.324640
0.000000 0.839723 0.113342
0.001588 0.828787 0.000000
0.658852 0.801885 0.000000
0.873522 0.786868 0.000000
0.932861 0.781954 0.000000
0.000000 0.795300 0.827364
0.000000 0.833400 0.769466
0.000000 0.861770 0.629877
0.000000 0.872451 0.375507
0.000000 0.873306 0.166499
0.000179 0.865215 0.000000
0.529321 0.841917 0.000000
0.803854 0.825545 0.000000
0.902819 0.818124 0.000000
0.021101 0.031138 0.093135
0.105867 0.024339 0.085159
0.233806 0.005769 0.060137
0.425780 0.000000 0.025258
0.589339 0.000000 0.003313
0.746758 0.000000 0.000000
0.889746 0.000000 0.000000
0.962825 0.000000 0.000000
0.991847 0.000000 0.000000
0.001588 0.086256 0.083800
0.077974 0.081637 0.083010
0.225035 0.060494 0.058882
0.431316 0.009077 0.025551
0.604742 0.000000 0.003826
0.769424 0.000000 0.000000
0.915815 0.000000 0.000000
0.983411 0.000000 0.000000
1.000000 0.000000 0.000000
0.000000 0.181609 0.178395
0.000000 0.188792 0.184219
0.189333 0.178642 0.065938
0.441110 0.143240 0.031792
0.635470 0.090071 0.008498
0.812231 0.015826 0.000000
0.961382 0.000000 0.000000
1.000000 0.000000 0.000000
1.000000 0.000000 0.000000
0.000000 0.325156 0.334810
0.000000 0.348588 0.355707
0.000000 0.363962 0.211677
0.386498 0.340673 0.017229
0.614500 0.313299 0.000188
0.805742 0.279222 0.000000
0.959607 0.241945 0.000000
1.000000 0.220922 0.000000
1.000000 0.208827 0.000000
0.000000 0.453575 0.476547
0.000000 0.487333 0.506481
0.000000 0.513363 0.347216
0.001820 0.514199 0.121766
0.550811 0.484429 0.000134
0.770365 0.460654 0.000000
0.931101 0.437131 0.000000
0.991885 0.425104 0.000000
1.000000 0.418334 0.000000
0.000000 0.581788 0.614017
0.000000 0.622428 0.648541
0.000000 0.654295 0.490356
0.000000 0.664304 0.243026
0.018714 0.654385 0.043689
0.717652 0.620955 0.000000
0.888485 0.604004 0.000000
0.963494 0.595439 0.000000
0.991804 0.590910 0.000000
0.000000 0.704736 0.737127
0.000000 0.746888 0.770227
0.000000 0.778950 0.632060
0.000000 0.791025 0.380320
0.000000 0.789652 0.180408
0.280605 0.772531 0.000000
0.830058 0.741745 0.000000
0.918973 0.733979 0.000000
0.957877 0.730401 0.000000
0.000000 0.771241 0.798667
0.000000 0.810928 0.828042
0.000000 0.840839 0.708048
0.000000 0.852023 0.465851
0.000000 0.852685 0.263805
0.001648 0.841692 0.047999
0.664767 0.814891 0.000000
0.876422 0.800207 0.000000
0.934491 0.795475 0.000000
0.000000 0.807980 0.831011
0.000000 0.845687 0.857903
0.000000 0.873500 0.749607
0.000000 0.883998 0.517651
0.000000 0.885006 0.315224
0.000223 0.876793 0.108166
0.536838 0.853448 0.000000
0.808081 0.837300 0.000000
0.905153 0.830125 0.000000
0.001631 0.028875 0.210300
0.080439 0.022749 0.201306
0.225032 0.003961 0.179109
0.419329 0.000000 0.133734
0.583476 0.000000 0.097441
0.741776 0.000000 0.061487
0.885549 0.000000 0.028813
0.959110 0.000000 0.013440
0.989709 0.000000 0.006082
0.000000 0.083545 0.199231
0.053390 0.079658 0.200378
0.217473 0.058352 0.182327
0.427570 0.008126 0.140288
0.602762 0.000000 0.106272
0.768671 0.000000 0.072061
0.916291 0.000000 0.039062
0.983947 0.000000 0.023069
1.000000 0.000000 0.014714
0.000000 0.177731 0.170472
0.000839 0.184829 0.180231
0.179654 0.181156 0.181772
0.430068 0.148170 0.147435
0.626179 0.097682 0.116939
0.804715 0.023457 0.085434
0.955389 0.000000 0.052918
1.000000 0.000000 0.035990
1.000000 0.000000 0.026998
0.000000 0.327376 0.324523
0.000000 0.352371 0.350125
0.000000 0.370518 0.364690
0.374966 0.349376 0.153379
0.607051 0.323575 0.120804
0.800338 0.290842 0.088683
0.955216 0.254724 0.054776
1.000000 0.235080 0.037248
1.000000 0.223741 0.027741
0.000000 0.459317 0.467365
0.000000 0.494580 0.502550
0.000000 0.522668 0.525503
0.001575 0.525416 0.287625
0.542247 0.496916 0.110940
0.764849 0.474154 0.069436
0.926972 0.451756 0.033521
0.989774 0.440299 0.017077
1.000000 0.433903 0.009289
0.000000 0.590340 0.606907
0.000000 0.631976 0.646506
0.000000 0.664963 0.672737
0.000000 0.676382 0.432363
0.000000 0.667252 0.240128
0.711677 0.634766 0.037674
0.883831 0.618532 0.006314
0.958984 0.610163 0.000000
0.989150 0.605891 0.000000
0.000000 0.714398 0.732155
0.000000 0.756742 0.769477
0.000000 0.789294 0.793782
0.000000 0.801749 0.580123
0.000000 0.800768 0.383669
0.263006 0.784120 0.192166
0.825198 0.753991 0.005285
0.914399 0.746421 0.000000
0.953274 0.742863 0.000000
0.000000 0.780787 0.794847
0.000000 0.820511 0.828031
0.000000 0.850061 0.849027
0.000000 0.861228 0.661330
0.000000 0.862142 0.471216
0.001447 0.851397 0.280622
0.658753 0.825098 0.066326
0.871916 0.810620 0.001465
0.930069 0.805936 0.000000
0.000000 0.817140 0.827747
0.000000 0.854632 0.858009
0.000000 0.881965 0.876827
0.000000 0.892264 0.706826
0.000000 0.893384 0.523345
0.000038 0.885437 0.334275
0.528653 0.862303 0.130545
0.803395 0.846449 0.017662
0.900863 0.839380 0.000000
0.000000 0.022723 0.408184
0.025414 0.017642 0.396894
0.183063 0.001716 0.368933
0.401762 0.000000 0.322788
0.568278 0.000000 0.278917
0.728081 0.000000 0.239005
0.873605 0.000000 0.201727
0.948505 0.000000 0.181007
0.983600 0.000000 0.168924
0.000000 0.076048 0.396523
0.003325 0.072945 0.399042
0.174786 0.054034 0.377513
0.412586 0.004271 0.337315
0.590955 0.000000 0.297048
0.759169 0.000000 0.260061
0.909320 0.000000 0.226122
0.980647 0.000000 0.207494
1.000000 0.000000 0.196540
0.000000 0.172403 0.361876
0.000000 0.180937 0.377393
0.133965 0.179391 0.386439
0.418880 0.145160 0.359057
0.619325 0.094827 0.324992
0.800040 0.021419 0.292337
0.952095 0.000000 0.261465
1.000000 0.000000 0.244730
1.000000 0.000000 0.234891
0.000000 0.323103 0.307091
0.000000 0.348438 0.333164
0.000000 0.363624 0.352610
0.345015 0.351697 0.354090
0.582890 0.327466 0.321418
0.779833 0.295741 0.291324
0.939314 0.260978 0.262634
0.996615 0.241372 0.246790
1.000000 0.230243 0.237601
0.000000 0.457958 0.446388
0.000000 0.494440 0.482334
0.000000 0.523220 0.511402
0.000936 0.528418 0.517530
0.515232 0.502163 0.334410
0.743838 0.480157 0.299125
0.910672 0.458428 0.270623
0.981880 0.447055 0.254844
1.000000 0.440621 0.245435
0.000000 0.591183 0.587395
0.000000 0.633737 0.628240
0.000000 0.667628 0.660787
0.000000 0.679976 0.670627
0.000000 0.671965 0.485240
0.689158 0.640995 0.300683
0.866664 0.625065 0.270849
0.944436 0.616870 0.254329
0.980769 0.612499 0.244656
0.000000 0.716964 0.716322
0.000000 0.759730 0.755262
0.000000 0.792334 0.784789
0.000000 0.805120 0.794298
0.000000 0.804628 0.634620
0.204394 0.788910 0.454493
0.806624 0.759446 0.277049
0.899074 0.751855 0.252758
0.939444 0.748320 0.242498
0.000000 0.783184 0.781047
0.000000 0.823284 0.816093
0.000000 0.853069 0.841946
0.000000 0.864169 0.849883
0.000000 0.865197 0.712340
0.001199 0.855257 0.543713
0.632842 0.829522 0.361962
0.855522 0.815256 0.268464
0.916019 0.810501 0.243416
0.000000 0.819650 0.815512
0.000000 0.857352 0.847580
0.000000 0.884757 0.870739
0.000000 0.894891 0.877830
0.000000 0.895980 0.754192
0.000000 0.888468 0.594961
0.493737 0.866139 0.417210
0.784132 0.850426 0.310075
0.885805 0.843271 0.258802
0.000000 0.016177 0.579399
0.000000 0.011849 0.567390
0.137396 0.000140 0.537371
0.365264 0.000000 0.486410
0.551550 0.000000 0.446455
0.713855 0.000000 0.400902
0.861524 0.000000 0.358571
0.937914 0.000000 0.335471
0.977410 0.000000 0.321964
0.000000 0.067710 0.568055
0.000000 0.065062 0.571269
0.126870 0.048219 0.548724
0.376979 0.003150 0.505881
0.576158 0.000000 0.470929
0.747958 0.000000 0.430211
0.900315 0.000000 0.392488
0.975901 0.000000 0.371954
0.999580 0.000000 0.359889
0.000000 0.166464 0.533725
0.000000 0.175911 0.552232
0.075269 0.175511 0.563386
0.383983 0.143681 0.535668
0.607569 0.089672 0.509165
0.791642 0.017395 0.474388
0.945475 0.000000 0.441007
0.999724 0.000000 0.423151
1.000000 0.000000 0.412656
0.000000 0.319690 0.476394
0.000000 0.345427 0.507095
0.000000 0.361691 0.530380
0.311609 0.350679 0.533758
0.572100 0.325616 0.513145
0.772340 0.293604 0.481932
0.933781 0.259191 0.452511
0.994105 0.239955 0.436403
1.000000 0.228794 0.426814
0.000000 0.454786 0.435579
0.000000 0.491382 0.471904
0.000000 0.518081 0.500993
0.187470 0.517641 0.510340
0.500308 0.502214 0.503003
0.723496 0.481842 0.473780
0.894520 0.460112 0.445282
0.971787 0.448613 0.429527
0.997198 0.442241 0.420258
0.000000 0.589217 0.570489
0.000000 0.632579 0.612328
0.000000 0.666690 0.645806
0.000000 0.676519 0.658724
0.000000 0.672576 0.654726
0.666753 0.643059 0.483567
0.849126 0.626642 0.454436
0.929642 0.618639 0.438931
0.970306 0.614090 0.429583
0.000000 0.716007 0.701827
0.000000 0.759345 0.742209
0.000000 0.792477 0.773086
0.000000 0.804438 0.785270
0.000000 0.805125 0.783215
0.133086 0.789935 0.635552
0.787544 0.760796 0.469333
0.883515 0.753312 0.446981
0.925294 0.749573 0.437377
0.000000 0.782823 0.768723
0.000000 0.823236 0.805224
0.000000 0.853003 0.832082
0.000000 0.864337 0.842870
0.000000 0.865432 0.841001
0.000962 0.855886 0.714169
0.606324 0.830712 0.552865
0.838457 0.816270 0.465929
0.901527 0.811550 0.443085
0.000000 0.819414 0.804415
0.000000 0.857264 0.837874
0.000000 0.884738 0.862131
0.000000 0.894967 0.871615
0.000000 0.896350 0.870104
0.000000 0.888945 0.756149
0.458295 0.866931 0.604305
0.764279 0.851398 0.506729
0.870310 0.844216 0.459717
0.000000 0.009345 0.732232
0.000000 0.005712 0.721427
0.077510 0.000000 0.693561
0.326129 0.000000 0.644709
0.515533 0.000000 0.605120
0.697670 0.000000 0.567336
0.847956 0.000000 0.522797
0.925696 0.000000 0.497983
0.968721 0.000000 0.483533
0.000000 0.058728 0.722637
0.000000 0.056611 0.726021
0.063339 0.041508 0.705669
0.338331 0.001867 0.665573
0.541605 0.000000 0.632227
0.734119 0.000000 0.600813
0.889233 0.000000 0.562586
0.966950 0.000000 0.541224
0.995028 0.000000 0.528609
0.000000 0.160091 0.692960
0.000000 0.170189 0.711013
0.009204 0.170896 0.722203
0.345572 0.140651 0.697059
0.574762 0.088441 0.673010
0.780112 0.012016 0.648688
0.936573 0.000000 0.616759
0.995534 0.000000 0.599204
1.000000 0.000000 0.588644
0.000000 0.315225 0.640900
0.000000 0.341519 0.671574
0.000000 0.358537 0.694272
0.267247 0.349230 0.698650
0.538687 0.324808 0.680079
0.762749 0.290754 0.660393
0.926193 0.256312 0.632836
0.990094 0.236732 0.617219
1.000000 0.225576 0.608035
0.000000 0.451701 0.597393
0.000000 0.488893 0.634655
0.000000 0.516266 0.663580
0.146048 0.516044 0.672703
0.465476 0.502367 0.672233
0.713029 0.479952 0.654709
0.886425 0.458447 0.628582
0.965006 0.447106 0.613967
0.993433 0.440680 0.605147
0.000000 0.587041 0.555212
0.000000 0.630438 0.597599
0.000000 0.663087 0.631618
0.003131 0.667597 0.643876
0.383642 0.658005 0.645113
0.641978 0.643051 0.643404
0.830502 0.627212 0.617337
0.913530 0.618859 0.602738
0.955727 0.614426 0.594193
0.000000 0.714709 0.688049
0.000000 0.758411 0.729572
0.000000 0.791039 0.761107
0.000000 0.801072 0.773698
0.000084 0.798253 0.775970
0.050054 0.790045 0.775100
0.767275 0.761246 0.633629
0.866558 0.753487 0.613312
0.910087 0.749939 0.604905
0.000000 0.781652 0.756490
0.000000 0.822413 0.794375
0.000000 0.852425 0.822430
0.000000 0.862310 0.833330
0.000000 0.861259 0.835402
0.000681 0.855807 0.834896
0.578236 0.830857 0.706907
0.820308 0.816485 0.631666
0.885784 0.811592 0.611276
0.000000 0.818533 0.793458
0.000000 0.856698 0.828359
0.000000 0.884168 0.853577
0.000000 0.893434 0.863221
0.000000 0.893011 0.865100
0.000000 0.888694 0.864613
0.426215 0.867181 0.749763
0.743246 0.851516 0.667672
0.853614 0.844247 0.626708
0.000000 0.003411 0.852156
0.000000 0.000593 0.843664
0.013036 0.000000 0.821545
0.285192 0.000000 0.780949
0.478584 0.000000 0.746693
0.663067 0.000000 0.712825
0.832225 0.000000 0.679309
0.912321 0.000000 0.656302
0.956098 0.000000 0.642288
0.000000 0.050196 0.844938
0.000000 0.048700 0.847888
0.003316 0.034995 0.832070
0.298567 0.000935 0.799799
0.506493 0.000000 0.772018
0.702318 0.000000 0.745153
0.876275 0.000000 0.718610
0.955875 0.000000 0.699527
0.988669 0.000000 0.687979
0.000000 0.153655 0.822477
0.000000 0.164521 0.837409
0.000000 0.166157 0.846599
0.306992 0.137654 0.827369
0.541813 0.086973 0.807998
0.751229 0.012328 0.788172
0.926396 0.000000 0.768481
0.990520 0.000000 0.753605
1.000000 0.000000 0.744532
0.000000 0.310872 0.781095
0.000000 0.337700 0.806823
0.000000 0.355539 0.825368
0.219902 0.347139 0.828901
0.505070 0.324035 0.814547
0.734707 0.290655 0.798758
0.916881 0.252692 0.782746
0.985905 0.233053 0.770378
1.000000 0.221734 0.762675
0.000000 0.448038 0.744514
0.000000 0.486211 0.777052
0.000000 0.514047 0.800849
0.063278 0.515054 0.808578
0.427387 0.501765 0.808028
0.684024 0.480327 0.794446
0.877581 0.456775 0.779979
0.957344 0.445050 0.768161
0.989032 0.438878 0.761109
0.000000 0.584125 0.708097
0.000000 0.628441 0.745969
0.000000 0.661567 0.774591
0.000000 0.667249 0.785068
0.339850 0.658090 0.786040
0.611430 0.643646 0.784852
0.821125 0.625949 0.770689
0.905727 0.617704 0.759319
0.948223 0.613171 0.752276
0.000000 0.712788 0.681359
0.000000 0.756685 0.723689
0.000000 0.788205 0.755794
0.000000 0.793967 0.767778
0.195816 0.786857 0.769691
0.537084 0.774774 0.768769
0.758622 0.760360 0.761036
0.850068 0.753548 0.749452
0.894955 0.749741 0.742306
0.000000 0.780386 0.744638
0.000000 0.821405 0.783780
0.000000 0.850625 0.812680
0.000000 0.857498 0.823445
0.000000 0.852727 0.825078
0.243986 0.843063 0.824226
0.570621 0.830321 0.817485
0.802113 0.816328 0.762895
0.869937 0.811345 0.746510
0.000000 0.817353 0.782619
0.000000 0.855793 0.818848
0.000000 0.882754 0.844889
0.000000 0.889846 0.854678
0.000000 0.886389 0.856242
0.067434 0.878173 0.855392
0.416972 0.866647 0.849353
0.722694 0.851459 0.791000
0.836993 0.844103 0.758810
0.000000 0.000856 0.905050
0.000000 0.000000 0.898075
0.000000 0.000000 0.879780
0.261489 0.000000 0.845372
0.457490 0.000000 0.815730
0.643064 0.000000 0.785688
0.815056 0.000000 0.756001
0.902960 0.000000 0.738239
0.948479 0.000000 0.725969
0.000000 0.045958 0.899228
0.000000 0.044671 0.901693
0.000000 0.031742 0.888877
0.275924 0.000491 0.861977
0.486780 0.000000 0.838468
0.684295 0.000000 0.815288
0.860917 0.000000 0.792107
0.948262 0.000000 0.778381
0.984927 0.000000 0.768684
0.000000 0.150329 0.881118
0.000000 0.161637 0.893645
0.000000 0.163758 0.901265
0.285246 0.136017 0.885540
0.523678 0.086368 0.869535
0.735182 0.012641 0.852859
0.913206 0.000000 0.836080
0.986689 0.000000 0.826220
1.000000 0.000000 0.818962
0.000000 0.308547 0.846607
0.000000 0.335718 0.868299
0.000000 0.353969 0.883629
0.192602 0.346332 0.886612
0.486212 0.323465 0.874559
0.718871 0.290496 0.861347
0.904948 0.252776 0.848331
0.982538 0.231493 0.840430
1.000000 0.219836 0.834446
0.000000 0.446182 0.815131
0.000000 0.484500 0.842776
0.000000 0.513072 0.862827
0.023060 0.514513 0.869103
0.406295 0.501722 0.868599
0.667941 0.480675 0.857299
0.865259 0.456651 0.845143
0.952299 0.444389 0.838000
0.986750 0.437918 0.832496
0.000000 0.582855 0.783379
0.000000 0.627540 0.816140
0.000000 0.660993 0.840166
0.000000 0.666592 0.848450
0.313657 0.658321 0.849505
0.593550 0.643858 0.848224
0.808239 0.626039 0.836504
0.900458 0.617262 0.829654
0.944278 0.612541 0.824220
0.000000 0.711900 0.753425
0.000000 0.756132 0.790789
0.000000 0.787828 0.818280
0.000000 0.793551 0.828184
0.186630 0.786525 0.829704
0.533915 0.773949 0.828350
0.746480 0.760540 0.826222
0.844000 0.753073 0.819580
0.890325 0.749047 0.814014
0.000000 0.779778 0.750795
0.000000 0.820612 0.789394
0.000000 0.848947 0.817654
0.000000 0.853958 0.828104
0.088364 0.847057 0.829420
0.463547 0.835676 0.828335
0.695505 0.822942 0.826315
0.802562 0.815588 0.819697
0.861909 0.811233 0.810169
0.000000 0.816863 0.776594
0.000000 0.855081 0.813318
0.000000 0.881418 0.839917
0.000000 0.886342 0.849540
0.019944 0.880528 0.850827
0.302114 0.870146 0.849691
0.600797 0.857985 0.847680
0.736456 0.850140 0.837673
0.827905 0.844111 0.818893
0.000000 0.000068 0.931526
0.000000 0.000000 0.925416
0.000000 0.000000 0.909353
0.247553 0.000000 0.878813
0.445007 0.000000 0.852034
0.631373 0.000000 0.824736
0.804426 0.000000 0.797398
0.894458 0.000000 0.781542
0.942743 0.000000 0.771276
0.000000 0.043650 0.926472
0.000000 0.042512 0.928687
0.000000 0.029975 0.917535
0.262600 0.000270 0.893784
0.475264 0.000000 0.872924
0.673624 0.000000 0.852069
0.851543 0.000000 0.831025
0.940968 0.000000 0.819042
0.981535 0.000000 0.811238
0.000000 0.148463 0.910786
0.000000 0.160028 0.921849
0.000000 0.162480 0.928555
0.272570 0.135101 0.914755
0.513173 0.086116 0.900746
0.725620 0.012812 0.885851
0.905350 0.000000 0.870965
0.982799 0.000000 0.862543
1.000000 0.000000 0.856910
0.000000 0.307244 0.880278
0.000000 0.334551 0.899399
0.000000 0.352956 0.912746
0.176292 0.345890 0.915435
0.475313 0.323196 0.904738
0.709936 0.290682 0.893163
0.897625 0.252956 0.881540
0.978859 0.231177 0.874920
0.999998 0.219064 0.870534
0.000000 0.445112 0.851896
0.000000 0.483717 0.876520
0.000000 0.512520 0.894069
0.013939 0.514037 0.899357
0.394062 0.501787 0.898975
0.658458 0.480763 0.888891
0.857778 0.456746 0.878044
0.946972 0.444348 0.872213
0.984449 0.437524 0.868177
0.000000 0.582103 0.822993
0.000000 0.627061 0.852341
0.000000 0.660745 0.873485
0.000000 0.666482 0.880572
0.298063 0.658487 0.881424
0.582885 0.643779 0.879953
0.800451 0.626288 0.869704
0.894865 0.617198 0.863992
0.941015 0.612175 0.860003
0.000000 0.711430 0.795510
0.000000 0.755740 0.829069
0.000000 0.787696 0.853414
0.000000 0.793552 0.861969
0.165206 0.786525 0.863078
0.522444 0.774162 0.861828
0.738055 0.760701 0.859758
0.838123 0.753121 0.854358
0.886960 0.748870 0.850282
0.000000 0.779289 0.781076
0.000000 0.820235 0.816924
0.000000 0.848588 0.842845
0.000000 0.853178 0.852107
0.086642 0.846045 0.853245
0.490433 0.834352 0.852037
0.713465 0.821646 0.850128
0.808580 0.814849 0.848335
0.857659 0.811039 0.845050
0.000000 0.816535 0.784606
0.000000 0.854723 0.820563
0.000000 0.880610 0.846393
0.000000 0.884392 0.855489
0.034641 0.877544 0.856599
0.430381 0.866287 0.855314
0.673274 0.854019 0.853393
0.773395 0.847621 0.852498
0.830617 0.843570 0.847528
