ZIRCON_LOG_TO_REC709.cube
TITLE "Zircon Log to Rec.709 Linearization"
LUT_3D_SIZE 5
0.000000 0.000000 0.000000
0.082116 0.000000 0.000000
0.231662 0.000000 0.000000
0.504011 0.000000 0.000000
1.000000 0.000000 0.000000
0.000000 0.082116 0.000000
0.082116 0.082116 0.000000
0.231662 0.082116 0.000000
0.504011 0.082116 0.000000
1.000000 0.082116 0.000000
0.000000 0.231662 0.000000
0.082116 0.231662 0.000000
0.231662 0.231662 0.000000
0.504011 0.231662 0.000000
1.000000 0.231662 0.000000
0.000000 0.504011 0.000000
0.082116 0.504011 0.000000
0.231662 0.504011 0.000000
0.504011 0.504011 0.000000
1.000000 0.504011 0.000000
0.000000 1.000000 0.000000
0.082116 1.000000 0.000000
0.231662 1.000000 0.000000
0.504011 1.000000 0.000000
1.000000 1.000000 0.000000
0.000000 0.000000 0.082116
0.082116 0.000000 0.082116
0.231662 0.000000 0.082116
0.504011 0.000000 0.082116
1.000000 0.000000 0.082116
0.000000 0.082116 0.082116
0.082116 0.082116 0.082116
0.231662 0.082116 0.082116
0.504011 0.082116 0.082116
1.000000 0.082116 0.082116
0.000000 0.231662 0.082116
0.082116 0.231662 0.082116
0.231662 0.231662 0.082116
0.504011 0.231662 0.082116
1.000000 0.231662 0.082116
0.000000 0.504011 0.082116
0.082116 0.504011 0.082116
0.231662 0.504011 0.082116
0.504011 0.504011 0.082116
1.000000 0.504011 0.082116
0.000000 1.000000 0.082116
0.082116 1.000000 0.082116
0.231662 1.000000 0.082116
0.504011 1.000000 0.082116
1.000000 1.000000 0.082116
0.000000 0.000000 0.231662
0.082116 0.000000 0.231662
0.231662 0.000000 0.231662
0.504011 0.000000 0.231662
1.000000 0.000000 0.231662
0.000000 0.082116 0.231662
0.082116 0.082116 0.231662
0.231662 0.082116 0.231662
0.504011 0.082116 0.231662
1.000000 0.082116 0.231662
0.000000 0.231662 0.231662
0.082116 0.231662 0.231662
0.231662 0.231662 0.231662
0.504011 0.231662 0.231662
1.000000 0.231662 0.231662
0.000000 0.504011 0.231662
0.082116 0.504011 0.231662
0.231662 0.504011 0.231662
0.504011 0.504011 0.231662
1.000000 0.504011 0.231662
0.000000 1.000000 0.231662
0.082116 1.000000 0.231662
0.231662 1.000000 0.231662
0.504011 1.000000 0.231662
1.000000 1.000000 0.231662
0.000000 0.000000 0.504011
0.082116 0.000000 0.504011
0.231662 0.000000 0.504011
0.504011 0.000000 0.504011
1.000000 0.000000 0.504011
0.000000 0.082116 0.504011
0.082116 0.082116 0.504011
0.231662 0.082116 0.504011
0.504011 0.082116 0.504011
1.000000 0.082116 0.504011
0.000000 0.231662 0.504011
0.082116 0.231662 0.504011
0.231662 0.231662 0.504011
0.504011 0.231662 0.504011
1.000000 0.231662 0.504011
0.000000 0.504011 0.504011
0.082116 0.504011 0.504011
0.231662 0.504011 0.504011
0.504011 0.504011 0.504011
1.000000 0.504011 0.504011
0.000000 1.000000 0.504011
0.082116 1.000000 0.504011
0.231662 1.000000 0.504011
0.504011 1.000000 0.504011
1.000000 1.000000 0.504011
0.000000 0.000000 1.000000
0.082116 0.000000 1.000000
0.231662 0.000000 1.000000
0.504011 0.000000 1.000000
1.000000 0.000000 1.000000
0.000000 0.082116 1.000000
0.082116 0.082116 1.000000
0.231662 0.082116 1.000000
0.504011 0.082116 1.000000
1.000000 0.082116 1.000000
0.000000 0.231662 1.000000
0.082116 0.231662 1.000000
0.231662 0.231662 1.000000
0.504011 0.231662 1.000000
1.000000 0.231662 1.000000
0.000000 0.504011 1.000000
0.082116 0.504011 1.000000
0.231662 0.504011 1.000000
0.504011 0.504011 1.000000
1.000000 0.504011 1.000000
0.000000 1.000000 1.000000
0.082116 1.000000 1.000000
0.231662 1.000000 1.000000
0.504011 1.000000 1.000000
1.000000 1.000000 1.000000
