ZIRCON_LOG_V3_MAX_DR.cube
TITLE "Zircon Log V3 to Rec.709 Linearization"
LUT_3D_SIZE 5
0.000000 0.000000 0.000000
0.021702 0.000000 0.000000
0.090499 0.000000 0.000000
0.308597 0.000000 0.000000
1.000000 0.000000 0.000000
0.000000 0.021702 0.000000
0.021702 0.021702 0.000000
0.090499 0.021702 0.000000
0.308597 0.021702 0.000000
1.000000 0.021702 0.000000
0.000000 0.090499 0.000000
0.021702 0.090499 0.000000
0.090499 0.090499 0.000000
0.308597 0.090499 0.000000
1.000000 0.090499 0.000000
0.000000 0.308597 0.000000
0.021702 0.308597 0.000000
0.090499 0.308597 0.000000
0.308597 0.308597 0.000000
1.000000 0.308597 0.000000
0.000000 1.000000 0.000000
0.021702 1.000000 0.000000
0.090499 1.000000 0.000000
0.308597 1.000000 0.000000
1.000000 1.000000 0.000000
0.000000 0.000000 0.021702
0.021702 0.000000 0.021702
0.090499 0.000000 0.021702
0.308597 0.000000 0.021702
1.000000 0.000000 0.021702
0.000000 0.021702 0.021702
0.021702 0.021702 0.021702
0.090499 0.021702 0.021702
0.308597 0.021702 0.021702
1.000000 0.021702 0.021702
0.000000 0.090499 0.021702
0.021702 0.090499 0.021702
0.090499 0.090499 0.021702
0.308597 0.090499 0.021702
1.000000 0.090499 0.021702
0.000000 0.308597 0.021702
0.021702 0.308597 0.021702
0.090499 0.308597 0.021702
0.308597 0.308597 0.021702
1.000000 0.308597 0.021702
0.000000 1.000000 0.021702
0.021702 1.000000 0.021702
0.090499 1.000000 0.021702
0.308597 1.000000 0.021702
1.000000 1.000000 0.021702
0.000000 0.000000 0.090499
0.021702 0.000000 0.090499
0.090499 0.000000 0.090499
0.308597 0.000000 0.090499
1.000000 0.000000 0.090499
0.000000 0.021702 0.090499
0.021702 0.021702 0.090499
0.090499 0.021702 0.090499
0.308597 0.021702 0.090499
1.000000 0.021702 0.090499
0.000000 0.090499 0.090499
0.021702 0.090499 0.090499
0.090499 0.090499 0.090499
0.308597 0.090499 0.090499
1.000000 0.090499 0.090499
0.000000 0.308597 0.090499
0.021702 0.308597 0.090499
0.090499 0.308597 0.090499
0.308597 0.308597 0.090499
1.000000 0.308597 0.090499
0.000000 1.000000 0.090499
0.021702 1.000000 0.090499
0.090499 1.000000 0.090499
0.308597 1.000000 0.090499
1.000000 1.000000 0.090499
0.000000 0.000000 0.308597
0.021702 0.000000 0.308597
0.090499 0.000000 0.308597
0.308597 0.000000 0.308597
1.000000 0.000000 0.308597
0.000000 0.021702 0.308597
0.021702 0.021702 0.308597
0.090499 0.021702 0.308597
0.308597 0.021702 0.308597
1.000000 0.021702 0.308597
0.000000 0.090499 0.308597
0.021702 0.090499 0.308597
0.090499 0.090499 0.308597
0.308597 0.090499 0.308597
1.000000 0.090499 0.308597
0.000000 0.308597 0.308597
0.021702 0.308597 0.308597
0.090499 0.308597 0.308597
0.308597 0.308597 0.308597
1.000000 0.308597 0.308597
0.000000 1.000000 0.308597
0.021702 1.000000 0.308597
0.090499 1.000000 0.308597
0.308597 1.000000 0.308597
1.000000 1.000000 0.308597
0.000000 0.000000 1.000000
0.021702 0.000000 1.000000
0.090499 0.000000 1.000000
0.308597 0.000000 1.000000
1.000000 0.000000 1.000000
0.000000 0.021702 1.000000
0.021702 0.021702 1.000000
0.090499 0.021702 1.000000
0.308597 0.021702 1.000000
1.000000 0.021702 1.000000
0.000000 0.090499 1.000000
0.021702 0.090499 1.000000
0.090499 0.090499 1.000000
0.308597 0.090499 1.000000
1.000000 0.090499 1.000000
0.000000 0.308597 1.000000
0.021702 0.308597 1.000000
0.090499 0.308597 1.000000
0.308597 0.308597 1.000000
1.000000 0.308597 1.000000
0.000000 1.000000 1.000000
0.021702 1.000000 1.000000
0.090499 1.000000 1.000000
0.308597 1.000000 1.000000
1.000000 1.000000 1.000000
