ZIRCON_TECHNICOOLER.cube
TITLE "Zircon Log to Technicooler FLOG2"
LUT_3D_SIZE 33
0.031244 0.031245 0.031261
0.031244 0.031245 0.031261
0.000000 0.034783 0.032447
0.063103 0.028967 0.027993
0.109727 0.024905 0.023390
0.145042 0.020643 0.019443
0.176706 0.016096 0.015787
0.206967 0.011130 0.012187
0.235715 0.006148 0.008846
0.289685 0.000117 0.003096
0.339086 0.000000 0.000141
0.384268 0.000000 0.000000
0.426512 0.000000 0.000000
0.466398 0.000000 0.000000
0.503704 0.000000 0.000000
0.546257 0.000000 0.000000
0.589642 0.000000 0.000000
0.630239 0.000000 0.000000
0.667599 0.000000 0.000000
0.702064 0.000000 0.000000
0.746587 0.000000 0.000000
0.789070 0.000000 0.000000
0.827108 0.000000 0.000000
0.860070 0.000000 0.000000
0.889148 0.000000 0.000000
0.914822 0.000000 0.000000
0.933137 0.000000 0.000000
0.950117 0.000000 0.000000
0.962145 0.000000 0.000000
0.972859 0.000000 0.000000
0.983246 0.000000 0.000000
0.988257 0.000000 0.000000
0.991434 0.000000 0.000000
0.031244 0.031245 0.031261
0.031244 0.031245 0.031261
0.000000 0.034783 0.032447
0.063103 0.028967 0.027993
0.109727 0.024905 0.023390
0.145042 0.020643 0.019443
0.176706 0.016096 0.015787
0.206967 0.011130 0.012187
0.235715 0.006148 0.008846
0.289685 0.000117 0.003096
0.339086 0.000000 0.000141
0.384268 0.000000 0.000000
0.426512 0.000000 0.000000
0.466398 0.000000 0.000000
0.503704 0.000000 0.000000
0.546257 0.000000 0.000000
0.589642 0.000000 0.000000
0.630239 0.000000 0.000000
0.667599 0.000000 0.000000
0.702064 0.000000 0.000000
0.746587 0.000000 0.000000
0.789070 0.000000 0.000000
0.827108 0.000000 0.000000
0.860070 0.000000 0.000000
0.889148 0.000000 0.000000
0.914822 0.000000 0.000000
0.933137 0.000000 0.000000
0.950117 0.000000 0.000000
0.962145 0.000000 0.000000
0.972859 0.000000 0.000000
0.983246 0.000000 0.000000
0.988257 0.000000 0.000000
0.991434 0.000000 0.000000
0.046638 0.005042 0.034269
0.046638 0.005042 0.034269
0.003240 0.007665 0.037537
0.079351 0.003302 0.031263
0.123067 0.000881 0.026786
0.157065 0.000007 0.022888
0.187640 0.000000 0.019079
0.217127 0.000000 0.015342
0.245313 0.000000 0.011855
0.298351 0.000000 0.005716
0.347012 0.000000 0.001131
0.391705 0.000000 0.000003
0.433483 0.000000 0.000000
0.473053 0.000000 0.000000
0.509861 0.000000 0.000000
0.551897 0.000000 0.000000
0.594921 0.000000 0.000000
0.635105 0.000000 0.000000
0.672164 0.000000 0.000000
0.706362 0.000000 0.000000
0.750304 0.000000 0.000000
0.792477 0.000000 0.000000
0.830034 0.000000 0.000000
0.862558 0.000000 0.000000
0.891282 0.000000 0.000000
0.916711 0.000000 0.000000
0.934869 0.000000 0.000000
0.951647 0.000000 0.000000
0.963487 0.000000 0.000000
0.974033 0.000000 0.000000
0.984258 0.000000 0.000000
0.989062 0.000000 0.000000
0.992022 0.000000 0.000000
0.000000 0.054881 0.052497
0.000000 0.054881 0.052497
0.000000 0.058013 0.053825
0.050940 0.050193 0.030113
0.103131 0.045661 0.024326
0.140294 0.041088 0.020390
0.173206 0.036012 0.016677
0.204671 0.030403 0.013071
0.234419 0.024582 0.009679
0.290009 0.012839 0.003797
0.340655 0.002980 0.000393
0.387101 0.000062 0.000000
0.430338 0.000000 0.000000
0.471141 0.000000 0.000000
0.509209 0.000000 0.000000
0.552402 0.000000 0.000000
0.596772 0.000000 0.000000
0.638020 0.000000 0.000000
0.675962 0.000000 0.000000
0.710952 0.000000 0.000000
0.755977 0.000000 0.000000
0.798922 0.000000 0.000000
0.837306 0.000000 0.000000
0.870475 0.000000 0.000000
0.899627 0.000000 0.000000
0.925357 0.000000 0.000000
0.943709 0.000000 0.000000
0.960669 0.000000 0.000000
0.972639 0.000000 0.000000
0.983301 0.000000 0.000000
0.993637 0.000000 0.000000
0.996853 0.000000 0.000000
0.997704 0.000000 0.000000
0.000000 0.090367 0.087256
0.000000 0.090367 0.087256
0.000000 0.092451 0.088102
0.000611 0.087798 0.057646
0.086004 0.081122 0.026514
0.131498 0.076722 0.021357
0.166905 0.071652 0.017708
0.200367 0.065417 0.014099
0.231922 0.058912 0.010724
0.290646 0.045219 0.004789
0.343830 0.031717 0.000761
0.392446 0.018802 0.000000
0.437498 0.006984 0.000000
0.480028 0.000520 0.000000
0.519403 0.000015 0.000000
0.564313 0.000000 0.000000
0.609962 0.000000 0.000000
0.652587 0.000000 0.000000
0.691763 0.000000 0.000000
0.727775 0.000000 0.000000
0.773772 0.000000 0.000000
0.817641 0.000000 0.000000
0.856418 0.000000 0.000000
0.889817 0.000000 0.000000
0.919156 0.000000 0.000000
0.944917 0.000000 0.000000
0.963258 0.000000 0.000000
0.977338 0.000000 0.000000
0.984972 0.000000 0.000000
0.991773 0.000000 0.000000
0.998365 0.000000 0.000000
1.000000 0.000000 0.000000
1.000000 0.000000 0.000000
0.000000 0.117021 0.114495
0.000000 0.117021 0.114495
0.000000 0.118005 0.114483
0.000000 0.115774 0.084029
0.017441 0.112346 0.045316
0.119766 0.106085 0.021454
0.158914 0.102077 0.017733
0.194341 0.096931 0.014207
0.227536 0.091246 0.010880
0.289266 0.078715 0.005059
0.344804 0.064549 0.000878
0.395366 0.050040 0.000000
0.442329 0.035950 0.000000
0.486397 0.022115 0.000000
0.527155 0.009294 0.000000
0.573555 0.000678 0.000000
0.620526 0.000000 0.000000
0.664351 0.000000 0.000000
0.704553 0.000000 0.000000
0.741451 0.000000 0.000000
0.788508 0.000000 0.000000
0.833311 0.000000 0.000000
0.872542 0.000000 0.000000
0.906208 0.000000 0.000000
0.935730 0.000000 0.000000
0.961389 0.000000 0.000000
0.979587 0.000000 0.000000
0.990629 0.000000 0.000000
0.993786 0.000000 0.000000
0.996598 0.000000 0.000000
0.999324 0.000000 0.000000
1.000000 0.000000 0.000000
1.000000 0.000000 0.000000
0.000000 0.139998 0.138501
0.000000 0.139998 0.138501
0.000000 0.139995 0.137678
0.000000 0.139985 0.107556
0.000148 0.138848 0.066912
0.045026 0.135334 0.037834
0.146179 0.129090 0.017383
0.186092 0.124832 0.013525
0.221298 0.120175 0.010386
0.285566 0.109257 0.004648
0.343207 0.097215 0.000735
0.395985 0.084628 0.000000
0.444447 0.070704 0.000000
0.490401 0.055696 0.000000
0.532577 0.041066 0.000000
0.580570 0.024145 0.000000
0.629105 0.007617 0.000000
0.673840 0.001568 0.000000
0.714826 0.000000 0.000000
0.752375 0.000000 0.000000
0.799771 0.000000 0.000000
0.844861 0.000000 0.000000
0.884394 0.000000 0.000000
0.918164 0.000000 0.000000
0.947543 0.000000 0.000000
0.972892 0.000000 0.000000
0.990821 0.000000 0.000000
0.999704 0.000000 0.000000
0.999803 0.000000 0.000000
0.999892 0.000000 0.000000
0.999979 0.000000 0.000000
1.000000 0.000000 0.000000
1.000000 0.000000 0.000000
0.000000 0.161422 0.161321
0.000000 0.161422 0.161321
0.000000 0.160204 0.159384
0.000000 0.162277 0.129539
0.000000 0.163188 0.088666
0.001382 0.161744 0.056707
0.072486 0.157736 0.031643
0.164542 0.151765 0.014650
0.212036 0.147161 0.008998
0.279633 0.138049 0.003638
0.339935 0.127905 0.000404
0.394331 0.116961 0.000000
0.444368 0.105156 0.000000
0.491294 0.092297 0.000000
0.534833 0.078871 0.000000
0.583567 0.061266 0.000000
0.633255 0.041929 0.000000
0.678918 0.023751 0.000000
0.720550 0.010846 0.000000
0.758636 0.002791 0.000000
0.806964 0.000000 0.000000
0.852221 0.000000 0.000000
0.891924 0.000000 0.000000
0.925745 0.000000 0.000000
0.955032 0.000000 0.000000
0.977463 0.000000 0.000000
0.992571 0.000000 0.000000
1.000000 0.000000 0.000000
1.000000 0.000000 0.000000
1.000000 0.000000 0.000000
1.000000 0.000000 0.000000
1.000000 0.000000 0.000000
1.000000 0.000000 0.000000
0.000000 0.181492 0.182985
0.000000 0.181492 0.182985
0.000000 0.179118 0.179974
0.000000 0.183409 0.150620
0.000000 0.185674 0.108986
0.000000 0.186117 0.076738
0.008451 0.184238 0.048179
0.101655 0.179697 0.025325
0.194599 0.173559 0.009075
0.272322 0.165250 0.002306
0.334467 0.156141 0.000048
0.390500 0.146520 0.000000
0.442062 0.136313 0.000000
0.490441 0.125385 0.000000
0.534659 0.113835 0.000000
0.584677 0.098944 0.000000
0.634927 0.081212 0.000000
0.681278 0.062355 0.000000
0.723428 0.044004 0.000000
0.761865 0.027228 0.000000
0.810498 0.008404 0.000000
0.856220 0.001318 0.000000
0.895954 0.000000 0.000000
0.929810 0.000000 0.000000
0.959258 0.000000 0.000000
0.979990 0.000000 0.000000
0.993403 0.000000 0.000000
1.000000 0.000000 0.000000
1.000000 0.000000 0.000000
1.000000 0.000000 0.000000
1.000000 0.000000 0.000000
1.000000 0.000000 0.000000
1.000000 0.000000 0.000000
0.000000 0.219103 0.224226
0.000000 0.219103 0.224226
0.000000 0.213987 0.218564
0.000000 0.223119 0.190824
0.000000 0.228661 0.148206
0.000000 0.231386 0.115018
0.000000 0.231944 0.084769
0.002695 0.230497 0.055782
0.058389 0.227323 0.031429
0.248776 0.215978 0.001109
0.320093 0.208381 0.000000
0.379504 0.200729 0.000000
0.433162 0.192200 0.000000
0.483446 0.183370 0.000000
0.529294 0.174159 0.000000
0.580989 0.162656 0.000000
0.633233 0.149647 0.000000
0.680627 0.135798 0.000000
0.723774 0.121794 0.000000
0.763123 0.107797 0.000000
0.812314 0.087288 0.000000
0.858560 0.064807 0.000000
0.898666 0.043607 0.000000
0.932709 0.025939 0.000000
0.962165 0.011663 0.000000
0.981713 0.004909 0.000000
0.993972 0.001618 0.000000
1.000000 0.000000 0.000000
1.000000 0.000000 0.000000
1.000000 0.000000 0.000000
1.000000 0.000000 0.000000
1.000000 0.000000 0.000000
1.000000 0.000000 0.000000
0.000000 0.254576 0.263635
0.000000 0.254576 0.263635
0.000000 0.246478 0.255012
0.000000 0.260715 0.229433
0.000000 0.268480 0.185080
0.000000 0.272900 0.150569
0.000000 0.275242 0.119380
0.000000 0.275366 0.088946
0.000000 0.273968 0.060132
0.120909 0.267122 0.015832
0.286052 0.256721 0.000444
0.365012 0.249112 0.000000
0.421384 0.242027 0.000000
0.473489 0.234434 0.000000
0.521266 0.226854 0.000000
0.574266 0.217012 0.000000
0.627543 0.206052 0.000000
0.676129 0.194808 0.000000
0.720126 0.183643 0.000000
0.760175 0.172746 0.000000
0.810736 0.157676 0.000000
0.857422 0.141402 0.000000
0.898005 0.125494 0.000000
0.932365 0.110610 0.000000
0.961944 0.096378 0.000000
0.981599 0.083070 0.000000
0.993934 0.073382 0.000000
1.000000 0.064285 0.000000
1.000000 0.057749 0.000000
1.000000 0.051927 0.000000
1.000000 0.046283 0.000000
1.000000 0.041689 0.000000
1.000000 0.037522 0.000000
0.000000 0.287810 0.300794
0.000000 0.287810 0.300794
0.000000 0.276864 0.289353
0.000000 0.295649 0.265713
0.000000 0.305659 0.219970
0.000000 0.311392 0.183959
0.000000 0.314460 0.151195
0.000000 0.315712 0.119690
0.000000 0.315941 0.090051
0.006784 0.312285 0.036611
0.180819 0.304282 0.005486
0.342651 0.293208 0.000000
0.407389 0.286857 0.000000
0.461712 0.280426 0.000000
0.510683 0.273555 0.000000
0.565604 0.265275 0.000000
0.620140 0.255708 0.000000
0.669995 0.246217 0.000000
0.715083 0.236926 0.000000
0.755911 0.227842 0.000000
0.806644 0.214986 0.000000
0.854063 0.202076 0.000000
0.894870 0.189549 0.000000
0.929438 0.178284 0.000000
0.959352 0.168082 0.000000
0.980111 0.158609 0.000000
0.993443 0.151731 0.000000
1.000000 0.145024 0.000000
1.000000 0.140009 0.000000
1.000000 0.135542 0.000000
1.000000 0.131211 0.000000
1.000000 0.126995 0.000000
1.000000 0.122895 0.000000
0.000000 0.319106 0.335961
0.000000 0.319106 0.335961
0.000000 0.306187 0.322585
0.000000 0.328824 0.300487
0.000000 0.340209 0.252908
0.000000 0.347126 0.215545
0.000000 0.351170 0.181491
0.000000 0.353459 0.148930
0.000000 0.354062 0.118015
0.000000 0.352274 0.060336
0.061170 0.347577 0.017735
0.237344 0.339577 0.000636
0.386396 0.329080 0.000000
0.448242 0.322675 0.000000
0.499312 0.316911 0.000000
0.555262 0.309124 0.000000
0.611440 0.300858 0.000000
0.662391 0.292492 0.000000
0.708041 0.284106 0.000000
0.749313 0.275969 0.000000
0.801362 0.265222 0.000000
0.849038 0.253901 0.000000
0.890580 0.243625 0.000000
0.925715 0.234512 0.000000
0.955872 0.226228 0.000000
0.978083 0.218412 0.000000
0.992775 0.212706 0.000000
1.000000 0.207427 0.000000
1.000000 0.203699 0.000000
1.000000 0.200377 0.000000
1.000000 0.197157 0.000000
1.000000 0.193880 0.000000
1.000000 0.190647 0.000000
0.000000 0.349455 0.370049
0.000000 0.349455 0.370049
0.000000 0.333886 0.354060
0.000000 0.360054 0.333498
0.000000 0.373352 0.284978
0.000000 0.381288 0.246299
0.000000 0.385840 0.210740
0.000000 0.388401 0.176657
0.000000 0.389806 0.144761
0.000000 0.389824 0.086164
0.000000 0.386938 0.035947
0.115654 0.381533 0.002881
0.286673 0.372987 0.000000
0.426404 0.362667 0.000000
0.485221 0.356611 0.000000
0.543503 0.349977 0.000000
0.601209 0.342652 0.000000
0.652969 0.334899 0.000000
0.699677 0.327519 0.000000
0.741985 0.320489 0.000000
0.794407 0.310594 0.000000
0.843117 0.300976 0.000000
0.885102 0.292022 0.000000
0.920351 0.283919 0.000000
0.950391 0.276402 0.000000
0.974749 0.269813 0.000000
0.991559 0.265125 0.000000
0.999857 0.260636 0.000000
0.999905 0.257342 0.000000
0.999948 0.254408 0.000000
0.999990 0.251563 0.000000
1.000000 0.248927 0.000000
1.000000 0.246408 0.000000
0.000000 0.377694 0.401768
0.000000 0.377694 0.401768
0.000000 0.360651 0.384406
0.000000 0.389442 0.364721
0.000000 0.404362 0.315369
0.000000 0.412648 0.275084
0.000000 0.418375 0.238756
0.000000 0.421395 0.203388
0.000000 0.423166 0.170318
0.000000 0.424578 0.110438
0.000000 0.422748 0.056347
0.003409 0.418728 0.014481
0.173826 0.412876 0.000000
0.336491 0.404550 0.000000
0.469392 0.394154 0.000000
0.531715 0.388119 0.000000
0.590388 0.381066 0.000000
0.643581 0.374268 0.000000
0.691038 0.367439 0.000000
0.733744 0.360786 0.000000
0.787275 0.352115 0.000000
0.836525 0.343444 0.000000
0.878608 0.335075 0.000000
0.914104 0.327770 0.000000
0.944704 0.321446 0.000000
0.970672 0.315537 0.000000
0.988923 0.311236 0.000000
0.998282 0.307346 0.000000
0.998861 0.304667 0.000000
0.999376 0.302281 0.000000
0.999876 0.299967 0.000000
1.000000 0.297756 0.000000
1.000000 0.295619 0.000000
0.000000 0.410020 0.437960
0.000000 0.410020 0.437960
0.000000 0.391255 0.419038
0.000000 0.423348 0.400902
0.000000 0.439157 0.350040
0.000000 0.448954 0.309120
0.000000 0.455089 0.271277
0.000000 0.458769 0.234633
0.000000 0.460938 0.200209
0.000000 0.462832 0.138012
0.000000 0.462526 0.082604
0.000000 0.460431 0.033793
0.025374 0.456540 0.002588
0.207970 0.450094 0.000000
0.360802 0.442401 0.000000
0.508385 0.430675 0.000000
0.576100 0.424146 0.000000
0.630298 0.417650 0.000000
0.678902 0.411509 0.000000
0.722823 0.405777 0.000000
0.777431 0.398074 0.000000
0.827004 0.389880 0.000000
0.869942 0.382719 0.000000
0.905988 0.376344 0.000000
0.936630 0.370433 0.000000
0.962961 0.365373 0.000000
0.981554 0.361804 0.000000
0.992396 0.358507 0.000000
0.994958 0.356181 0.000000
0.997239 0.354108 0.000000
0.999452 0.352099 0.000000
1.000000 0.350042 0.000000
1.000000 0.348009 0.000000
0.000000 0.444045 0.475734
0.000000 0.444045 0.475734
0.000000 0.422899 0.454646
0.000000 0.458097 0.438095
0.000000 0.475759 0.386983
0.000000 0.486569 0.345192
0.000000 0.493078 0.305924
0.000000 0.496970 0.267708
0.000000 0.499906 0.232230
0.000000 0.502692 0.167838
0.000000 0.503276 0.111274
0.000000 0.502489 0.058849
0.001881 0.499562 0.017350
0.042452 0.495199 0.000000
0.226973 0.489037 0.000000
0.400888 0.479800 0.000000
0.547680 0.468821 0.000000
0.615777 0.462133 0.000000
0.665724 0.456673 0.000000
0.710659 0.451513 0.000000
0.765863 0.444103 0.000000
0.816658 0.437111 0.000000
0.859963 0.430397 0.000000
0.896329 0.424547 0.000000
0.927489 0.419485 0.000000
0.954089 0.415048 0.000000
0.972827 0.411892 0.000000
0.985320 0.408864 0.000000
0.990266 0.406636 0.000000
0.994671 0.404652 0.000000
0.998941 0.402728 0.000000
1.000000 0.400980 0.000000
1.000000 0.399322 0.000000
0.000000 0.475486 0.510375
0.000000 0.475486 0.510375
0.000000 0.453149 0.488386
0.000000 0.490870 0.473193
0.000000 0.509802 0.421861
0.000000 0.520971 0.379070
0.000000 0.528353 0.339169
0.000000 0.532918 0.300042
0.000000 0.535956 0.263203
0.000000 0.539188 0.196563
0.000000 0.540658 0.138804
0.000000 0.540397 0.085643
0.000000 0.538838 0.037414
0.005229 0.535511 0.005464
0.062962 0.531236 0.000161
0.275810 0.524127 0.000000
0.452657 0.514053 0.000000
0.578041 0.504541 0.000000
0.651653 0.497828 0.000000
0.697354 0.492854 0.000000
0.753917 0.486313 0.000000
0.805228 0.479569 0.000000
0.849261 0.473562 0.000000
0.886229 0.468401 0.000000
0.917796 0.463900 0.000000
0.944543 0.459721 0.000000
0.963330 0.456686 0.000000
0.977576 0.453949 0.000000
0.985130 0.452073 0.000000
0.991859 0.450401 0.000000
0.998383 0.448780 0.000000
1.000000 0.447177 0.000000
1.000000 0.445610 0.000000
0.000000 0.505177 0.542694
0.000000 0.505177 0.542694
0.000000 0.481490 0.519685
0.000000 0.521576 0.506012
0.000000 0.541314 0.454533
0.000000 0.553171 0.411431
0.000000 0.561050 0.370891
0.000000 0.566049 0.330932
0.000000 0.569254 0.293000
0.000000 0.572852 0.224340
0.000000 0.574881 0.165227
0.000000 0.575300 0.111703
0.000000 0.574472 0.060753
0.000000 0.572240 0.018579
0.000000 0.569212 0.000548
0.125773 0.563453 0.000000
0.338100 0.555302 0.000000
0.501208 0.545394 0.000000
0.610818 0.537097 0.000000
0.684253 0.530651 0.000000
0.742028 0.524724 0.000000
0.794049 0.518360 0.000000
0.838791 0.512946 0.000000
0.876237 0.508222 0.000000
0.908012 0.503921 0.000000
0.935006 0.500098 0.000000
0.953986 0.497363 0.000000
0.969919 0.494868 0.000000
0.979874 0.493132 0.000000
0.988742 0.491585 0.000000
0.997339 0.490086 0.000000
0.999562 0.488628 0.000000
0.999680 0.487210 0.000000
0.000000 0.533168 0.572825
0.000000 0.533168 0.572825
0.000000 0.507978 0.548673
0.000000 0.550166 0.536504
0.000000 0.570599 0.485162
0.000000 0.583244 0.442137
0.000000 0.591351 0.400991
0.000000 0.596536 0.360219
0.000000 0.600023 0.321482
0.000000 0.604035 0.251111
0.000000 0.606354 0.190572
0.000000 0.607439 0.136503
0.000000 0.607002 0.085093
0.000000 0.605806 0.036594
0.000000 0.603496 0.003723
0.000000 0.598791 0.000208
0.216606 0.592310 0.000000
0.400848 0.583756 0.000000
0.547661 0.574532 0.000000
0.658773 0.566268 0.000000
0.730369 0.559749 0.000000
0.783317 0.553953 0.000000
0.828645 0.548925 0.000000
0.866452 0.544444 0.000000
0.898419 0.540268 0.000000
0.925694 0.536808 0.000000
0.944902 0.534399 0.000000
0.962118 0.532090 0.000000
0.973838 0.530393 0.000000
0.984279 0.528882 0.000000
0.994400 0.527418 0.000000
0.997440 0.526111 0.000000
0.998133 0.524881 0.000000
0.000000 0.569742 0.611547
0.000000 0.569742 0.611547
0.000000 0.542712 0.586144
0.000000 0.586883 0.575539
0.000000 0.608775 0.525517
0.000000 0.621814 0.482465
0.000000 0.630293 0.440993
0.000000 0.635488 0.399254
0.000000 0.639394 0.359794
0.000000 0.644230 0.287716
0.000000 0.646648 0.225153
0.000000 0.647831 0.169658
0.000000 0.648401 0.118503
0.000000 0.647731 0.067682
0.000000 0.646002 0.021549
0.000000 0.643077 0.001569
0.028723 0.637842 0.000005
0.239988 0.631447 0.000000
0.422574 0.624031 0.000000
0.559590 0.616023 0.000000
0.713172 0.603885 0.000000
0.768304 0.598878 0.000000
0.814293 0.593918 0.000000
0.852583 0.589685 0.000000
0.885260 0.586193 0.000000
0.912756 0.582842 0.000000
0.932017 0.580381 0.000000
0.949390 0.578253 0.000000
0.961308 0.576868 0.000000
0.971924 0.575635 0.000000
0.982216 0.574439 0.000000
0.987384 0.573300 0.000000
0.990798 0.572202 0.000000
0.000000 0.604887 0.647903
0.000000 0.604887 0.647903
0.000000 0.577340 0.622607
0.000000 0.623404 0.613941
0.000000 0.645436 0.564774
0.000000 0.658707 0.522195
0.000000 0.667346 0.480755
0.000000 0.673250 0.439207
0.000000 0.677192 0.399040
0.000000 0.681963 0.325059
0.000000 0.684698 0.260919
0.000000 0.686367 0.204310
0.000000 0.687444 0.152850
0.000000 0.687007 0.102324
0.000000 0.686380 0.052908
0.000000 0.683922 0.007498
0.004505 0.680373 0.000543
0.097960 0.675337 0.000000
0.259218 0.669107 0.000000
0.434436 0.662261 0.000000
0.608995 0.651914 0.000000
0.738741 0.641368 0.000000
0.799559 0.636020 0.000000
0.838660 0.632304 0.000000
0.871737 0.629008 0.000000
0.899602 0.625970 0.000000
0.919131 0.623771 0.000000
0.936709 0.621861 0.000000
0.948738 0.620613 0.000000
0.959453 0.619501 0.000000
0.969840 0.618423 0.000000
0.977155 0.617278 0.000000
0.983336 0.616133 0.000000
0.000000 0.637441 0.680713
0.000000 0.637441 0.680713
0.000000 0.608870 0.655084
0.000000 0.656366 0.648231
0.000000 0.678575 0.600531
0.000000 0.692139 0.558982
0.000000 0.700856 0.517956
0.000000 0.706690 0.476274
0.000000 0.710780 0.435936
0.000000 0.715647 0.360821
0.000000 0.718563 0.295411
0.000000 0.720592 0.237852
0.000000 0.721586 0.185471
0.000000 0.721797 0.135484
0.000000 0.721299 0.086588
0.000000 0.719742 0.030687
0.000000 0.717082 0.003673
0.028654 0.712956 0.000000
0.138339 0.707889 0.000000
0.290407 0.702226 0.000000
0.500434 0.692993 0.000000
0.658613 0.682569 0.000000
0.761697 0.674779 0.000000
0.825651 0.669457 0.000000
0.859064 0.666254 0.000000
0.887309 0.663519 0.000000
0.907130 0.661593 0.000000
0.924871 0.659795 0.000000
0.936931 0.658511 0.000000
0.947673 0.657368 0.000000
0.958087 0.656260 0.000000
0.966777 0.655216 0.000000
0.974745 0.654213 0.000000
0.000000 0.666058 0.708978
0.000000 0.666058 0.708978
0.000000 0.636771 0.683277
0.000000 0.685035 0.677787
0.000000 0.707487 0.631873
0.000000 0.721039 0.591312
0.000000 0.729790 0.550926
0.000000 0.735522 0.509386
0.000000 0.739635 0.469030
0.000000 0.744679 0.393394
0.000000 0.747738 0.327080
0.000000 0.749822 0.268541
0.000000 0.750854 0.215439
0.000000 0.751389 0.165542
0.000000 0.751086 0.117783
0.000000 0.750242 0.058870
0.000000 0.748098 0.013005
0.000000 0.744764 0.001920
0.057400 0.740602 0.000000
0.163547 0.735835 0.000000
0.390742 0.727703 0.000000
0.569668 0.718381 0.000000
0.705654 0.709186 0.000000
0.795723 0.702371 0.000000
0.844347 0.698224 0.000000
0.876377 0.695380 0.000000
0.896380 0.693566 0.000000
0.914259 0.691844 0.000000
0.926389 0.690593 0.000000
0.937195 0.689479 0.000000
0.947670 0.688398 0.000000
0.957036 0.687443 0.000000
0.965865 0.686546 0.000000
0.000000 0.691524 0.733601
0.000000 0.691524 0.733601
0.000000 0.662021 0.708268
0.000000 0.710388 0.703671
0.000000 0.733163 0.659825
0.000000 0.746311 0.620077
0.000000 0.755064 0.580526
0.000000 0.760871 0.539562
0.000000 0.764822 0.499225
0.000000 0.770103 0.423591
0.000000 0.773303 0.356706
0.000000 0.775100 0.297069
0.000000 0.776488 0.243643
0.000000 0.776841 0.193214
0.000000 0.777097 0.146323
0.000000 0.776637 0.089303
0.000000 0.774789 0.029571
0.000000 0.772257 0.006272
0.010980 0.768720 0.000000
0.058856 0.764519 0.000000
0.277161 0.757697 0.000000
0.481077 0.749131 0.000000
0.631809 0.740341 0.000000
0.743661 0.732720 0.000000
0.826371 0.726343 0.000000
0.866511 0.722884 0.000000
0.886561 0.720983 0.000000
0.904559 0.719328 0.000000
0.916834 0.718242 0.000000
0.927769 0.717275 0.000000
0.938370 0.716337 0.000000
0.947788 0.715428 0.000000
0.956645 0.714545 0.000000
0.000000 0.714588 0.755251
0.000000 0.714588 0.755251
0.000000 0.685135 0.730498
0.000000 0.733470 0.726832
0.000000 0.755912 0.684685
0.000000 0.768918 0.646253
0.000000 0.777519 0.607637
0.000000 0.783293 0.567421
0.000000 0.787236 0.527569
0.000000 0.792402 0.452048
0.000000 0.795565 0.384788
0.000000 0.797416 0.324681
0.000000 0.798803 0.270712
0.000000 0.799309 0.220086
0.000000 0.799811 0.173483
0.000000 0.799382 0.117562
0.000000 0.798049 0.055508
0.000000 0.795876 0.016157
0.000000 0.792876 0.001663
0.020198 0.789314 0.000000
0.149375 0.783307 0.000000
0.384723 0.775428 0.000000
0.554251 0.767237 0.000000
0.681266 0.759689 0.000000
0.778733 0.752763 0.000000
0.836852 0.748227 0.000000
0.871019 0.745404 0.000000
0.896003 0.743323 0.000000
0.908345 0.742279 0.000000
0.919339 0.741350 0.000000
0.929997 0.740449 0.000000
0.939444 0.739554 0.000000
0.948322 0.738679 0.000000
0.000000 0.731192 0.770672
0.000000 0.731192 0.770672
0.000000 0.701838 0.746399
0.000000 0.750117 0.743435
0.000000 0.772162 0.702467
0.000000 0.785123 0.665129
0.000000 0.793574 0.627233
0.000000 0.799298 0.587612
0.000000 0.803271 0.548228
0.000000 0.808271 0.472817
0.000000 0.811364 0.405323
0.000000 0.813335 0.345012
0.000000 0.814639 0.290587
0.000000 0.815336 0.239892
0.000000 0.815948 0.193371
0.000000 0.815462 0.138084
0.000000 0.814561 0.076964
0.000000 0.812554 0.024786
0.000000 0.809934 0.003283
0.006658 0.806863 0.000000
0.051039 0.801349 0.000000
0.311253 0.793964 0.000000
0.495699 0.786264 0.000000
0.632467 0.778973 0.000000
0.736458 0.772027 0.000000
0.810226 0.766584 0.000000
0.858138 0.762880 0.000000
0.889902 0.760370 0.000000
