ZIRCON_TECHNICOOLER.cube
TITLE "Zircon Log to Technicooler FLOG2"
LUT_3D_SIZE 5
0.031244 0.031245 0.031261
0.235715 0.006148 0.008846
0.589642 0.000000 0.000000
0.889148 0.000000 0.000000
0.991434 0.000000 0.000000
0.000000 0.181492 0.182985
0.194599 0.173559 0.009075
0.634927 0.081212 0.000000
0.959258 0.000000 0.000000
1.000000 0.000000 0.000000
0.000000 0.444045 0.475734
0.000000 0.499906 0.232230
0.547680 0.468821 0.000000
0.927489 0.419485 0.000000
1.000000 0.399322 0.000000
0.000000 0.691524 0.733601
0.000000 0.764822 0.499225
0.000000 0.774789 0.029571
0.826371 0.726343 0.000000
0.956645 0.714545 0.000000
0.000000 0.795300 0.827364
0.000000 0.861770 0.629877
0.000000 0.873306 0.166499
0.529321 0.841917 0.000000
0.902819 0.818124 0.000000
0.001631 0.028875 0.210300
0.225032 0.003961 0.179109
0.583476 0.000000 0.097441
0.885549 0.000000 0.028813
0.989709 0.000000 0.006082
0.000000 0.177731 0.170472
0.179654 0.181156 0.181772
0.626179 0.097682 0.116939
0.955389 0.000000 0.052918
1.000000 0.000000 0.026998
0.000000 0.459317 0.467365
0.000000 0.522668 0.525503
0.542247 0.496916 0.110940
0.926972 0.451756 0.033521
1.000000 0.433903 0.009289
0.000000 0.714398 0.732155
0.000000 0.789294 0.793782
0.000000 0.800768 0.383669
0.825198 0.753991 0.005285
0.953274 0.742863 0.000000
0.000000 0.817140 0.827747
0.000000 0.881965 0.876827
0.000000 0.893384 0.523345
0.528653 0.862303 0.130545
0.900863 0.839380 0.000000
0.000000 0.016177 0.579399
0.137396 0.000140 0.537371
0.551550 0.000000 0.446455
0.861524 0.000000 0.358571
0.977410 0.000000 0.321964
0.000000 0.166464 0.533725
0.075269 0.175511 0.563386
0.607569 0.089672 0.509165
0.945475 0.000000 0.441007
1.000000 0.000000 0.412656
0.000000 0.454786 0.435579
0.000000 0.518081 0.500993
0.500308 0.502214 0.503003
0.894520 0.460112 0.445282
0.997198 0.442241 0.420258
0.000000 0.716007 0.701827
0.000000 0.792477 0.773086
0.000000 0.805125 0.783215
0.787544 0.760796 0.469333
0.925294 0.749573 0.437377
0.000000 0.819414 0.804415
0.000000 0.884738 0.862131
0.000000 0.896350 0.870104
0.458295 0.866931 0.604305
0.870310 0.844216 0.459717
0.000000 0.003411 0.852156
0.013036 0.000000 0.821545
0.478584 0.000000 0.746693
0.832225 0.000000 0.679309
0.956098 0.000000 0.642288
0.000000 0.153655 0.822477
0.000000 0.166157 0.846599
0.541813 0.086973 0.807998
0.926396 0.000000 0.768481
1.000000 0.000000 0.744532
0.000000 0.448038 0.744514
0.000000 0.514047 0.800849
0.427387 0.501765 0.808028
0.877581 0.456775 0.779979
0.989032 0.438878 0.761109
0.000000 0.712788 0.681359
0.000000 0.788205 0.755794
0.195816 0.786857 0.769691
0.758622 0.760360 0.761036
0.894955 0.749741 0.742306
0.000000 0.817353 0.782619
0.000000 0.882754 0.844889
0.000000 0.886389 0.856242
0.416972 0.866647 0.849353
0.836993 0.844103 0.758810
0.000000 0.000068 0.931526
0.000000 0.000000 0.909353
0.445007 0.000000 0.852034
0.804426 0.000000 0.797398
0.942743 0.000000 0.771276
0.000000 0.148463 0.910786
0.000000 0.162480 0.928555
0.513173 0.086116 0.900746
0.905350 0.000000 0.870965
1.000000 0.000000 0.856910
0.000000 0.445112 0.851896
0.000000 0.512520 0.894069
0.394062 0.501787 0.898975
0.857778 0.456746 0.878044
0.984449 0.437524 0.868177
0.000000 0.711430 0.795510
0.000000 0.787696 0.853414
0.165206 0.786525 0.863078
0.738055 0.760701 0.859758
0.886960 0.748870 0.850282
0.000000 0.816535 0.784606
0.000000 0.880610 0.846393
0.034641 0.877544 0.856599
0.673274 0.854019 0.853393
0.830617 0.843570 0.847528
