ZIRCON_LOG_V2_TO_REC709.cube
TITLE "Zircon Log V2 to Rec.709 Linearization"
LUT_3D_SIZE 33
0.000000 0.000000 0.000000
0.003076 0.000000 0.000000
0.006531 0.000000 0.000000
0.010411 0.000000 0.000000
0.014768 0.000000 0.000000
0.019662 0.000000 0.000000
0.025158 0.000000 0.000000
0.031330 0.000000 0.000000
0.038261 0.000000 0.000000
0.046045 0.000000 0.000000
0.054788 0.000000 0.000000
0.064605 0.000000 0.000000
0.075632 0.000000 0.000000
0.088014 0.000000 0.000000
0.101921 0.000000 0.000000
0.117539 0.000000 0.000000
0.135078 0.000000 0.000000
0.154776 0.000000 0.000000
0.176897 0.000000 0.000000
0.201741 0.000000 0.000000
0.229642 0.000000 0.000000
0.260976 0.000000 0.000000
0.296166 0.000000 0.000000
0.335685 0.000000 0.000000
0.380068 0.000000 0.000000
0.429912 0.000000 0.000000
0.485889 0.000000 0.000000
0.548755 0.000000 0.000000
0.619356 0.000000 0.000000
0.698645 0.000000 0.000000
0.787690 0.000000 0.000000
0.887692 0.000000 0.000000
1.000000 0.000000 0.000000
0.000000 0.003076 0.000000
0.003076 0.003076 0.000000
0.006531 0.003076 0.000000
0.010411 0.003076 0.000000
0.014768 0.003076 0.000000
0.019662 0.003076 0.000000
0.025158 0.003076 0.000000
0.031330 0.003076 0.000000
0.038261 0.003076 0.000000
0.046045 0.003076 0.000000
0.054788 0.003076 0.000000
0.064605 0.003076 0.000000
0.075632 0.003076 0.000000
0.088014 0.003076 0.000000
0.101921 0.003076 0.000000
0.117539 0.003076 0.000000
0.135078 0.003076 0.000000
0.154776 0.003076 0.000000
0.176897 0.003076 0.000000
0.201741 0.003076 0.000000
0.229642 0.003076 0.000000
0.260976 0.003076 0.000000
0.296166 0.003076 0.000000
0.335685 0.003076 0.000000
0.380068 0.003076 0.000000
0.429912 0.003076 0.000000
0.485889 0.003076 0.000000
0.548755 0.003076 0.000000
0.619356 0.003076 0.000000
0.698645 0.003076 0.000000
0.787690 0.003076 0.000000
0.887692 0.003076 0.000000
1.000000 0.003076 0.000000
0.000000 0.006531 0.000000
0.003076 0.006531 0.000000
0.006531 0.006531 0.000000
0.010411 0.006531 0.000000
0.014768 0.006531 0.000000
0.019662 0.006531 0.000000
0.025158 0.006531 0.000000
0.031330 0.006531 0.000000
0.038261 0.006531 0.000000
0.046045 0.006531 0.000000
0.054788 0.006531 0.000000
0.064605 0.006531 0.000000
0.075632 0.006531 0.000000
0.088014 0.006531 0.000000
0.101921 0.006531 0.000000
0.117539 0.006531 0.000000
0.135078 0.006531 0.000000
0.154776 0.006531 0.000000
0.176897 0.006531 0.000000
0.201741 0.006531 0.000000
0.229642 0.006531 0.000000
0.260976 0.006531 0.000000
0.296166 0.006531 0.000000
0.335685 0.006531 0.000000
0.380068 0.006531 0.000000
0.429912 0.006531 0.000000
0.485889 0.006531 0.000000
0.548755 0.006531 0.000000
0.619356 0.006531 0.000000
0.698645 0.006531 0.000000
0.787690 0.006531 0.000000
0.887692 0.006531 0.000000
1.000000 0.006531 0.000000
0.000000 0.010411 0.000000
0.003076 0.010411 0.000000
0.006531 0.010411 0.000000
0.010411 0.010411 0.000000
0.014768 0.010411 0.000000
0.019662 0.010411 0.000000
0.025158 0.010411 0.000000
0.031330 0.010411 0.000000
0.038261 0.010411 0.000000
0.046045 0.010411 0.000000
0.054788 0.010411 0.000000
0.064605 0.010411 0.000000
0.075632 0.010411 0.000000
0.088014 0.010411 0.000000
0.101921 0.010411 0.000000
0.117539 0.010411 0.000000
0.135078 0.010411 0.000000
0.154776 0.010411 0.000000
0.176897 0.010411 0.000000
0.201741 0.010411 0.000000
0.229642 0.010411 0.000000
0.260976 0.010411 0.000000
0.296166 0.010411 0.000000
0.335685 0.010411 0.000000
0.380068 0.010411 0.000000
0.429912 0.010411 0.000000
0.485889 0.010411 0.000000
0.548755 0.010411 0.000000
0.619356 0.010411 0.000000
0.698645 0.010411 0.000000
0.787690 0.010411 0.000000
0.887692 0.010411 0.000000
1.000000 0.010411 0.000000
0.000000 0.014768 0.000000
0.003076 0.014768 0.000000
0.006531 0.014768 0.000000
0.010411 0.014768 0.000000
0.014768 0.014768 0.000000
0.019662 0.014768 0.000000
0.025158 0.014768 0.000000
0.031330 0.014768 0.000000
0.038261 0.014768 0.000000
0.046045 0.014768 0.000000
0.054788 0.014768 0.000000
0.064605 0.014768 0.000000
0.075632 0.014768 0.000000
0.088014 0.014768 0.000000
0.101921 0.014768 0.000000
0.117539 0.014768 0.000000
0.135078 0.014768 0.000000
0.154776 0.014768 0.000000
0.176897 0.014768 0.000000
0.201741 0.014768 0.000000
0.229642 0.014768 0.000000
0.260976 0.014768 0.000000
0.296166 0.014768 0.000000
0.335685 0.014768 0.000000
0.380068 0.014768 0.000000
0.429912 0.014768 0.000000
0.485889 0.014768 0.000000
0.548755 0.014768 0.000000
0.619356 0.014768 0.000000
0.698645 0.014768 0.000000
0.787690 0.014768 0.000000
0.887692 0.014768 0.000000
1.000000 0.014768 0.000000
0.000000 0.019662 0.000000
0.003076 0.019662 0.000000
0.006531 0.019662 0.000000
0.010411 0.019662 0.000000
0.014768 0.019662 0.000000
0.019662 0.019662 0.000000
0.025158 0.019662 0.000000
0.031330 0.019662 0.000000
0.038261 0.019662 0.000000
0.046045 0.019662 0.000000
0.054788 0.019662 0.000000
0.064605 0.019662 0.000000
0.075632 0.019662 0.000000
0.088014 0.019662 0.000000
0.101921 0.019662 0.000000
0.117539 0.019662 0.000000
0.135078 0.019662 0.000000
0.154776 0.019662 0.000000
0.176897 0.019662 0.000000
0.201741 0.019662 0.000000
0.229642 0.019662 0.000000
0.260976 0.019662 0.000000
0.296166 0.019662 0.000000
0.335685 0.019662 0.000000
0.380068 0.019662 0.000000
0.429912 0.019662 0.000000
0.485889 0.019662 0.000000
0.548755 0.019662 0.000000
0.619356 0.019662 0.000000
0.698645 0.019662 0.000000
0.787690 0.019662 0.000000
0.887692 0.019662 0.000000
1.000000 0.019662 0.000000
0.000000 0.025158 0.000000
0.003076 0.025158 0.000000
0.006531 0.025158 0.000000
0.010411 0.025158 0.000000
0.014768 0.025158 0.000000
0.019662 0.025158 0.000000
0.025158 0.025158 0.000000
0.031330 0.025158 0.000000
0.038261 0.025158 0.000000
0.046045 0.025158 0.000000
0.054788 0.025158 0.000000
0.064605 0.025158 0.000000
0.075632 0.025158 0.000000
0.088014 0.025158 0.000000
0.101921 0.025158 0.000000
0.117539 0.025158 0.000000
0.135078 0.025158 0.000000
0.154776 0.025158 0.000000
0.176897 0.025158 0.000000
0.201741 0.025158 0.000000
0.229642 0.025158 0.000000
0.260976 0.025158 0.000000
0.296166 0.025158 0.000000
0.335685 0.025158 0.000000
0.380068 0.025158 0.000000
0.429912 0.025158 0.000000
0.485889 0.025158 0.000000
0.548755 0.025158 0.000000
0.619356 0.025158 0.000000
0.698645 0.025158 0.000000
0.787690 0.025158 0.000000
0.887692 0.025158 0.000000
1.000000 0.025158 0.000000
0.000000 0.031330 0.000000
0.003076 0.031330 0.000000
0.006531 0.031330 0.000000
0.010411 0.031330 0.000000
0.014768 0.031330 0.000000
0.019662 0.031330 0.000000
0.025158 0.031330 0.000000
0.031330 0.031330 0.000000
0.038261 0.031330 0.000000
0.046045 0.031330 0.000000
0.054788 0.031330 0.000000
0.064605 0.031330 0.000000
0.075632 0.031330 0.000000
0.088014 0.031330 0.000000
0.101921 0.031330 0.000000
0.117539 0.031330 0.000000
0.135078 0.031330 0.000000
0.154776 0.031330 0.000000
0.176897 0.031330 0.000000
0.201741 0.031330 0.000000
0.229642 0.031330 0.000000
0.260976 0.031330 0.000000
0.296166 0.031330 0.000000
0.335685 0.031330 0.000000
0.380068 0.031330 0.000000
0.429912 0.031330 0.000000
0.485889 0.031330 0.000000
0.548755 0.031330 0.000000
0.619356 0.031330 0.000000
0.698645 0.031330 0.000000
0.787690 0.031330 0.000000
0.887692 0.031330 0.000000
1.000000 0.031330 0.000000
0.000000 0.038261 0.000000
0.003076 0.038261 0.000000
0.006531 0.038261 0.000000
0.010411 0.038261 0.000000
0.014768 0.038261 0.000000
0.019662 0.038261 0.000000
0.025158 0.038261 0.000000
0.031330 0.038261 0.000000
0.038261 0.038261 0.000000
0.046045 0.038261 0.000000
0.054788 0.038261 0.000000
0.064605 0.038261 0.000000
0.075632 0.038261 0.000000
0.088014 0.038261 0.000000
0.101921 0.038261 0.000000
0.117539 0.038261 0.000000
0.135078 0.038261 0.000000
0.154776 0.038261 0.000000
0.176897 0.038261 0.000000
0.201741 0.038261 0.000000
0.229642 0.038261 0.000000
0.260976 0.038261 0.000000
0.296166 0.038261 0.000000
0.335685 0.038261 0.000000
0.380068 0.038261 0.000000
0.429912 0.038261 0.000000
0.485889 0.038261 0.000000
0.548755 0.038261 0.000000
0.619356 0.038261 0.000000
0.698645 0.038261 0.000000
0.787690 0.038261 0.000000
0.887692 0.038261 0.000000
1.000000 0.038261 0.000000
0.000000 0.046045 0.000000
0.003076 0.046045 0.000000
0.006531 0.046045 0.000000
0.010411 0.046045 0.000000
0.014768 0.046045 0.000000
0.019662 0.046045 0.000000
0.025158 0.046045 0.000000
0.031330 0.046045 0.000000
0.038261 0.046045 0.000000
0.046045 0.046045 0.000000
0.054788 0.046045 0.000000
0.064605 0.046045 0.000000
0.075632 0.046045 0.000000
0.088014 0.046045 0.000000
0.101921 0.046045 0.000000
0.117539 0.046045 0.000000
0.135078 0.046045 0.000000
0.154776 0.046045 0.000000
0.176897 0.046045 0.000000
0.201741 0.046045 0.000000
0.229642 0.046045 0.000000
0.260976 0.046045 0.000000
0.296166 0.046045 0.000000
0.335685 0.046045 0.000000
0.380068 0.046045 0.000000
0.429912 0.046045 0.000000
0.485889 0.046045 0.000000
0.548755 0.046045 0.000000
0.619356 0.046045 0.000000
0.698645 0.046045 0.000000
0.787690 0.046045 0.000000
0.887692 0.046045 0.000000
1.000000 0.046045 0.000000
0.000000 0.054788 0.000000
0.003076 0.054788 0.000000
0.006531 0.054788 0.000000
0.010411 0.054788 0.000000
0.014768 0.054788 0.000000
0.019662 0.054788 0.000000
0.025158 0.054788 0.000000
0.031330 0.054788 0.000000
0.038261 0.054788 0.000000
0.046045 0.054788 0.000000
0.054788 0.054788 0.000000
0.064605 0.054788 0.000000
0.075632 0.054788 0.000000
0.088014 0.054788 0.000000
0.101921 0.054788 0.000000
0.117539 0.054788 0.000000
0.135078 0.054788 0.000000
0.154776 0.054788 0.000000
0.176897 0.054788 0.000000
0.201741 0.054788 0.000000
0.229642 0.054788 0.000000
0.260976 0.054788 0.000000
0.296166 0.054788 0.000000
0.335685 0.054788 0.000000
0.380068 0.054788 0.000000
0.429912 0.054788 0.000000
0.485889 0.054788 0.000000
0.548755 0.054788 0.000000
0.619356 0.054788 0.000000
0.698645 0.054788 0.000000
0.787690 0.054788 0.000000
0.887692 0.054788 0.000000
1.000000 0.054788 0.000000
0.000000 0.064605 0.000000
0.003076 0.064605 0.000000
0.006531 0.064605 0.000000
0.010411 0.064605 0.000000
0.014768 0.064605 0.000000
0.019662 0.064605 0.000000
0.025158 0.064605 0.000000
0.031330 0.064605 0.000000
0.038261 0.064605 0.000000
0.046045 0.064605 0.000000
0.054788 0.064605 0.000000
0.064605 0.064605 0.000000
0.075632 0.064605 0.000000
0.088014 0.064605 0.000000
0.101921 0.064605 0.000000
0.117539 0.064605 0.000000
0.135078 0.064605 0.000000
0.154776 0.064605 0.000000
0.176897 0.064605 0.000000
0.201741 0.064605 0.000000
0.229642 0.064605 0.000000
0.260976 0.064605 0.000000
0.296166 0.064605 0.000000
0.335685 0.064605 0.000000
0.380068 0.064605 0.000000
0.429912 0.064605 0.000000
0.485889 0.064605 0.000000
0.548755 0.064605 0.000000
0.619356 0.064605 0.000000
0.698645 0.064605 0.000000
0.787690 0.064605 0.000000
0.887692 0.064605 0.000000
1.000000 0.064605 0.000000
0.000000 0.075632 0.000000
0.003076 0.075632 0.000000
0.006531 0.075632 0.000000
0.010411 0.075632 0.000000
0.014768 0.075632 0.000000
0.019662 0.075632 0.000000
0.025158 0.075632 0.000000
0.031330 0.075632 0.000000
0.038261 0.075632 0.000000
0.046045 0.075632 0.000000
0.054788 0.075632 0.000000
0.064605 0.075632 0.000000
0.075632 0.075632 0.000000
0.088014 0.075632 0.000000
0.101921 0.075632 0.000000
0.117539 0.075632 0.000000
0.135078 0.075632 0.000000
0.154776 0.075632 0.000000
0.176897 0.075632 0.000000
0.201741 0.075632 0.000000
0.229642 0.075632 0.000000
0.260976 0.075632 0.000000
0.296166 0.075632 0.000000
0.335685 0.075632 0.000000
0.380068 0.075632 0.000000
0.429912 0.075632 0.000000
0.485889 0.075632 0.000000
0.548755 0.075632 0.000000
0.619356 0.075632 0.000000
0.698645 0.075632 0.000000
0.787690 0.075632 0.000000
0.887692 0.075632 0.000000
1.000000 0.075632 0.000000
0.000000 0.088014 0.000000
0.003076 0.088014 0.000000
0.006531 0.088014 0.000000
0.010411 0.088014 0.000000
0.014768 0.088014 0.000000
0.019662 0.088014 0.000000
0.025158 0.088014 0.000000
0.031330 0.088014 0.000000
0.038261 0.088014 0.000000
0.046045 0.088014 0.000000
0.054788 0.088014 0.000000
0.064605 0.088014 0.000000
0.075632 0.088014 0.000000
0.088014 0.088014 0.000000
0.101921 0.088014 0.000000
0.117539 0.088014 0.000000
0.135078 0.088014 0.000000
0.154776 0.088014 0.000000
0.176897 0.088014 0.000000
0.201741 0.088014 0.000000
0.229642 0.088014 0.000000
0.260976 0.088014 0.000000
0.296166 0.088014 0.000000
0.335685 0.088014 0.000000
0.380068 0.088014 0.000000
0.429912 0.088014 0.000000
0.485889 0.088014 0.000000
0.548755 0.088014 0.000000
0.619356 0.088014 0.000000
0.698645 0.088014 0.000000
0.787690 0.088014 0.000000
0.887692 0.088014 0.000000
1.000000 0.088014 0.000000
0.000000 0.101921 0.000000
0.003076 0.101921 0.000000
0.006531 0.101921 0.000000
0.010411 0.101921 0.000000
0.014768 0.101921 0.000000
0.019662 0.101921 0.000000
0.025158 0.101921 0.000000
0.031330 0.101921 0.000000
0.038261 0.101921 0.000000
0.046045 0.101921 0.000000
0.054788 0.101921 0.000000
0.064605 0.101921 0.000000
0.075632 0.101921 0.000000
0.088014 0.101921 0.000000
0.101921 0.101921 0.000000
0.117539 0.101921 0.000000
0.135078 0.101921 0.000000
0.154776 0.101921 0.000000
0.176897 0.101921 0.000000
0.201741 0.101921 0.000000
0.229642 0.101921 0.000000
0.260976 0.101921 0.000000
0.296166 0.101921 0.000000
0.335685 0.101921 0.000000
0.380068 0.101921 0.000000
0.429912 0.101921 0.000000
0.485889 0.101921 0.000000
0.548755 0.101921 0.000000
0.619356 0.101921 0.000000
0.698645 0.101921 0.000000
0.787690 0.101921 0.000000
0.887692 0.101921 0.000000
1.000000 0.101921 0.000000
0.000000 0.117539 0.000000
0.003076 0.117539 0.000000
0.006531 0.117539 0.000000
0.010411 0.117539 0.000000
0.014768 0.117539 0.000000
0.019662 0.117539 0.000000
0.025158 0.117539 0.000000
0.031330 0.117539 0.000000
0.038261 0.117539 0.000000
0.046045 0.117539 0.000000
0.054788 0.117539 0.000000
0.064605 0.117539 0.000000
0.075632 0.117539 0.000000
0.088014 0.117539 0.000000
0.101921 0.117539 0.000000
0.117539 0.117539 0.000000
0.135078 0.117539 0.000000
0.154776 0.117539 0.000000
0.176897 0.117539 0.000000
0.201741 0.117539 0.000000
0.229642 0.117539 0.000000
0.260976 0.117539 0.000000
0.296166 0.117539 0.000000
0.335685 0.117539 0.000000
0.380068 0.117539 0.000000
0.429912 0.117539 0.000000
0.485889 0.117539 0.000000
0.548755 0.117539 0.000000
0.619356 0.117539 0.000000
0.698645 0.117539 0.000000
0.787690 0.117539 0.000000
0.887692 0.117539 0.000000
1.000000 0.117539 0.000000
0.000000 0.135078 0.000000
0.003076 0.135078 0.000000
0.006531 0.135078 0.000000
0.010411 0.135078 0.000000
0.014768 0.135078 0.000000
0.019662 0.135078 0.000000
0.025158 0.135078 0.000000
0.031330 0.135078 0.000000
0.038261 0.135078 0.000000
0.046045 0.135078 0.000000
0.054788 0.135078 0.000000
0.064605 0.135078 0.000000
0.075632 0.135078 0.000000
0.088014 0.135078 0.000000
0.101921 0.135078 0.000000
0.117539 0.135078 0.000000
0.135078 0.135078 0.000000
0.154776 0.135078 0.000000
0.176897 0.135078 0.000000
0.201741 0.135078 0.000000
0.229642 0.135078 0.000000
0.260976 0.135078 0.000000
0.296166 0.135078 0.000000
0.335685 0.135078 0.000000
0.380068 0.135078 0.000000
0.429912 0.135078 0.000000
0.485889 0.135078 0.000000
0.548755 0.135078 0.000000
0.619356 0.135078 0.000000
0.698645 0.135078 0.000000
0.787690 0.135078 0.000000
0.887692 0.135078 0.000000
1.000000 0.135078 0.000000
0.000000 0.154776 0.000000
0.003076 0.154776 0.000000
0.006531 0.154776 0.000000
0.010411 0.154776 0.000000
0.014768 0.154776 0.000000
0.019662 0.154776 0.000000
0.025158 0.154776 0.000000
0.031330 0.154776 0.000000
0.038261 0.154776 0.000000
0.046045 0.154776 0.000000
0.054788 0.154776 0.000000
0.064605 0.154776 0.000000
0.075632 0.154776 0.000000
0.088014 0.154776 0.000000
0.101921 0.154776 0.000000
0.117539 0.154776 0.000000
0.135078 0.154776 0.000000
0.154776 0.154776 0.000000
0.176897 0.154776 0.000000
0.201741 0.154776 0.000000
0.229642 0.154776 0.000000
0.260976 0.154776 0.000000
0.296166 0.154776 0.000000
0.335685 0.154776 0.000000
0.380068 0.154776 0.000000
0.429912 0.154776 0.000000
0.485889 0.154776 0.000000
0.548755 0.154776 0.000000
0.619356 0.154776 0.000000
0.698645 0.154776 0.000000
0.787690 0.154776 0.000000
0.887692 0.154776 0.000000
1.000000 0.154776 0.000000
0.000000 0.176897 0.000000
0.003076 0.176897 0.000000
0.006531 0.176897 0.000000
0.010411 0.176897 0.000000
0.014768 0.176897 0.000000
0.019662 0.176897 0.000000
0.025158 0.176897 0.000000
0.031330 0.176897 0.000000
0.038261 0.176897 0.000000
0.046045 0.176897 0.000000
0.054788 0.176897 0.000000
0.064605 0.176897 0.000000
0.075632 0.176897 0.000000
0.088014 0.176897 0.000000
0.101921 0.176897 0.000000
0.117539 0.176897 0.000000
0.135078 0.176897 0.000000
0.154776 0.176897 0.000000
0.176897 0.176897 0.000000
0.201741 0.176897 0.000000
0.229642 0.176897 0.000000
0.260976 0.176897 0.000000
0.296166 0.176897 0.000000
0.335685 0.176897 0.000000
0.380068 0.176897 0.000000
0.429912 0.176897 0.000000
0.485889 0.176897 0.000000
0.548755 0.176897 0.000000
0.619356 0.176897 0.000000
0.698645 0.176897 0.000000
0.787690 0.176897 0.000000
0.887692 0.176897 0.000000
1.000000 0.176897 0.000000
0.000000 0.201741 0.000000
0.003076 0.201741 0.000000
0.006531 0.201741 0.000000
0.010411 0.201741 0.000000
0.014768 0.201741 0.000000
0.019662 0.201741 0.000000
0.025158 0.201741 0.000000
0.031330 0.201741 0.000000
0.038261 0.201741 0.000000
0.046045 0.201741 0.000000
0.054788 0.201741 0.000000
0.064605 0.201741 0.000000
0.075632 0.201741 0.000000
0.088014 0.201741 0.000000
0.101921 0.201741 0.000000
0.117539 0.201741 0.000000
0.135078 0.201741 0.000000
0.154776 0.201741 0.000000
0.176897 0.201741 0.000000
0.201741 0.201741 0.000000
0.229642 0.201741 0.000000
0.260976 0.201741 0.000000
0.296166 0.201741 0.000000
0.335685 0.201741 0.000000
0.380068 0.201741 0.000000
0.429912 0.201741 0.000000
0.485889 0.201741 0.000000
0.548755 0.201741 0.000000
0.619356 0.201741 0.000000
0.698645 0.201741 0.000000
0.787690 0.201741 0.000000
0.887692 0.201741 0.000000
1.000000 0.201741 0.000000
0.000000 0.229642 0.000000
0.003076 0.229642 0.000000
0.006531 0.229642 0.000000
0.010411 0.229642 0.000000
0.014768 0.229642 0.000000
0.019662 0.229642 0.000000
0.025158 0.229642 0.000000
0.031330 0.229642 0.000000
0.038261 0.229642 0.000000
0.046045 0.229642 0.000000
0.054788 0.229642 0.000000
0.064605 0.229642 0.000000
0.075632 0.229642 0.000000
0.088014 0.229642 0.000000
0.101921 0.229642 0.000000
0.117539 0.229642 0.000000
0.135078 0.229642 0.000000
0.154776 0.229642 0.000000
0.176897 0.229642 0.000000
0.201741 0.229642 0.000000
0.229642 0.229642 0.000000
0.260976 0.229642 0.000000
0.296166 0.229642 0.000000
0.335685 0.229642 0.000000
0.380068 0.229642 0.000000
0.429912 0.229642 0.000000
0.485889 0.229642 0.000000
0.548755 0.229642 0.000000
0.619356 0.229642 0.000000
0.698645 0.229642 0.000000
0.787690 0.229642 0.000000
0.887692 0.229642 0.000000
1.000000 0.229642 0.000000
0.000000 0.260976 0.000000
0.003076 0.260976 0.000000
0.006531 0.260976 0.000000
0.010411 0.260976 0.000000
0.014768 0.260976 0.000000
0.019662 0.260976 0.000000
0.025158 0.260976 0.000000
0.031330 0.260976 0.000000
0.038261 0.260976 0.000000
0.046045 0.260976 0.000000
0.054788 0.260976 0.000000
0.064605 0.260976 0.000000
0.075632 0.260976 0.000000
0.088014 0.260976 0.000000
0.101921 0.260976 0.000000
0.117539 0.260976 0.000000
0.135078 0.260976 0.000000
0.154776 0.260976 0.000000
0.176897 0.260976 0.000000
0.201741 0.260976 0.000000
0.229642 0.260976 0.000000
0.260976 0.260976 0.000000
0.296166 0.260976 0.000000
0.335685 0.260976 0.000000
0.380068 0.260976 0.000000
0.429912 0.260976 0.000000
0.485889 0.260976 0.000000
0.548755 0.260976 0.000000
0.619356 0.260976 0.000000
0.698645 0.260976 0.000000
0.787690 0.260976 0.000000
0.887692 0.260976 0.000000
1.000000 0.260976 0.000000
0.000000 0.296166 0.000000
0.003076 0.296166 0.000000
0.006531 0.296166 0.000000
0.010411 0.296166 0.000000
0.014768 0.296166 0.000000
0.019662 0.296166 0.000000
0.025158 0.296166 0.000000
0.031330 0.296166 0.000000
0.038261 0.296166 0.000000
0.046045 0.296166 0.000000
0.054788 0.296166 0.000000
0.064605 0.296166 0.000000
0.075632 0.296166 0.000000
0.088014 0.296166 0.000000
0.101921 0.296166 0.000000
0.117539 0.296166 0.000000
0.135078 0.296166 0.000000
0.154776 0.296166 0.000000
0.176897 0.296166 0.000000
0.201741 0.296166 0.000000
0.229642 0.296166 0.000000
0.260976 0.296166 0.000000
0.296166 0.296166 0.000000
0.335685 0.296166 0.000000
0.380068 0.296166 0.000000
0.429912 0.296166 0.000000
0.485889 0.296166 0.000000
0.548755 0.296166 0.000000
0.619356 0.296166 0.000000
0.698645 0.296166 0.000000
0.787690 0.296166 0.000000
0.887692 0.296166 0.000000
1.000000 0.296166 0.000000
0.000000 0.335685 0.000000
0.003076 0.335685 0.000000
0.006531 0.335685 0.000000
0.010411 0.335685 0.000000
0.014768 0.335685 0.000000
0.019662 0.335685 0.000000
0.025158 0.335685 0.000000
0.031330 0.335685 0.000000
0.038261 0.335685 0.000000
0.046045 0.335685 0.000000
0.054788 0.335685 0.000000
0.064605 0.335685 0.000000
0.075632 0.335685 0.000000
0.088014 0.335685 0.000000
0.101921 0.335685 0.000000
0.117539 0.335685 0.000000
0.135078 0.335685 0.000000
0.154776 0.335685 0.000000
0.176897 0.335685 0.000000
0.201741 0.335685 0.000000
0.229642 0.335685 0.000000
0.260976 0.335685 0.000000
0.296166 0.335685 0.000000
0.335685 0.335685 0.000000
0.380068 0.335685 0.000000
0.429912 0.335685 0.000000
0.485889 0.335685 0.000000
0.548755 0.335685 0.000000
0.619356 0.335685 0.000000
0.698645 0.335685 0.000000
0.787690 0.335685 0.000000
0.887692 0.335685 0.000000
1.000000 0.335685 0.000000
0.000000 0.380068 0.000000
0.003076 0.380068 0.000000
0.006531 0.380068 0.000000
0.010411 0.380068 0.000000
0.014768 0.380068 0.000000
0.019662 0.380068 0.000000
0.025158 0.380068 0.000000
0.031330 0.380068 0.000000
0.038261 0.380068 0.000000
0.046045 0.380068 0.000000
0.054788 0.380068 0.000000
0.064605 0.380068 0.000000
0.075632 0.380068 0.000000
0.088014 0.380068 0.000000
0.101921 0.380068 0.000000
0.117539 0.380068 0.000000
0.135078 0.380068 0.000000
0.154776 0.380068 0.000000
0.176897 0.380068 0.000000
0.201741 0.380068 0.000000
0.229642 0.380068 0.000000
0.260976 0.380068 0.000000
0.296166 0.380068 0.000000
0.335685 0.380068 0.000000
0.380068 0.380068 0.000000
0.429912 0.380068 0.000000
0.485889 0.380068 0.000000
0.548755 0.380068 0.000000
0.619356 0.380068 0.000000
0.698645 0.380068 0.000000
0.787690 0.380068 0.000000
0.887692 0.380068 0.000000
1.000000 0.380068 0.000000
0.000000 0.429912 0.000000
0.003076 0.429912 0.000000
0.006531 0.429912 0.000000
0.010411 0.429912 0.000000
0.014768 0.429912 0.000000
0.019662 0.429912 0.000000
0.025158 0.429912 0.000000
0.031330 0.429912 0.000000
0.038261 0.429912 0.000000
0.046045 0.429912 0.000000
0.054788 0.429912 0.000000
0.064605 0.429912 0.000000
0.075632 0.429912 0.000000
0.088014 0.429912 0.000000
0.101921 0.429912 0.000000
0.117539 0.429912 0.000000
0.135078 0.429912 0.000000
0.154776 0.429912 0.000000
0.176897 0.429912 0.000000
0.201741 0.429912 0.000000
0.229642 0.429912 0.000000
0.260976 0.429912 0.000000
0.296166 0.429912 0.000000
0.335685 0.429912 0.000000
0.380068 0.429912 0.000000
0.429912 0.429912 0.000000
0.485889 0.429912 0.000000
0.548755 0.429912 0.000000
0.619356 0.429912 0.000000
0.698645 0.429912 0.000000
0.787690 0.429912 0.000000
0.887692 0.429912 0.000000
1.000000 0.429912 0.000000
0.000000 0.485889 0.000000
0.003076 0.485889 0.000000
0.006531 0.485889 0.000000
0.010411 0.485889 0.000000
0.014768 0.485889 0.000000
0.019662 0.485889 0.000000
0.025158 0.485889 0.000000
0.031330 0.485889 0.000000
0.038261 0.485889 0.000000
0.046045 0.485889 0.000000
0.054788 0.485889 0.000000
0.064605 0.485889 0.000000
0.075632 0.485889 0.000000
0.088014 0.485889 0.000000
0.101921 0.485889 0.000000
0.117539 0.485889 0.000000
0.135078 0.485889 0.000000
0.154776 0.485889 0.000000
0.176897 0.485889 0.000000
0.201741 0.485889 0.000000
0.229642 0.485889 0.000000
0.260976 0.485889 0.000000
0.296166 0.485889 0.000000
0.335685 0.485889 0.000000
0.380068 0.485889 0.000000
0.429912 0.485889 0.000000
0.485889 0.485889 0.000000
0.548755 0.485889 0.000000
