ZIRCON_LOG_V2_TO_REC709.cube
TITLE "Zircon Log V2 to Rec.709 Linearization"
LUT_3D_SIZE 5
0.000000 0.000000 0.000000
0.038261 0.000000 0.000000
0.135078 0.000000 0.000000
0.380068 0.000000 0.000000
1.000000 0.000000 0.000000
0.000000 0.038261 0.000000
0.038261 0.038261 0.000000
0.135078 0.038261 0.000000
0.380068 0.038261 0.000000
1.000000 0.038261 0.000000
0.000000 0.135078 0.000000
0.038261 0.135078 0.000000
0.135078 0.135078 0.000000
0.380068 0.135078 0.000000
1.000000 0.135078 0.000000
0.000000 0.380068 0.000000
0.038261 0.380068 0.000000
0.135078 0.380068 0.000000
0.380068 0.380068 0.000000
1.000000 0.380068 0.000000
0.000000 1.000000 0.000000
0.038261 1.000000 0.000000
0.135078 1.000000 0.000000
0.380068 1.000000 0.000000
1.000000 1.000000 0.000000
0.000000 0.000000 0.038261
0.038261 0.000000 0.038261
0.135078 0.000000 0.038261
0.380068 0.000000 0.038261
1.000000 0.000000 0.038261
0.000000 0.038261 0.038261
0.038261 0.038261 0.038261
0.135078 0.038261 0.038261
0.380068 0.038261 0.038261
1.000000 0.038261 0.038261
0.000000 0.135078 0.038261
0.038261 0.135078 0.038261
0.135078 0.135078 0.038261
0.380068 0.135078 0.038261
1.000000 0.135078 0.038261
0.000000 0.380068 0.038261
0.038261 0.380068 0.038261
0.135078 0.380068 0.038261
0.380068 0.380068 0.038261
1.000000 0.380068 0.038261
0.000000 1.000000 0.038261
0.038261 1.000000 0.038261
0.135078 1.000000 0.038261
0.380068 1.000000 0.038261
1.000000 1.000000 0.038261
0.000000 0.000000 0.135078
0.038261 0.000000 0.135078
0.135078 0.000000 0.135078
0.380068 0.000000 0.135078
1.000000 0.000000 0.135078
0.000000 0.038261 0.135078
0.038261 0.038261 0.135078
0.135078 0.038261 0.135078
0.380068 0.038261 0.135078
1.000000 0.038261 0.135078
0.000000 0.135078 0.135078
0.038261 0.135078 0.135078
0.135078 0.135078 0.135078
0.380068 0.135078 0.135078
1.000000 0.135078 0.135078
0.000000 0.380068 0.135078
0.038261 0.380068 0.135078
0.135078 0.380068 0.135078
0.380068 0.380068 0.135078
1.000000 0.380068 0.135078
0.000000 1.000000 0.135078
0.038261 1.000000 0.135078
0.135078 1.000000 0.135078
0.380068 1.000000 0.135078
1.000000 1.000000 0.135078
0.000000 0.000000 0.380068
0.038261 0.000000 0.380068
0.135078 0.000000 0.380068
0.380068 0.000000 0.380068
1.000000 0.000000 0.380068
0.000000 0.038261 0.380068
0.038261 0.038261 0.380068
0.135078 0.038261 0.380068
0.380068 0.038261 0.380068
1.000000 0.038261 0.380068
0.000000 0.135078 0.380068
0.038261 0.135078 0.380068
0.135078 0.135078 0.380068
0.380068 0.135078 0.380068
1.000000 0.135078 0.380068
0.000000 0.380068 0.380068
0.038261 0.380068 0.380068
0.135078 0.380068 0.380068
0.380068 0.380068 0.380068
1.000000 0.380068 0.380068
0.000000 1.000000 0.380068
0.038261 1.000000 0.380068
0.135078 1.000000 0.380068
0.380068 1.000000 0.380068
1.000000 1.000000 0.380068
0.000000 0.000000 1.000000
0.038261 0.000000 1.000000
0.135078 0.000000 1.000000
0.380068 0.000000 1.000000
1.000000 0.000000 1.000000
0.000000 0.038261 1.000000
0.038261 0.038261 1.000000
0.135078 0.038261 1.000000
0.380068 0.038261 1.000000
1.000000 0.038261 1.000000
0.000000 0.135078 1.000000
0.038261 0.135078 1.000000
0.135078 0.135078 1.000000
0.380068 0.135078 1.000000
1.000000 0.135078 1.000000
0.000000 0.380068 1.000000
0.038261 0.380068 1.000000
0.135078 0.380068 1.000000
0.380068 0.380068 1.000000
1.000000 0.380068 1.000000
0.000000 1.000000 1.000000
0.038261 1.000000 1.000000
0.135078 1.000000 1.000000
0.380068 1.000000 1.000000
1.000000 1.000000 1.000000
