ZIRCON_LOG_TO_REC709.cube
TITLE "Zircon Log to Rec.709 Linearization"
LUT_3D_SIZE 33
0.000000 0.000000 0.000000
0.007781 0.000000 0.000000
0.016168 0.000000 0.000000
0.025208 0.000000 0.000000
0.034950 0.000000 0.000000
0.045451 0.000000 0.000000
0.056769 0.000000 0.000000
0.068968 0.000000 0.000000
0.082116 0.000000 0.000000
0.096287 0.000000 0.000000
0.111561 0.000000 0.000000
0.128023 0.000000 0.000000
0.145766 0.000000 0.000000
0.164890 0.000000 0.000000
0.185502 0.000000 0.000000
0.207718 0.000000 0.000000
0.231662 0.000000 0.000000
0.257470 0.000000 0.000000
0.285286 0.000000 0.000000
0.315267 0.000000 0.000000
0.347580 0.000000 0.000000
0.382407 0.000000 0.000000
0.419945 0.000000 0.000000
0.460404 0.000000 0.000000
0.504011 0.000000 0.000000
0.551011 0.000000 0.000000
0.601668 0.000000 0.000000
0.656267 0.000000 0.000000
0.715114 0.000000 0.000000
0.778541 0.000000 0.000000
0.846903 0.000000 0.000000
0.920585 0.000000 0.000000
1.000000 0.000000 0.000000
0.000000 0.007781 0.000000
0.007781 0.007781 0.000000
0.016168 0.007781 0.000000
0.025208 0.007781 0.000000
0.034950 0.007781 0.000000
0.045451 0.007781 0.000000
0.056769 0.007781 0.000000
0.068968 0.007781 0.000000
0.082116 0.007781 0.000000
0.096287 0.007781 0.000000
0.111561 0.007781 0.000000
0.128023 0.007781 0.000000
0.145766 0.007781 0.000000
0.164890 0.007781 0.000000
0.185502 0.007781 0.000000
0.207718 0.007781 0.000000
0.231662 0.007781 0.000000
0.257470 0.007781 0.000000
0.285286 0.007781 0.000000
0.315267 0.007781 0.000000
0.347580 0.007781 0.000000
0.382407 0.007781 0.000000
0.419945 0.007781 0.000000
0.460404 0.007781 0.000000
0.504011 0.007781 0.000000
0.551011 0.007781 0.000000
0.601668 0.007781 0.000000
0.656267 0.007781 0.000000
0.715114 0.007781 0.000000
0.778541 0.007781 0.000000
0.846903 0.007781 0.000000
0.920585 0.007781 0.000000
1.000000 0.007781 0.000000
0.000000 0.016168 0.000000
0.007781 0.016168 0.000000
0.016168 0.016168 0.000000
0.025208 0.016168 0.000000
0.034950 0.016168 0.000000
0.045451 0.016168 0.000000
0.056769 0.016168 0.000000
0.068968 0.016168 0.000000
0.082116 0.016168 0.000000
0.096287 0.016168 0.000000
0.111561 0.016168 0.000000
0.128023 0.016168 0.000000
0.145766 0.016168 0.000000
0.164890 0.016168 0.000000
0.185502 0.016168 0.000000
0.207718 0.016168 0.000000
0.231662 0.016168 0.000000
0.257470 0.016168 0.000000
0.285286 0.016168 0.000000
0.315267 0.016168 0.000000
0.347580 0.016168 0.000000
0.382407 0.016168 0.000000
0.419945 0.016168 0.000000
0.460404 0.016168 0.000000
0.504011 0.016168 0.000000
0.551011 0.016168 0.000000
0.601668 0.016168 0.000000
0.656267 0.016168 0.000000
0.715114 0.016168 0.000000
0.778541 0.016168 0.000000
0.846903 0.016168 0.000000
0.920585 0.016168 0.000000
1.000000 0.016168 0.000000
0.000000 0.025208 0.000000
0.007781 0.025208 0.000000
0.016168 0.025208 0.000000
0.025208 0.025208 0.000000
0.034950 0.025208 0.000000
0.045451 0.025208 0.000000
0.056769 0.025208 0.000000
0.068968 0.025208 0.000000
0.082116 0.025208 0.000000
0.096287 0.025208 0.000000
0.111561 0.025208 0.000000
0.128023 0.025208 0.000000
0.145766 0.025208 0.000000
0.164890 0.025208 0.000000
0.185502 0.025208 0.000000
0.207718 0.025208 0.000000
0.231662 0.025208 0.000000
0.257470 0.025208 0.000000
0.285286 0.025208 0.000000
0.315267 0.025208 0.000000
0.347580 0.025208 0.000000
0.382407 0.025208 0.000000
0.419945 0.025208 0.000000
0.460404 0.025208 0.000000
0.504011 0.025208 0.000000
0.551011 0.025208 0.000000
0.601668 0.025208 0.000000
0.656267 0.025208 0.000000
0.715114 0.025208 0.000000
0.778541 0.025208 0.000000
0.846903 0.025208 0.000000
0.920585 0.025208 0.000000
1.000000 0.025208 0.000000
0.000000 0.034950 0.000000
0.007781 0.034950 0.000000
0.016168 0.034950 0.000000
0.025208 0.034950 0.000000
0.034950 0.034950 0.000000
0.045451 0.034950 0.000000
0.056769 0.034950 0.000000
0.068968 0.034950 0.000000
0.082116 0.034950 0.000000
0.096287 0.034950 0.000000
0.111561 0.034950 0.000000
0.128023 0.034950 0.000000
0.145766 0.034950 0.000000
0.164890 0.034950 0.000000
0.185502 0.034950 0.000000
0.207718 0.034950 0.000000
0.231662 0.034950 0.000000
0.257470 0.034950 0.000000
0.285286 0.034950 0.000000
0.315267 0.034950 0.000000
0.347580 0.034950 0.000000
0.382407 0.034950 0.000000
0.419945 0.034950 0.000000
0.460404 0.034950 0.000000
0.504011 0.034950 0.000000
0.551011 0.034950 0.000000
0.601668 0.034950 0.000000
0.656267 0.034950 0.000000
0.715114 0.034950 0.000000
0.778541 0.034950 0.000000
0.846903 0.034950 0.000000
0.920585 0.034950 0.000000
1.000000 0.034950 0.000000
0.000000 0.045451 0.000000
0.007781 0.045451 0.000000
0.016168 0.045451 0.000000
0.025208 0.045451 0.000000
0.034950 0.045451 0.000000
0.045451 0.045451 0.000000
0.056769 0.045451 0.000000
0.068968 0.045451 0.000000
0.082116 0.045451 0.000000
0.096287 0.045451 0.000000
0.111561 0.045451 0.000000
0.128023 0.045451 0.000000
0.145766 0.045451 0.000000
0.164890 0.045451 0.000000
0.185502 0.045451 0.000000
0.207718 0.045451 0.000000
0.231662 0.045451 0.000000
0.257470 0.045451 0.000000
0.285286 0.045451 0.000000
0.315267 0.045451 0.000000
0.347580 0.045451 0.000000
0.382407 0.045451 0.000000
0.419945 0.045451 0.000000
0.460404 0.045451 0.000000
0.504011 0.045451 0.000000
0.551011 0.045451 0.000000
0.601668 0.045451 0.000000
0.656267 0.045451 0.000000
0.715114 0.045451 0.000000
0.778541 0.045451 0.000000
0.846903 0.045451 0.000000
0.920585 0.045451 0.000000
1.000000 0.045451 0.000000
0.000000 0.056769 0.000000
0.007781 0.056769 0.000000
0.016168 0.056769 0.000000
0.025208 0.056769 0.000000
0.034950 0.056769 0.000000
0.045451 0.056769 0.000000
0.056769 0.056769 0.000000
0.068968 0.056769 0.000000
0.082116 0.056769 0.000000
0.096287 0.056769 0.000000
0.111561 0.056769 0.000000
0.128023 0.056769 0.000000
0.145766 0.056769 0.000000
0.164890 0.056769 0.000000
0.185502 0.056769 0.000000
0.207718 0.056769 0.000000
0.231662 0.056769 0.000000
0.257470 0.056769 0.000000
0.285286 0.056769 0.000000
0.315267 0.056769 0.000000
0.347580 0.056769 0.000000
0.382407 0.056769 0.000000
0.419945 0.056769 0.000000
0.460404 0.056769 0.000000
0.504011 0.056769 0.000000
0.551011 0.056769 0.000000
0.601668 0.056769 0.000000
0.656267 0.056769 0.000000
0.715114 0.056769 0.000000
0.778541 0.056769 0.000000
0.846903 0.056769 0.000000
0.920585 0.056769 0.000000
1.000000 0.056769 0.000000
0.000000 0.068968 0.000000
0.007781 0.068968 0.000000
0.016168 0.068968 0.000000
0.025208 0.068968 0.000000
0.034950 0.068968 0.000000
0.045451 0.068968 0.000000
0.056769 0.068968 0.000000
0.068968 0.068968 0.000000
0.082116 0.068968 0.000000
0.096287 0.068968 0.000000
0.111561 0.068968 0.000000
0.128023 0.068968 0.000000
0.145766 0.068968 0.000000
0.164890 0.068968 0.000000
0.185502 0.068968 0.000000
0.207718 0.068968 0.000000
0.231662 0.068968 0.000000
0.257470 0.068968 0.000000
0.285286 0.068968 0.000000
0.315267 0.068968 0.000000
0.347580 0.068968 0.000000
0.382407 0.068968 0.000000
0.419945 0.068968 0.000000
0.460404 0.068968 0.000000
0.504011 0.068968 0.000000
0.551011 0.068968 0.000000
0.601668 0.068968 0.000000
0.656267 0.068968 0.000000
0.715114 0.068968 0.000000
0.778541 0.068968 0.000000
0.846903 0.068968 0.000000
0.920585 0.068968 0.000000
1.000000 0.068968 0.000000
0.000000 0.082116 0.000000
0.007781 0.082116 0.000000
0.016168 0.082116 0.000000
0.025208 0.082116 0.000000
0.034950 0.082116 0.000000
0.045451 0.082116 0.000000
0.056769 0.082116 0.000000
0.068968 0.082116 0.000000
0.082116 0.082116 0.000000
0.096287 0.082116 0.000000
0.111561 0.082116 0.000000
0.128023 0.082116 0.000000
0.145766 0.082116 0.000000
0.164890 0.082116 0.000000
0.185502 0.082116 0.000000
0.207718 0.082116 0.000000
0.231662 0.082116 0.000000
0.257470 0.082116 0.000000
0.285286 0.082116 0.000000
0.315267 0.082116 0.000000
0.347580 0.082116 0.000000
0.382407 0.082116 0.000000
0.419945 0.082116 0.000000
0.460404 0.082116 0.000000
0.504011 0.082116 0.000000
0.551011 0.082116 0.000000
0.601668 0.082116 0.000000
0.656267 0.082116 0.000000
0.715114 0.082116 0.000000
0.778541 0.082116 0.000000
0.846903 0.082116 0.000000
0.920585 0.082116 0.000000
1.000000 0.082116 0.000000
0.000000 0.096287 0.000000
0.007781 0.096287 0.000000
0.016168 0.096287 0.000000
0.025208 0.096287 0.000000
0.034950 0.096287 0.000000
0.045451 0.096287 0.000000
0.056769 0.096287 0.000000
0.068968 0.096287 0.000000
0.082116 0.096287 0.000000
0.096287 0.096287 0.000000
0.111561 0.096287 0.000000
0.128023 0.096287 0.000000
0.145766 0.096287 0.000000
0.164890 0.096287 0.000000
0.185502 0.096287 0.000000
0.207718 0.096287 0.000000
0.231662 0.096287 0.000000
0.257470 0.096287 0.000000
0.285286 0.096287 0.000000
0.315267 0.096287 0.000000
0.347580 0.096287 0.000000
0.382407 0.096287 0.000000
0.419945 0.096287 0.000000
0.460404 0.096287 0.000000
0.504011 0.096287 0.000000
0.551011 0.096287 0.000000
0.601668 0.096287 0.000000
0.656267 0.096287 0.000000
0.715114 0.096287 0.000000
0.778541 0.096287 0.000000
0.846903 0.096287 0.000000
0.920585 0.096287 0.000000
1.000000 0.096287 0.000000
0.000000 0.111561 0.000000
0.007781 0.111561 0.000000
0.016168 0.111561 0.000000
0.025208 0.111561 0.000000
0.034950 0.111561 0.000000
0.045451 0.111561 0.000000
0.056769 0.111561 0.000000
0.068968 0.111561 0.000000
0.082116 0.111561 0.000000
0.096287 0.111561 0.000000
0.111561 0.111561 0.000000
0.128023 0.111561 0.000000
0.145766 0.111561 0.000000
0.164890 0.111561 0.000000
0.185502 0.111561 0.000000
0.207718 0.111561 0.000000
0.231662 0.111561 0.000000
0.257470 0.111561 0.000000
0.285286 0.111561 0.000000
0.315267 0.111561 0.000000
0.347580 0.111561 0.000000
0.382407 0.111561 0.000000
0.419945 0.111561 0.000000
0.460404 0.111561 0.000000
0.504011 0.111561 0.000000
0.551011 0.111561 0.000000
0.601668 0.111561 0.000000
0.656267 0.111561 0.000000
0.715114 0.111561 0.000000
0.778541 0.111561 0.000000
0.846903 0.111561 0.000000
0.920585 0.111561 0.000000
1.000000 0.111561 0.000000
0.000000 0.128023 0.000000
0.007781 0.128023 0.000000
0.016168 0.128023 0.000000
0.025208 0.128023 0.000000
0.034950 0.128023 0.000000
0.045451 0.128023 0.000000
0.056769 0.128023 0.000000
0.068968 0.128023 0.000000
0.082116 0.128023 0.000000
0.096287 0.128023 0.000000
0.111561 0.128023 0.000000
0.128023 0.128023 0.000000
0.145766 0.128023 0.000000
0.164890 0.128023 0.000000
0.185502 0.128023 0.000000
0.207718 0.128023 0.000000
0.231662 0.128023 0.000000
0.257470 0.128023 0.000000
0.285286 0.128023 0.000000
0.315267 0.128023 0.000000
0.347580 0.128023 0.000000
0.382407 0.128023 0.000000
0.419945 0.128023 0.000000
0.460404 0.128023 0.000000
0.504011 0.128023 0.000000
0.551011 0.128023 0.000000
0.601668 0.128023 0.000000
0.656267 0.128023 0.000000
0.715114 0.128023 0.000000
0.778541 0.128023 0.000000
0.846903 0.128023 0.000000
0.920585 0.128023 0.000000
1.000000 0.128023 0.000000
0.000000 0.145766 0.000000
0.007781 0.145766 0.000000
0.016168 0.145766 0.000000
0.025208 0.145766 0.000000
0.034950 0.145766 0.000000
0.045451 0.145766 0.000000
0.056769 0.145766 0.000000
0.068968 0.145766 0.000000
0.082116 0.145766 0.000000
0.096287 0.145766 0.000000
0.111561 0.145766 0.000000
0.128023 0.145766 0.000000
0.145766 0.145766 0.000000
0.164890 0.145766 0.000000
0.185502 0.145766 0.000000
0.207718 0.145766 0.000000
0.231662 0.145766 0.000000
0.257470 0.145766 0.000000
0.285286 0.145766 0.000000
0.315267 0.145766 0.000000
0.347580 0.145766 0.000000
0.382407 0.145766 0.000000
0.419945 0.145766 0.000000
0.460404 0.145766 0.000000
0.504011 0.145766 0.000000
0.551011 0.145766 0.000000
0.601668 0.145766 0.000000
0.656267 0.145766 0.000000
0.715114 0.145766 0.000000
0.778541 0.145766 0.000000
0.846903 0.145766 0.000000
0.920585 0.145766 0.000000
1.000000 0.145766 0.000000
0.000000 0.164890 0.000000
0.007781 0.164890 0.000000
0.016168 0.164890 0.000000
0.025208 0.164890 0.000000
0.034950 0.164890 0.000000
0.045451 0.164890 0.000000
0.056769 0.164890 0.000000
0.068968 0.164890 0.000000
0.082116 0.164890 0.000000
0.096287 0.164890 0.000000
0.111561 0.164890 0.000000
0.128023 0.164890 0.000000
0.145766 0.164890 0.000000
0.164890 0.164890 0.000000
0.185502 0.164890 0.000000
0.207718 0.164890 0.000000
0.231662 0.164890 0.000000
0.257470 0.164890 0.000000
0.285286 0.164890 0.000000
0.315267 0.164890 0.000000
0.347580 0.164890 0.000000
0.382407 0.164890 0.000000
0.419945 0.164890 0.000000
0.460404 0.164890 0.000000
0.504011 0.164890 0.000000
0.551011 0.164890 0.000000
0.601668 0.164890 0.000000
0.656267 0.164890 0.000000
0.715114 0.164890 0.000000
0.778541 0.164890 0.000000
0.846903 0.164890 0.000000
0.920585 0.164890 0.000000
1.000000 0.164890 0.000000
0.000000 0.185502 0.000000
0.007781 0.185502 0.000000
0.016168 0.185502 0.000000
0.025208 0.185502 0.000000
0.034950 0.185502 0.000000
0.045451 0.185502 0.000000
0.056769 0.185502 0.000000
0.068968 0.185502 0.000000
0.082116 0.185502 0.000000
0.096287 0.185502 0.000000
0.111561 0.185502 0.000000
0.128023 0.185502 0.000000
0.145766 0.185502 0.000000
0.164890 0.185502 0.000000
0.185502 0.185502 0.000000
0.207718 0.185502 0.000000
0.231662 0.185502 0.000000
0.257470 0.185502 0.000000
0.285286 0.185502 0.000000
0.315267 0.185502 0.000000
0.347580 0.185502 0.000000
0.382407 0.185502 0.000000
0.419945 0.185502 0.000000
0.460404 0.185502 0.000000
0.504011 0.185502 0.000000
0.551011 0.185502 0.000000
0.601668 0.185502 0.000000
0.656267 0.185502 0.000000
0.715114 0.185502 0.000000
0.778541 0.185502 0.000000
0.846903 0.185502 0.000000
0.920585 0.185502 0.000000
1.000000 0.185502 0.000000
0.000000 0.207718 0.000000
0.007781 0.207718 0.000000
0.016168 0.207718 0.000000
0.025208 0.207718 0.000000
0.034950 0.207718 0.000000
0.045451 0.207718 0.000000
0.056769 0.207718 0.000000
0.068968 0.207718 0.000000
0.082116 0.207718 0.000000
0.096287 0.207718 0.000000
0.111561 0.207718 0.000000
0.128023 0.207718 0.000000
0.145766 0.207718 0.000000
0.164890 0.207718 0.000000
0.185502 0.207718 0.000000
0.207718 0.207718 0.000000
0.231662 0.207718 0.000000
0.257470 0.207718 0.000000
0.285286 0.207718 0.000000
0.315267 0.207718 0.000000
0.347580 0.207718 0.000000
0.382407 0.207718 0.000000
0.419945 0.207718 0.000000
0.460404 0.207718 0.000000
0.504011 0.207718 0.000000
0.551011 0.207718 0.000000
0.601668 0.207718 0.000000
0.656267 0.207718 0.000000
0.715114 0.207718 0.000000
0.778541 0.207718 0.000000
0.846903 0.207718 0.000000
0.920585 0.207718 0.000000
1.000000 0.207718 0.000000
0.000000 0.231662 0.000000
0.007781 0.231662 0.000000
0.016168 0.231662 0.000000
0.025208 0.231662 0.000000
0.034950 0.231662 0.000000
0.045451 0.231662 0.000000
0.056769 0.231662 0.000000
0.068968 0.231662 0.000000
0.082116 0.231662 0.000000
0.096287 0.231662 0.000000
0.111561 0.231662 0.000000
0.128023 0.231662 0.000000
0.145766 0.231662 0.000000
0.164890 0.231662 0.000000
0.185502 0.231662 0.000000
0.207718 0.231662 0.000000
0.231662 0.231662 0.000000
0.257470 0.231662 0.000000
0.285286 0.231662 0.000000
0.315267 0.231662 0.000000
0.347580 0.231662 0.000000
0.382407 0.231662 0.000000
0.419945 0.231662 0.000000
0.460404 0.231662 0.000000
0.504011 0.231662 0.000000
0.551011 0.231662 0.000000
0.601668 0.231662 0.000000
0.656267 0.231662 0.000000
0.715114 0.231662 0.000000
0.778541 0.231662 0.000000
0.846903 0.231662 0.000000
0.920585 0.231662 0.000000
1.000000 0.231662 0.000000
0.000000 0.257470 0.000000
0.007781 0.257470 0.000000
0.016168 0.257470 0.000000
0.025208 0.257470 0.000000
0.034950 0.257470 0.000000
0.045451 0.257470 0.000000
0.056769 0.257470 0.000000
0.068968 0.257470 0.000000
0.082116 0.257470 0.000000
0.096287 0.257470 0.000000
0.111561 0.257470 0.000000
0.128023 0.257470 0.000000
0.145766 0.257470 0.000000
0.164890 0.257470 0.000000
0.185502 0.257470 0.000000
0.207718 0.257470 0.000000
0.231662 0.257470 0.000000
0.257470 0.257470 0.000000
0.285286 0.257470 0.000000
0.315267 0.257470 0.000000
0.347580 0.257470 0.000000
0.382407 0.257470 0.000000
0.419945 0.257470 0.000000
0.460404 0.257470 0.000000
0.504011 0.257470 0.000000
0.551011 0.257470 0.000000
0.601668 0.257470 0.000000
0.656267 0.257470 0.000000
0.715114 0.257470 0.000000
0.778541 0.257470 0.000000
0.846903 0.257470 0.000000
0.920585 0.257470 0.000000
1.000000 0.257470 0.000000
0.000000 0.285286 0.000000
0.007781 0.285286 0.000000
0.016168 0.285286 0.000000
0.025208 0.285286 0.000000
0.034950 0.285286 0.000000
0.045451 0.285286 0.000000
0.056769 0.285286 0.000000
0.068968 0.285286 0.000000
0.082116 0.285286 0.000000
0.096287 0.285286 0.000000
0.111561 0.285286 0.000000
0.128023 0.285286 0.000000
0.145766 0.285286 0.000000
0.164890 0.285286 0.000000
0.185502 0.285286 0.000000
0.207718 0.285286 0.000000
0.231662 0.285286 0.000000
0.257470 0.285286 0.000000
0.285286 0.285286 0.000000
0.315267 0.285286 0.000000
0.347580 0.285286 0.000000
0.382407 0.285286 0.000000
0.419945 0.285286 0.000000
0.460404 0.285286 0.000000
0.504011 0.285286 0.000000
0.551011 0.285286 0.000000
0.601668 0.285286 0.000000
0.656267 0.285286 0.000000
0.715114 0.285286 0.000000
0.778541 0.285286 0.000000
0.846903 0.285286 0.000000
0.920585 0.285286 0.000000
1.000000 0.285286 0.000000
0.000000 0.315267 0.000000
0.007781 0.315267 0.000000
0.016168 0.315267 0.000000
0.025208 0.315267 0.000000
0.034950 0.315267 0.000000
0.045451 0.315267 0.000000
0.056769 0.315267 0.000000
0.068968 0.315267 0.000000
0.082116 0.315267 0.000000
0.096287 0.315267 0.000000
0.111561 0.315267 0.000000
0.128023 0.315267 0.000000
0.145766 0.315267 0.000000
0.164890 0.315267 0.000000
0.185502 0.315267 0.000000
0.207718 0.315267 0.000000
0.231662 0.315267 0.000000
0.257470 0.315267 0.000000
0.285286 0.315267 0.000000
0.315267 0.315267 0.000000
0.347580 0.315267 0.000000
0.382407 0.315267 0.000000
0.419945 0.315267 0.000000
0.460404 0.315267 0.000000
0.504011 0.315267 0.000000
0.551011 0.315267 0.000000
0.601668 0.315267 0.000000
0.656267 0.315267 0.000000
0.715114 0.315267 0.000000
0.778541 0.315267 0.000000
0.846903 0.315267 0.000000
0.920585 0.315267 0.000000
1.000000 0.315267 0.000000
0.000000 0.347580 0.000000
0.007781 0.347580 0.000000
0.016168 0.347580 0.000000
0.025208 0.347580 0.000000
0.034950 0.347580 0.000000
0.045451 0.347580 0.000000
0.056769 0.347580 0.000000
0.068968 0.347580 0.000000
0.082116 0.347580 0.000000
0.096287 0.347580 0.000000
0.111561 0.347580 0.000000
0.128023 0.347580 0.000000
0.145766 0.347580 0.000000
0.164890 0.347580 0.000000
0.185502 0.347580 0.000000
0.207718 0.347580 0.000000
0.231662 0.347580 0.000000
0.257470 0.347580 0.000000
0.285286 0.347580 0.000000
0.315267 0.347580 0.000000
0.347580 0.347580 0.000000
0.382407 0.347580 0.000000
0.419945 0.347580 0.000000
0.460404 0.347580 0.000000
0.504011 0.347580 0.000000
0.551011 0.347580 0.000000
0.601668 0.347580 0.000000
0.656267 0.347580 0.000000
0.715114 0.347580 0.000000
0.778541 0.347580 0.000000
0.846903 0.347580 0.000000
0.920585 0.347580 0.000000
1.000000 0.347580 0.000000
0.000000 0.382407 0.000000
0.007781 0.382407 0.000000
0.016168 0.382407 0.000000
0.025208 0.382407 0.000000
0.034950 0.382407 0.000000
0.045451 0.382407 0.000000
0.056769 0.382407 0.000000
0.068968 0.382407 0.000000
0.082116 0.382407 0.000000
0.096287 0.382407 0.000000
0.111561 0.382407 0.000000
0.128023 0.382407 0.000000
0.145766 0.382407 0.000000
0.164890 0.382407 0.000000
0.185502 0.382407 0.000000
0.207718 0.382407 0.000000
0.231662 0.382407 0.000000
0.257470 0.382407 0.000000
0.285286 0.382407 0.000000
0.315267 0.382407 0.000000
0.347580 0.382407 0.000000
0.382407 0.382407 0.000000
0.419945 0.382407 0.000000
0.460404 0.382407 0.000000
0.504011 0.382407 0.000000
0.551011 0.382407 0.000000
0.601668 0.382407 0.000000
0.656267 0.382407 0.000000
0.715114 0.382407 0.000000
0.778541 0.382407 0.000000
0.846903 0.382407 0.000000
0.920585 0.382407 0.000000
1.000000 0.382407 0.000000
0.000000 0.419945 0.000000
0.007781 0.419945 0.000000
0.016168 0.419945 0.000000
0.025208 0.419945 0.000000
0.034950 0.419945 0.000000
0.045451 0.419945 0.000000
0.056769 0.419945 0.000000
0.068968 0.419945 0.000000
0.082116 0.419945 0.000000
0.096287 0.419945 0.000000
0.111561 0.419945 0.000000
0.128023 0.419945 0.000000
0.145766 0.419945 0.000000
0.164890 0.419945 0.000000
0.185502 0.419945 0.000000
0.207718 0.419945 0.000000
0.231662 0.419945 0.000000
0.257470 0.419945 0.000000
0.285286 0.419945 0.000000
0.315267 0.419945 0.000000
0.347580 0.419945 0.000000
0.382407 0.419945 0.000000
0.419945 0.419945 0.000000
0.460404 0.419945 0.000000
0.504011 0.419945 0.000000
0.551011 0.419945 0.000000
0.601668 0.419945 0.000000
0.656267 0.419945 0.000000
0.715114 0.419945 0.000000
0.778541 0.419945 0.000000
0.846903 0.419945 0.000000
0.920585 0.419945 0.000000
1.000000 0.419945 0.000000
0.000000 0.460404 0.000000
0.007781 0.460404 0.000000
0.016168 0.460404 0.000000
0.025208 0.460404 0.000000
0.034950 0.460404 0.000000
0.045451 0.460404 0.000000
0.056769 0.460404 0.000000
0.068968 0.460404 0.000000
0.082116 0.460404 0.000000
0.096287 0.460404 0.000000
0.111561 0.460404 0.000000
0.128023 0.460404 0.000000
0.145766 0.460404 0.000000
0.164890 0.460404 0.000000
0.185502 0.460404 0.000000
0.207718 0.460404 0.000000
0.231662 0.460404 0.000000
0.257470 0.460404 0.000000
0.285286 0.460404 0.000000
0.315267 0.460404 0.000000
0.347580 0.460404 0.000000
0.382407 0.460404 0.000000
0.419945 0.460404 0.000000
0.460404 0.460404 0.000000
0.504011 0.460404 0.000000
0.551011 0.460404 0.000000
0.601668 0.460404 0.000000
0.656267 0.460404 0.000000
0.715114 0.460404 0.000000
0.778541 0.460404 0.000000
0.846903 0.460404 0.000000
0.920585 0.460404 0.000000
1.000000 0.460404 0.000000
0.000000 0.504011 0.000000
0.007781 0.504011 0.000000
0.016168 0.504011 0.000000
0.025208 0.504011 0.000000
0.034950 0.504011 0.000000
0.045451 0.504011 0.000000
0.056769 0.504011 0.000000
0.068968 0.504011 0.000000
0.082116 0.504011 0.000000
0.096287 0.504011 0.000000
0.111561 0.504011 0.000000
0.128023 0.504011 0.000000
0.145766 0.504011 0.000000
0.164890 0.504011 0.000000
0.185502 0.504011 0.000000
0.207718 0.504011 0.000000
0.231662 0.504011 0.000000
0.257470 0.504011 0.000000
0.285286 0.504011 0.000000
0.315267 0.504011 0.000000
0.347580 0.504011 0.000000
0.382407 0.504011 0.000000
0.419945 0.504011 0.000000
0.460404 0.504011 0.000000
0.504011 0.504011 0.000000
0.551011 0.504011 0.000000
0.601668 0.504011 0.000000
0.656267 0.504011 0.000000
0.715114 0.504011 0.000000
0.778541 0.504011 0.000000
0.846903 0.504011 0.000000
0.920585 0.504011 0.000000
1.000000 0.504011 0.000000
0.000000 0.551011 0.000000
0.007781 0.551011 0.000000
0.016168 0.551011 0.000000
0.025208 0.551011 0.000000
0.034950 0.551011 0.000000
0.045451 0.551011 0.000000
0.056769 0.551011 0.000000
0.068968 0.551011 0.000000
0.082116 0.551011 0.000000
0.096287 0.551011 0.000000
0.111561 0.551011 0.000000
0.128023 0.551011 0.000000
0.145766 0.551011 0.000000
0.164890 0.551011 0.000000
0.185502 0.551011 0.000000
0.207718 0.551011 0.000000
0.231662 0.551011 0.000000
0.257470 0.551011 0.000000
0.285286 0.551011 0.000000
0.315267 0.551011 0.000000
0.347580 0.551011 0.000000
0.382407 0.551011 0.000000
0.419945 0.551011 0.000000
0.460404 0.551011 0.000000
0.504011 0.551011 0.000000
0.551011 0.551011 0.000000
0.601668 0.551011 0.000000
0.656267 0.551011 0.000000
0.715114 0.551011 0.000000
0.778541 0.551011 0.000000
0.846903 0.551011 0.000000
0.920585 0.551011 0.000000
1.000000 0.551011 0.000000
0.000000 0.601668 0.000000
0.007781 0.601668 0.000000
0.016168 0.601668 0.000000
0.025208 0.601668 0.000000
0.034950 0.601668 0.000000
0.045451 0.601668 0.000000
0.056769 0.601668 0.000000
0.068968 0.601668 0.000000
0.082116 0.601668 0.000000
0.096287 0.601668 0.000000
0.111561 0.601668 0.000000
0.128023 0.601668 0.000000
0.145766 0.601668 0.000000
0.164890 0.601668 0.000000
0.185502 0.601668 0.000000
0.207718 0.601668 0.000000
0.231662 0.601668 0.000000
0.257470 0.601668 0.000000
0.285286 0.601668 0.000000
0.315267 0.601668 0.000000
0.347580 0.601668 0.000000
0.382407 0.601668 0.000000
0.419945 0.601668 0.000000
0.460404 0.601668 0.000000
0.504011 0.601668 0.000000
0.551011 0.601668 0.000000
0.601668 0.601668 0.000000
0.656267 0.601668 0.000000
