ZIRCON_LOG_V3_MAX_DR.cube
TITLE "Zircon Log V3 to Rec.709 Linearization"
LUT_3D_SIZE 9
0.000000 0.000000 0.000000
0.007805 0.000000 0.000000
0.021702 0.000000 0.000000
0.046444 0.000000 0.000000
0.090499 0.000000 0.000000
0.168937 0.000000 0.000000
0.308597 0.000000 0.000000
0.557259 0.000000 0.000000
1.000000 0.000000 0.000000
0.000000 0.007805 0.000000
0.007805 0.007805 0.000000
0.021702 0.007805 0.000000
0.046444 0.007805 0.000000
0.090499 0.007805 0.000000
0.168937 0.007805 0.000000
0.308597 0.007805 0.000000
0.557259 0.007805 0.000000
1.000000 0.007805 0.000000
0.000000 0.021702 0.000000
0.007805 0.021702 0.000000
0.021702 0.021702 0.000000
0.046444 0.021702 0.000000
0.090499 0.021702 0.000000
0.168937 0.021702 0.000000
0.308597 0.021702 0.000000
0.557259 0.021702 0.000000
1.000000 0.021702 0.000000
0.000000 0.046444 0.000000
0.007805 0.046444 0.000000
0.021702 0.046444 0.000000
0.046444 0.046444 0.000000
0.090499 0.046444 0.000000
0.168937 0.046444 0.000000
0.308597 0.046444 0.000000
0.557259 0.046444 0.000000
1.000000 0.046444 0.000000
0.000000 0.090499 0.000000
0.007805 0.090499 0.000000
0.021702 0.090499 0.000000
0.046444 0.090499 0.000000
0.090499 0.090499 0.000000
0.168937 0.090499 0.000000
0.308597 0.090499 0.000000
0.557259 0.090499 0.000000
1.000000 0.090499 0.000000
0.000000 0.168937 0.000000
0.007805 0.168937 0.000000
0.021702 0.168937 0.000000
0.046444 0.168937 0.000000
0.090499 0.168937 0.000000
0.168937 0.168937 0.000000
0.308597 0.168937 0.000000
0.557259 0.168937 0.000000
1.000000 0.168937 0.000000
0.000000 0.308597 0.000000
0.007805 0.308597 0.000000
0.021702 0.308597 0.000000
0.046444 0.308597 0.000000
0.090499 0.308597 0.000000
0.168937 0.308597 0.000000
0.308597 0.308597 0.000000
0.557259 0.308597 0.000000
1.000000 0.308597 0.000000
0.000000 0.557259 0.000000
0.007805 0.557259 0.000000
0.021702 0.557259 0.000000
0.046444 0.557259 0.000000
0.090499 0.557259 0.000000
0.168937 0.557259 0.000000
0.308597 0.557259 0.000000
0.557259 0.557259 0.000000
1.000000 0.557259 0.000000
0.000000 1.000000 0.000000
0.007805 1.000000 0.000000
0.021702 1.000000 0.000000
0.046444 1.000000 0.000000
0.090499 1.000000 0.000000
0.168937 1.000000 0.000000
0.308597 1.000000 0.000000
0.557259 1.000000 0.000000
1.000000 1.000000 0.000000
0.000000 0.000000 0.007805
0.007805 0.000000 0.007805
0.021702 0.000000 0.007805
0.046444 0.000000 0.007805
0.090499 0.000000 0.007805
0.168937 0.000000 0.007805
0.308597 0.000000 0.007805
0.557259 0.000000 0.007805
1.000000 0.000000 0.007805
0.000000 0.007805 0.007805
0.007805 0.007805 0.007805
0.021702 0.007805 0.007805
0.046444 0.007805 0.007805
0.090499 0.007805 0.007805
0.168937 0.007805 0.007805
0.308597 0.007805 0.007805
0.557259 0.007805 0.007805
1.000000 0.007805 0.007805
0.000000 0.021702 0.007805
0.007805 0.021702 0.007805
0.021702 0.021702 0.007805
0.046444 0.021702 0.007805
0.090499 0.021702 0.007805
0.168937 0.021702 0.007805
0.308597 0.021702 0.007805
0.557259 0.021702 0.007805
1.000000 0.021702 0.007805
0.000000 0.046444 0.007805
0.007805 0.046444 0.007805
0.021702 0.046444 0.007805
0.046444 0.046444 0.007805
0.090499 0.046444 0.007805
0.168937 0.046444 0.007805
0.308597 0.046444 0.007805
0.557259 0.046444 0.007805
1.000000 0.046444 0.007805
0.000000 0.090499 0.007805
0.007805 0.090499 0.007805
0.021702 0.090499 0.007805
0.046444 0.090499 0.007805
0.090499 0.090499 0.007805
0.168937 0.090499 0.007805
0.308597 0.090499 0.007805
0.557259 0.090499 0.007805
1.000000 0.090499 0.007805
0.000000 0.168937 0.007805
0.007805 0.168937 0.007805
0.021702 0.168937 0.007805
0.046444 0.168937 0.007805
0.090499 0.168937 0.007805
0.168937 0.168937 0.007805
0.308597 0.168937 0.007805
0.557259 0.168937 0.007805
1.000000 0.168937 0.007805
0.000000 0.308597 0.007805
0.007805 0.308597 0.007805
0.021702 0.308597 0.007805
0.046444 0.308597 0.007805
0.090499 0.308597 0.007805
0.168937 0.308597 0.007805
0.308597 0.308597 0.007805
0.557259 0.308597 0.007805
1.000000 0.308597 0.007805
0.000000 0.557259 0.007805
0.007805 0.557259 0.007805
0.021702 0.557259 0.007805
0.046444 0.557259 0.007805
0.090499 0.557259 0.007805
0.168937 0.557259 0.007805
0.308597 0.557259 0.007805
0.557259 0.557259 0.007805
1.000000 0.557259 0.007805
0.000000 1.000000 0.007805
0.007805 1.000000 0.007805
0.021702 1.000000 0.007805
0.046444 1.000000 0.007805
0.090499 1.000000 0.007805
0.168937 1.000000 0.007805
0.308597 1.000000 0.007805
0.557259 1.000000 0.007805
1.000000 1.000000 0.007805
0.000000 0.000000 0.021702
0.007805 0.000000 0.021702
0.021702 0.000000 0.021702
0.046444 0.000000 0.021702
0.090499 0.000000 0.021702
0.168937 0.000000 0.021702
0.308597 0.000000 0.021702
0.557259 0.000000 0.021702
1.000000 0.000000 0.021702
0.000000 0.007805 0.021702
0.007805 0.007805 0.021702
0.021702 0.007805 0.021702
0.046444 0.007805 0.021702
0.090499 0.007805 0.021702
0.168937 0.007805 0.021702
0.308597 0.007805 0.021702
0.557259 0.007805 0.021702
1.000000 0.007805 0.021702
0.000000 0.021702 0.021702
0.007805 0.021702 0.021702
0.021702 0.021702 0.021702
0.046444 0.021702 0.021702
0.090499 0.021702 0.021702
0.168937 0.021702 0.021702
0.308597 0.021702 0.021702
0.557259 0.021702 0.021702
1.000000 0.021702 0.021702
0.000000 0.046444 0.021702
0.007805 0.046444 0.021702
0.021702 0.046444 0.021702
0.046444 0.046444 0.021702
0.090499 0.046444 0.021702
0.168937 0.046444 0.021702
0.308597 0.046444 0.021702
0.557259 0.046444 0.021702
1.000000 0.046444 0.021702
0.000000 0.090499 0.021702
0.007805 0.090499 0.021702
0.021702 0.090499 0.021702
0.046444 0.090499 0.021702
0.090499 0.090499 0.021702
0.168937 0.090499 0.021702
0.308597 0.090499 0.021702
0.557259 0.090499 0.021702
1.000000 0.090499 0.021702
0.000000 0.168937 0.021702
0.007805 0.168937 0.021702
0.021702 0.168937 0.021702
0.046444 0.168937 0.021702
0.090499 0.168937 0.021702
0.168937 0.168937 0.021702
0.308597 0.168937 0.021702
0.557259 0.168937 0.021702
1.000000 0.168937 0.021702
0.000000 0.308597 0.021702
0.007805 0.308597 0.021702
0.021702 0.308597 0.021702
0.046444 0.308597 0.021702
0.090499 0.308597 0.021702
0.168937 0.308597 0.021702
0.308597 0.308597 0.021702
0.557259 0.308597 0.021702
1.000000 0.308597 0.021702
0.000000 0.557259 0.021702
0.007805 0.557259 0.021702
0.021702 0.557259 0.021702
0.046444 0.557259 0.021702
0.090499 0.557259 0.021702
0.168937 0.557259 0.021702
0.308597 0.557259 0.021702
0.557259 0.557259 0.021702
1.000000 0.557259 0.021702
0.000000 1.000000 0.021702
0.007805 1.000000 0.021702
0.021702 1.000000 0.021702
0.046444 1.000000 0.021702
0.090499 1.000000 0.021702
0.168937 1.000000 0.021702
0.308597 1.000000 0.021702
0.557259 1.000000 0.021702
1.000000 1.000000 0.021702
0.000000 0.000000 0.046444
0.007805 0.000000 0.046444
0.021702 0.000000 0.046444
0.046444 0.000000 0.046444
0.090499 0.000000 0.046444
0.168937 0.000000 0.046444
0.308597 0.000000 0.046444
0.557259 0.000000 0.046444
1.000000 0.000000 0.046444
0.000000 0.007805 0.046444
0.007805 0.007805 0.046444
0.021702 0.007805 0.046444
0.046444 0.007805 0.046444
0.090499 0.007805 0.046444
0.168937 0.007805 0.046444
0.308597 0.007805 0.046444
0.557259 0.007805 0.046444
1.000000 0.007805 0.046444
0.000000 0.021702 0.046444
0.007805 0.021702 0.046444
0.021702 0.021702 0.046444
0.046444 0.021702 0.046444
0.090499 0.021702 0.046444
0.168937 0.021702 0.046444
0.308597 0.021702 0.046444
0.557259 0.021702 0.046444
1.000000 0.021702 0.046444
0.000000 0.046444 0.046444
0.007805 0.046444 0.046444
0.021702 0.046444 0.046444
0.046444 0.046444 0.046444
0.090499 0.046444 0.046444
0.168937 0.046444 0.046444
0.308597 0.046444 0.046444
0.557259 0.046444 0.046444
1.000000 0.046444 0.046444
0.000000 0.090499 0.046444
0.007805 0.090499 0.046444
0.021702 0.090499 0.046444
0.046444 0.090499 0.046444
0.090499 0.090499 0.046444
0.168937 0.090499 0.046444
0.308597 0.090499 0.046444
0.557259 0.090499 0.046444
1.000000 0.090499 0.046444
0.000000 0.168937 0.046444
0.007805 0.168937 0.046444
0.021702 0.168937 0.046444
0.046444 0.168937 0.046444
0.090499 0.168937 0.046444
0.168937 0.168937 0.046444
0.308597 0.168937 0.046444
0.557259 0.168937 0.046444
1.000000 0.168937 0.046444
0.000000 0.308597 0.046444
0.007805 0.308597 0.046444
0.021702 0.308597 0.046444
0.046444 0.308597 0.046444
0.090499 0.308597 0.046444
0.168937 0.308597 0.046444
0.308597 0.308597 0.046444
0.557259 0.308597 0.046444
1.000000 0.308597 0.046444
0.000000 0.557259 0.046444
0.007805 0.557259 0.046444
0.021702 0.557259 0.046444
0.046444 0.557259 0.046444
0.090499 0.557259 0.046444
0.168937 0.557259 0.046444
0.308597 0.557259 0.046444
0.557259 0.557259 0.046444
1.000000 0.557259 0.046444
0.000000 1.000000 0.046444
0.007805 1.000000 0.046444
0.021702 1.000000 0.046444
0.046444 1.000000 0.046444
0.090499 1.000000 0.046444
0.168937 1.000000 0.046444
0.308597 1.000000 0.046444
0.557259 1.000000 0.046444
1.000000 1.000000 0.046444
0.000000 0.000000 0.090499
0.007805 0.000000 0.090499
0.021702 0.000000 0.090499
0.046444 0.000000 0.090499
0.090499 0.000000 0.090499
0.168937 0.000000 0.090499
0.308597 0.000000 0.090499
0.557259 0.000000 0.090499
1.000000 0.000000 0.090499
0.000000 0.007805 0.090499
0.007805 0.007805 0.090499
0.021702 0.007805 0.090499
0.046444 0.007805 0.090499
0.090499 0.007805 0.090499
0.168937 0.007805 0.090499
0.308597 0.007805 0.090499
0.557259 0.007805 0.090499
1.000000 0.007805 0.090499
0.000000 0.021702 0.090499
0.007805 0.021702 0.090499
0.021702 0.021702 0.090499
0.046444 0.021702 0.090499
0.090499 0.021702 0.090499
0.168937 0.021702 0.090499
0.308597 0.021702 0.090499
0.557259 0.021702 0.090499
1.000000 0.021702 0.090499
0.000000 0.046444 0.090499
0.007805 0.046444 0.090499
0.021702 0.046444 0.090499
0.046444 0.046444 0.090499
0.090499 0.046444 0.090499
0.168937 0.046444 0.090499
0.308597 0.046444 0.090499
0.557259 0.046444 0.090499
1.000000 0.046444 0.090499
0.000000 0.090499 0.090499
0.007805 0.090499 0.090499
0.021702 0.090499 0.090499
0.046444 0.090499 0.090499
0.090499 0.090499 0.090499
0.168937 0.090499 0.090499
0.308597 0.090499 0.090499
0.557259 0.090499 0.090499
1.000000 0.090499 0.090499
0.000000 0.168937 0.090499
0.007805 0.168937 0.090499
0.021702 0.168937 0.090499
0.046444 0.168937 0.090499
0.090499 0.168937 0.090499
0.168937 0.168937 0.090499
0.308597 0.168937 0.090499
0.557259 0.168937 0.090499
1.000000 0.168937 0.090499
0.000000 0.308597 0.090499
0.007805 0.308597 0.090499
0.021702 0.308597 0.090499
0.046444 0.308597 0.090499
0.090499 0.308597 0.090499
0.168937 0.308597 0.090499
0.308597 0.308597 0.090499
0.557259 0.308597 0.090499
1.000000 0.308597 0.090499
0.000000 0.557259 0.090499
0.007805 0.557259 0.090499
0.021702 0.557259 0.090499
0.046444 0.557259 0.090499
0.090499 0.557259 0.090499
0.168937 0.557259 0.090499
0.308597 0.557259 0.090499
0.557259 0.557259 0.090499
1.000000 0.557259 0.090499
0.000000 1.000000 0.090499
0.007805 1.000000 0.090499
0.021702 1.000000 0.090499
0.046444 1.000000 0.090499
0.090499 1.000000 0.090499
0.168937 1.000000 0.090499
0.308597 1.000000 0.090499
0.557259 1.000000 0.090499
1.000000 1.000000 0.090499
0.000000 0.000000 0.168937
0.007805 0.000000 0.168937
0.021702 0.000000 0.168937
0.046444 0.000000 0.168937
0.090499 0.000000 0.168937
0.168937 0.000000 0.168937
0.308597 0.000000 0.168937
0.557259 0.000000 0.168937
1.000000 0.000000 0.168937
0.000000 0.007805 0.168937
0.007805 0.007805 0.168937
0.021702 0.007805 0.168937
0.046444 0.007805 0.168937
0.090499 0.007805 0.168937
0.168937 0.007805 0.168937
0.308597 0.007805 0.168937
0.557259 0.007805 0.168937
1.000000 0.007805 0.168937
0.000000 0.021702 0.168937
0.007805 0.021702 0.168937
0.021702 0.021702 0.168937
0.046444 0.021702 0.168937
0.090499 0.021702 0.168937
0.168937 0.021702 0.168937
0.308597 0.021702 0.168937
0.557259 0.021702 0.168937
1.000000 0.021702 0.168937
0.000000 0.046444 0.168937
0.007805 0.046444 0.168937
0.021702 0.046444 0.168937
0.046444 0.046444 0.168937
0.090499 0.046444 0.168937
0.168937 0.046444 0.168937
0.308597 0.046444 0.168937
0.557259 0.046444 0.168937
1.000000 0.046444 0.168937
0.000000 0.090499 0.168937
0.007805 0.090499 0.168937
0.021702 0.090499 0.168937
0.046444 0.090499 0.168937
0.090499 0.090499 0.168937
0.168937 0.090499 0.168937
0.308597 0.090499 0.168937
0.557259 0.090499 0.168937
1.000000 0.090499 0.168937
0.000000 0.168937 0.168937
0.007805 0.168937 0.168937
0.021702 0.168937 0.168937
0.046444 0.168937 0.168937
0.090499 0.168937 0.168937
0.168937 0.168937 0.168937
0.308597 0.168937 0.168937
0.557259 0.168937 0.168937
1.000000 0.168937 0.168937
0.000000 0.308597 0.168937
0.007805 0.308597 0.168937
0.021702 0.308597 0.168937
0.046444 0.308597 0.168937
0.090499 0.308597 0.168937
0.168937 0.308597 0.168937
0.308597 0.308597 0.168937
0.557259 0.308597 0.168937
1.000000 0.308597 0.168937
0.000000 0.557259 0.168937
0.007805 0.557259 0.168937
0.021702 0.557259 0.168937
0.046444 0.557259 0.168937
0.090499 0.557259 0.168937
0.168937 0.557259 0.168937
0.308597 0.557259 0.168937
0.557259 0.557259 0.168937
1.000000 0.557259 0.168937
0.000000 1.000000 0.168937
0.007805 1.000000 0.168937
0.021702 1.000000 0.168937
0.046444 1.000000 0.168937
0.090499 1.000000 0.168937
0.168937 1.000000 0.168937
0.308597 1.000000 0.168937
0.557259 1.000000 0.168937
1.000000 1.000000 0.168937
0.000000 0.000000 0.308597
0.007805 0.000000 0.308597
0.021702 0.000000 0.308597
0.046444 0.000000 0.308597
0.090499 0.000000 0.308597
0.168937 0.000000 0.308597
0.308597 0.000000 0.308597
0.557259 0.000000 0.308597
1.000000 0.000000 0.308597
0.000000 0.007805 0.308597
0.007805 0.007805 0.308597
0.021702 0.007805 0.308597
0.046444 0.007805 0.308597
0.090499 0.007805 0.308597
0.168937 0.007805 0.308597
0.308597 0.007805 0.308597
0.557259 0.007805 0.308597
1.000000 0.007805 0.308597
0.000000 0.021702 0.308597
0.007805 0.021702 0.308597
0.021702 0.021702 0.308597
0.046444 0.021702 0.308597
0.090499 0.021702 0.308597
0.168937 0.021702 0.308597
0.308597 0.021702 0.308597
0.557259 0.021702 0.308597
1.000000 0.021702 0.308597
0.000000 0.046444 0.308597
0.007805 0.046444 0.308597
0.021702 0.046444 0.308597
0.046444 0.046444 0.308597
0.090499 0.046444 0.308597
0.168937 0.046444 0.308597
0.308597 0.046444 0.308597
0.557259 0.046444 0.308597
1.000000 0.046444 0.308597
0.000000 0.090499 0.308597
0.007805 0.090499 0.308597
0.021702 0.090499 0.308597
0.046444 0.090499 0.308597
0.090499 0.090499 0.308597
0.168937 0.090499 0.308597
0.308597 0.090499 0.308597
0.557259 0.090499 0.308597
1.000000 0.090499 0.308597
0.000000 0.168937 0.308597
0.007805 0.168937 0.308597
0.021702 0.168937 0.308597
0.046444 0.168937 0.308597
0.090499 0.168937 0.308597
0.168937 0.168937 0.308597
0.308597 0.168937 0.308597
0.557259 0.168937 0.308597
1.000000 0.168937 0.308597
0.000000 0.308597 0.308597
0.007805 0.308597 0.308597
0.021702 0.308597 0.308597
0.046444 0.308597 0.308597
0.090499 0.308597 0.308597
0.168937 0.308597 0.308597
0.308597 0.308597 0.308597
0.557259 0.308597 0.308597
1.000000 0.308597 0.308597
0.000000 0.557259 0.308597
0.007805 0.557259 0.308597
0.021702 0.557259 0.308597
0.046444 0.557259 0.308597
0.090499 0.557259 0.308597
0.168937 0.557259 0.308597
0.308597 0.557259 0.308597
0.557259 0.557259 0.308597
1.000000 0.557259 0.308597
0.000000 1.000000 0.308597
0.007805 1.000000 0.308597
0.021702 1.000000 0.308597
0.046444 1.000000 0.308597
0.090499 1.000000 0.308597
0.168937 1.000000 0.308597
0.308597 1.000000 0.308597
0.557259 1.000000 0.308597
1.000000 1.000000 0.308597
0.000000 0.000000 0.557259
0.007805 0.000000 0.557259
0.021702 0.000000 0.557259
0.046444 0.000000 0.557259
0.090499 0.000000 0.557259
0.168937 0.000000 0.557259
0.308597 0.000000 0.557259
0.557259 0.000000 0.557259
1.000000 0.000000 0.557259
0.000000 0.007805 0.557259
0.007805 0.007805 0.557259
0.021702 0.007805 0.557259
0.046444 0.007805 0.557259
0.090499 0.007805 0.557259
0.168937 0.007805 0.557259
0.308597 0.007805 0.557259
0.557259 0.007805 0.557259
1.000000 0.007805 0.557259
0.000000 0.021702 0.557259
0.007805 0.021702 0.557259
0.021702 0.021702 0.557259
0.046444 0.021702 0.557259
0.090499 0.021702 0.557259
0.168937 0.021702 0.557259
0.308597 0.021702 0.557259
0.557259 0.021702 0.557259
1.000000 0.021702 0.557259
0.000000 0.046444 0.557259
0.007805 0.046444 0.557259
0.021702 0.046444 0.557259
0.046444 0.046444 0.557259
0.090499 0.046444 0.557259
0.168937 0.046444 0.557259
0.308597 0.046444 0.557259
0.557259 0.046444 0.557259
1.000000 0.046444 0.557259
0.000000 0.090499 0.557259
0.007805 0.090499 0.557259
0.021702 0.090499 0.557259
0.046444 0.090499 0.557259
0.090499 0.090499 0.557259
0.168937 0.090499 0.557259
0.308597 0.090499 0.557259
0.557259 0.090499 0.557259
1.000000 0.090499 0.557259
0.000000 0.168937 0.557259
0.007805 0.168937 0.557259
0.021702 0.168937 0.557259
0.046444 0.168937 0.557259
0.090499 0.168937 0.557259
0.168937 0.168937 0.557259
0.308597 0.168937 0.557259
0.557259 0.168937 0.557259
1.000000 0.168937 0.557259
0.000000 0.308597 0.557259
0.007805 0.308597 0.557259
0.021702 0.308597 0.557259
0.046444 0.308597 0.557259
0.090499 0.308597 0.557259
0.168937 0.308597 0.557259
0.308597 0.308597 0.557259
0.557259 0.308597 0.557259
1.000000 0.308597 0.557259
0.000000 0.557259 0.557259
0.007805 0.557259 0.557259
0.021702 0.557259 0.557259
0.046444 0.557259 0.557259
0.090499 0.557259 0.557259
0.168937 0.557259 0.557259
0.308597 0.557259 0.557259
0.557259 0.557259 0.557259
1.000000 0.557259 0.557259
0.000000 1.000000 0.557259
0.007805 1.000000 0.557259
0.021702 1.000000 0.557259
0.046444 1.000000 0.557259
0.090499 1.000000 0.557259
0.168937 1.000000 0.557259
0.308597 1.000000 0.557259
0.557259 1.000000 0.557259
1.000000 1.000000 0.557259
0.000000 0.000000 1.000000
0.007805 0.000000 1.000000
0.021702 0.000000 1.000000
0.046444 0.000000 1.000000
0.090499 0.000000 1.000000
0.168937 0.000000 1.000000
0.308597 0.000000 1.000000
0.557259 0.000000 1.000000
1.000000 0.000000 1.000000
0.000000 0.007805 1.000000
0.007805 0.007805 1.000000
0.021702 0.007805 1.000000
0.046444 0.007805 1.000000
0.090499 0.007805 1.000000
0.168937 0.007805 1.000000
0.308597 0.007805 1.000000
0.557259 0.007805 1.000000
1.000000 0.007805 1.000000
0.000000 0.021702 1.000000
0.007805 0.021702 1.000000
0.021702 0.021702 1.000000
0.046444 0.021702 1.000000
0.090499 0.021702 1.000000
0.168937 0.021702 1.000000
0.308597 0.021702 1.000000
0.557259 0.021702 1.000000
1.000000 0.021702 1.000000
0.000000 0.046444 1.000000
0.007805 0.046444 1.000000
0.021702 0.046444 1.000000
0.046444 0.046444 1.000000
0.090499 0.046444 1.000000
0.168937 0.046444 1.000000
0.308597 0.046444 1.000000
0.557259 0.046444 1.000000
1.000000 0.046444 1.000000
0.000000 0.090499 1.000000
0.007805 0.090499 1.000000
0.021702 0.090499 1.000000
0.046444 0.090499 1.000000
0.090499 0.090499 1.000000
0.168937 0.090499 1.000000
0.308597 0.090499 1.000000
0.557259 0.090499 1.000000
1.000000 0.090499 1.000000
0.000000 0.168937 1.000000
0.007805 0.168937 1.000000
0.021702 0.168937 1.000000
0.046444 0.168937 1.000000
0.090499 0.168937 1.000000
0.168937 0.168937 1.000000
0.308597 0.168937 1.000000
0.557259 0.168937 1.000000
1.000000 0.168937 1.000000
0.000000 0.308597 1.000000
0.007805 0.308597 1.000000
0.021702 0.308597 1.000000
0.046444 0.308597 1.000000
0.090499 0.308597 1.000000
0.168937 0.308597 1.000000
0.308597 0.308597 1.000000
0.557259 0.308597 1.000000
1.000000 0.308597 1.000000
0.000000 0.557259 1.000000
0.007805 0.557259 1.000000
0.021702 0.557259 1.000000
0.046444 0.557259 1.000000
0.090499 0.557259 1.000000
0.168937 0.557259 1.000000
0.308597 0.557259 1.000000
0.557259 0.557259 1.000000
1.000000 0.557259 1.000000
0.000000 1.000000 1.000000
0.007805 1.000000 1.000000
0.021702 1.000000 1.000000
0.046444 1.000000 1.000000
0.090499 1.000000 1.000000
0.168937 1.000000 1.000000
0.308597 1.000000 1.000000
0.557259 1.000000 1.000000
1.000000 1.000000 1.000000
