ZIRCON_LOG_V3_MAX_DR.cube
TITLE "Zircon Log V3 to Rec.709 Linearization"
LUT_3D_SIZE 33
0.000000 0.000000 0.000000
0.001551 0.000000 0.000000
0.003344 0.000000 0.000000
0.005414 0.000000 0.000000
0.007805 0.000000 0.000000
0.010567 0.000000 0.000000
0.013758 0.000000 0.000000
0.017444 0.000000 0.000000
0.021702 0.000000 0.000000
0.026620 0.000000 0.000000
0.032301 0.000000 0.000000
0.038864 0.000000 0.000000
0.046444 0.000000 0.000000
0.055201 0.000000 0.000000
0.065317 0.000000 0.000000
0.077001 0.000000 0.000000
0.090499 0.000000 0.000000
0.106090 0.000000 0.000000
0.124101 0.000000 0.000000
0.144905 0.000000 0.000000
0.168937 0.000000 0.000000
0.196698 0.000000 0.000000
0.228765 0.000000 0.000000
0.265807 0.000000 0.000000
0.308597 0.000000 0.000000
0.358024 0.000000 0.000000
0.415120 0.000000 0.000000
0.481073 0.000000 0.000000
0.557259 0.000000 0.000000
0.645264 0.000000 0.000000
0.746922 0.000000 0.000000
0.864352 0.000000 0.000000
1.000000 0.000000 0.000000
0.000000 0.001551 0.000000
0.001551 0.001551 0.000000
0.003344 0.001551 0.000000
0.005414 0.001551 0.000000
0.007805 0.001551 0.000000
0.010567 0.001551 0.000000
0.013758 0.001551 0.000000
0.017444 0.001551 0.000000
0.021702 0.001551 0.000000
0.026620 0.001551 0.000000
0.032301 0.001551 0.000000
0.038864 0.001551 0.000000
0.046444 0.001551 0.000000
0.055201 0.001551 0.000000
0.065317 0.001551 0.000000
0.077001 0.001551 0.000000
0.090499 0.001551 0.000000
0.106090 0.001551 0.000000
0.124101 0.001551 0.000000
0.144905 0.001551 0.000000
0.168937 0.001551 0.000000
0.196698 0.001551 0.000000
0.228765 0.001551 0.000000
0.265807 0.001551 0.000000
0.308597 0.001551 0.000000
0.358024 0.001551 0.000000
0.415120 0.001551 0.000000
0.481073 0.001551 0.000000
0.557259 0.001551 0.000000
0.645264 0.001551 0.000000
0.746922 0.001551 0.000000
0.864352 0.001551 0.000000
1.000000 0.001551 0.000000
0.000000 0.003344 0.000000
0.001551 0.003344 0.000000
0.003344 0.003344 0.000000
0.005414 0.003344 0.000000
0.007805 0.003344 0.000000
0.010567 0.003344 0.000000
0.013758 0.003344 0.000000
0.017444 0.003344 0.000000
0.021702 0.003344 0.000000
0.026620 0.003344 0.000000
0.032301 0.003344 0.000000
0.038864 0.003344 0.000000
0.046444 0.003344 0.000000
0.055201 0.003344 0.000000
0.065317 0.003344 0.000000
0.077001 0.003344 0.000000
0.090499 0.003344 0.000000
0.106090 0.003344 0.000000
0.124101 0.003344 0.000000
0.144905 0.003344 0.000000
0.168937 0.003344 0.000000
0.196698 0.003344 0.000000
0.228765 0.003344 0.000000
0.265807 0.003344 0.000000
0.308597 0.003344 0.000000
0.358024 0.003344 0.000000
0.415120 0.003344 0.000000
0.481073 0.003344 0.000000
0.557259 0.003344 0.000000
0.645264 0.003344 0.000000
0.746922 0.003344 0.000000
0.864352 0.003344 0.000000
1.000000 0.003344 0.000000
0.000000 0.005414 0.000000
0.001551 0.005414 0.000000
0.003344 0.005414 0.000000
0.005414 0.005414 0.000000
0.007805 0.005414 0.000000
0.010567 0.005414 0.000000
0.013758 0.005414 0.000000
0.017444 0.005414 0.000000
0.021702 0.005414 0.000000
0.026620 0.005414 0.000000
0.032301 0.005414 0.000000
0.038864 0.005414 0.000000
0.046444 0.005414 0.000000
0.055201 0.005414 0.000000
0.065317 0.005414 0.000000
0.077001 0.005414 0.000000
0.090499 0.005414 0.000000
0.106090 0.005414 0.000000
0.124101 0.005414 0.000000
0.144905 0.005414 0.000000
0.168937 0.005414 0.000000
0.196698 0.005414 0.000000
0.228765 0.005414 0.000000
0.265807 0.005414 0.000000
0.308597 0.005414 0.000000
0.358024 0.005414 0.000000
0.415120 0.005414 0.000000
0.481073 0.005414 0.000000
0.557259 0.005414 0.000000
0.645264 0.005414 0.000000
0.746922 0.005414 0.000000
0.864352 0.005414 0.000000
1.000000 0.005414 0.000000
0.000000 0.007805 0.000000
0.001551 0.007805 0.000000
0.003344 0.007805 0.000000
0.005414 0.007805 0.000000
0.007805 0.007805 0.000000
0.010567 0.007805 0.000000
0.013758 0.007805 0.000000
0.017444 0.007805 0.000000
0.021702 0.007805 0.000000
0.026620 0.007805 0.000000
0.032301 0.007805 0.000000
0.038864 0.007805 0.000000
0.046444 0.007805 0.000000
0.055201 0.007805 0.000000
0.065317 0.007805 0.000000
0.077001 0.007805 0.000000
0.090499 0.007805 0.000000
0.106090 0.007805 0.000000
0.124101 0.007805 0.000000
0.144905 0.007805 0.000000
0.168937 0.007805 0.000000
0.196698 0.007805 0.000000
0.228765 0.007805 0.000000
0.265807 0.007805 0.000000
0.308597 0.007805 0.000000
0.358024 0.007805 0.000000
0.415120 0.007805 0.000000
0.481073 0.007805 0.000000
0.557259 0.007805 0.000000
0.645264 0.007805 0.000000
0.746922 0.007805 0.000000
0.864352 0.007805 0.000000
1.000000 0.007805 0.000000
0.000000 0.010567 0.000000
0.001551 0.010567 0.000000
0.003344 0.010567 0.000000
0.005414 0.010567 0.000000
0.007805 0.010567 0.000000
0.010567 0.010567 0.000000
0.013758 0.010567 0.000000
0.017444 0.010567 0.000000
0.021702 0.010567 0.000000
0.026620 0.010567 0.000000
0.032301 0.010567 0.000000
0.038864 0.010567 0.000000
0.046444 0.010567 0.000000
0.055201 0.010567 0.000000
0.065317 0.010567 0.000000
0.077001 0.010567 0.000000
0.090499 0.010567 0.000000
0.106090 0.010567 0.000000
0.124101 0.010567 0.000000
0.144905 0.010567 0.000000
0.168937 0.010567 0.000000
0.196698 0.010567 0.000000
0.228765 0.010567 0.000000
0.265807 0.010567 0.000000
0.308597 0.010567 0.000000
0.358024 0.010567 0.000000
0.415120 0.010567 0.000000
0.481073 0.010567 0.000000
0.557259 0.010567 0.000000
0.645264 0.010567 0.000000
0.746922 0.010567 0.000000
0.864352 0.010567 0.000000
1.000000 0.010567 0.000000
0.000000 0.013758 0.000000
0.001551 0.013758 0.000000
0.003344 0.013758 0.000000
0.005414 0.013758 0.000000
0.007805 0.013758 0.000000
0.010567 0.013758 0.000000
0.013758 0.013758 0.000000
0.017444 0.013758 0.000000
0.021702 0.013758 0.000000
0.026620 0.013758 0.000000
0.032301 0.013758 0.000000
0.038864 0.013758 0.000000
0.046444 0.013758 0.000000
0.055201 0.013758 0.000000
0.065317 0.013758 0.000000
0.077001 0.013758 0.000000
0.090499 0.013758 0.000000
0.106090 0.013758 0.000000
0.124101 0.013758 0.000000
0.144905 0.013758 0.000000
0.168937 0.013758 0.000000
0.196698 0.013758 0.000000
0.228765 0.013758 0.000000
0.265807 0.013758 0.000000
0.308597 0.013758 0.000000
0.358024 0.013758 0.000000
0.415120 0.013758 0.000000
0.481073 0.013758 0.000000
0.557259 0.013758 0.000000
0.645264 0.013758 0.000000
0.746922 0.013758 0.000000
0.864352 0.013758 0.000000
1.000000 0.013758 0.000000
0.000000 0.017444 0.000000
0.001551 0.017444 0.000000
0.003344 0.017444 0.000000
0.005414 0.017444 0.000000
0.007805 0.017444 0.000000
0.010567 0.017444 0.000000
0.013758 0.017444 0.000000
0.017444 0.017444 0.000000
0.021702 0.017444 0.000000
0.026620 0.017444 0.000000
0.032301 0.017444 0.000000
0.038864 0.017444 0.000000
0.046444 0.017444 0.000000
0.055201 0.017444 0.000000
0.065317 0.017444 0.000000
0.077001 0.017444 0.000000
0.090499 0.017444 0.000000
0.106090 0.017444 0.000000
0.124101 0.017444 0.000000
0.144905 0.017444 0.000000
0.168937 0.017444 0.000000
0.196698 0.017444 0.000000
0.228765 0.017444 0.000000
0.265807 0.017444 0.000000
0.308597 0.017444 0.000000
0.358024 0.017444 0.000000
0.415120 0.017444 0.000000
0.481073 0.017444 0.000000
0.557259 0.017444 0.000000
0.645264 0.017444 0.000000
0.746922 0.017444 0.000000
0.864352 0.017444 0.000000
1.000000 0.017444 0.000000
0.000000 0.021702 0.000000
0.001551 0.021702 0.000000
0.003344 0.021702 0.000000
0.005414 0.021702 0.000000
0.007805 0.021702 0.000000
0.010567 0.021702 0.000000
0.013758 0.021702 0.000000
0.017444 0.021702 0.000000
0.021702 0.021702 0.000000
0.026620 0.021702 0.000000
0.032301 0.021702 0.000000
0.038864 0.021702 0.000000
0.046444 0.021702 0.000000
0.055201 0.021702 0.000000
0.065317 0.021702 0.000000
0.077001 0.021702 0.000000
0.090499 0.021702 0.000000
0.106090 0.021702 0.000000
0.124101 0.021702 0.000000
0.144905 0.021702 0.000000
0.168937 0.021702 0.000000
0.196698 0.021702 0.000000
0.228765 0.021702 0.000000
0.265807 0.021702 0.000000
0.308597 0.021702 0.000000
0.358024 0.021702 0.000000
0.415120 0.021702 0.000000
0.481073 0.021702 0.000000
0.557259 0.021702 0.000000
0.645264 0.021702 0.000000
0.746922 0.021702 0.000000
0.864352 0.021702 0.000000
1.000000 0.021702 0.000000
0.000000 0.026620 0.000000
0.001551 0.026620 0.000000
0.003344 0.026620 0.000000
0.005414 0.026620 0.000000
0.007805 0.026620 0.000000
0.010567 0.026620 0.000000
0.013758 0.026620 0.000000
0.017444 0.026620 0.000000
0.021702 0.026620 0.000000
0.026620 0.026620 0.000000
0.032301 0.026620 0.000000
0.038864 0.026620 0.000000
0.046444 0.026620 0.000000
0.055201 0.026620 0.000000
0.065317 0.026620 0.000000
0.077001 0.026620 0.000000
0.090499 0.026620 0.000000
0.106090 0.026620 0.000000
0.124101 0.026620 0.000000
0.144905 0.026620 0.000000
0.168937 0.026620 0.000000
0.196698 0.026620 0.000000
0.228765 0.026620 0.000000
0.265807 0.026620 0.000000
0.308597 0.026620 0.000000
0.358024 0.026620 0.000000
0.415120 0.026620 0.000000
0.481073 0.026620 0.000000
0.557259 0.026620 0.000000
0.645264 0.026620 0.000000
0.746922 0.026620 0.000000
0.864352 0.026620 0.000000
1.000000 0.026620 0.000000
0.000000 0.032301 0.000000
0.001551 0.032301 0.000000
0.003344 0.032301 0.000000
0.005414 0.032301 0.000000
0.007805 0.032301 0.000000
0.010567 0.032301 0.000000
0.013758 0.032301 0.000000
0.017444 0.032301 0.000000
0.021702 0.032301 0.000000
0.026620 0.032301 0.000000
0.032301 0.032301 0.000000
0.038864 0.032301 0.000000
0.046444 0.032301 0.000000
0.055201 0.032301 0.000000
0.065317 0.032301 0.000000
0.077001 0.032301 0.000000
0.090499 0.032301 0.000000
0.106090 0.032301 0.000000
0.124101 0.032301 0.000000
0.144905 0.032301 0.000000
0.168937 0.032301 0.000000
0.196698 0.032301 0.000000
0.228765 0.032301 0.000000
0.265807 0.032301 0.000000
0.308597 0.032301 0.000000
0.358024 0.032301 0.000000
0.415120 0.032301 0.000000
0.481073 0.032301 0.000000
0.557259 0.032301 0.000000
0.645264 0.032301 0.000000
0.746922 0.032301 0.000000
0.864352 0.032301 0.000000
1.000000 0.032301 0.000000
0.000000 0.038864 0.000000
0.001551 0.038864 0.000000
0.003344 0.038864 0.000000
0.005414 0.038864 0.000000
0.007805 0.038864 0.000000
0.010567 0.038864 0.000000
0.013758 0.038864 0.000000
0.017444 0.038864 0.000000
0.021702 0.038864 0.000000
0.026620 0.038864 0.000000
0.032301 0.038864 0.000000
0.038864 0.038864 0.000000
0.046444 0.038864 0.000000
0.055201 0.038864 0.000000
0.065317 0.038864 0.000000
0.077001 0.038864 0.000000
0.090499 0.038864 0.000000
0.106090 0.038864 0.000000
0.124101 0.038864 0.000000
0.144905 0.038864 0.000000
0.168937 0.038864 0.000000
0.196698 0.038864 0.000000
0.228765 0.038864 0.000000
0.265807 0.038864 0.000000
0.308597 0.038864 0.000000
0.358024 0.038864 0.000000
0.415120 0.038864 0.000000
0.481073 0.038864 0.000000
0.557259 0.038864 0.000000
0.645264 0.038864 0.000000
0.746922 0.038864 0.000000
0.864352 0.038864 0.000000
1.000000 0.038864 0.000000
0.000000 0.046444 0.000000
0.001551 0.046444 0.000000
0.003344 0.046444 0.000000
0.005414 0.046444 0.000000
0.007805 0.046444 0.000000
0.010567 0.046444 0.000000
0.013758 0.046444 0.000000
0.017444 0.046444 0.000000
0.021702 0.046444 0.000000
0.026620 0.046444 0.000000
0.032301 0.046444 0.000000
0.038864 0.046444 0.000000
0.046444 0.046444 0.000000
0.055201 0.046444 0.000000
0.065317 0.046444 0.000000
0.077001 0.046444 0.000000
0.090499 0.046444 0.000000
0.106090 0.046444 0.000000
0.124101 0.046444 0.000000
0.144905 0.046444 0.000000
0.168937 0.046444 0.000000
0.196698 0.046444 0.000000
0.228765 0.046444 0.000000
0.265807 0.046444 0.000000
0.308597 0.046444 0.000000
0.358024 0.046444 0.000000
0.415120 0.046444 0.000000
0.481073 0.046444 0.000000
0.557259 0.046444 0.000000
0.645264 0.046444 0.000000
0.746922 0.046444 0.000000
0.864352 0.046444 0.000000
1.000000 0.046444 0.000000
0.000000 0.055201 0.000000
0.001551 0.055201 0.000000
0.003344 0.055201 0.000000
0.005414 0.055201 0.000000
0.007805 0.055201 0.000000
0.010567 0.055201 0.000000
0.013758 0.055201 0.000000
0.017444 0.055201 0.000000
0.021702 0.055201 0.000000
0.026620 0.055201 0.000000
0.032301 0.055201 0.000000
0.038864 0.055201 0.000000
0.046444 0.055201 0.000000
0.055201 0.055201 0.000000
0.065317 0.055201 0.000000
0.077001 0.055201 0.000000
0.090499 0.055201 0.000000
0.106090 0.055201 0.000000
0.124101 0.055201 0.000000
0.144905 0.055201 0.000000
0.168937 0.055201 0.000000
0.196698 0.055201 0.000000
0.228765 0.055201 0.000000
0.265807 0.055201 0.000000
0.308597 0.055201 0.000000
0.358024 0.055201 0.000000
0.415120 0.055201 0.000000
0.481073 0.055201 0.000000
0.557259 0.055201 0.000000
0.645264 0.055201 0.000000
0.746922 0.055201 0.000000
0.864352 0.055201 0.000000
1.000000 0.055201 0.000000
0.000000 0.065317 0.000000
0.001551 0.065317 0.000000
0.003344 0.065317 0.000000
0.005414 0.065317 0.000000
0.007805 0.065317 0.000000
0.010567 0.065317 0.000000
0.013758 0.065317 0.000000
0.017444 0.065317 0.000000
0.021702 0.065317 0.000000
0.026620 0.065317 0.000000
0.032301 0.065317 0.000000
0.038864 0.065317 0.000000
0.046444 0.065317 0.000000
0.055201 0.065317 0.000000
0.065317 0.065317 0.000000
0.077001 0.065317 0.000000
0.090499 0.065317 0.000000
0.106090 0.065317 0.000000
0.124101 0.065317 0.000000
0.144905 0.065317 0.000000
0.168937 0.065317 0.000000
0.196698 0.065317 0.000000
0.228765 0.065317 0.000000
0.265807 0.065317 0.000000
0.308597 0.065317 0.000000
0.358024 0.065317 0.000000
0.415120 0.065317 0.000000
0.481073 0.065317 0.000000
0.557259 0.065317 0.000000
0.645264 0.065317 0.000000
0.746922 0.065317 0.000000
0.864352 0.065317 0.000000
1.000000 0.065317 0.000000
0.000000 0.077001 0.000000
0.001551 0.077001 0.000000
0.003344 0.077001 0.000000
0.005414 0.077001 0.000000
0.007805 0.077001 0.000000
0.010567 0.077001 0.000000
0.013758 0.077001 0.000000
0.017444 0.077001 0.000000
0.021702 0.077001 0.000000
0.026620 0.077001 0.000000
0.032301 0.077001 0.000000
0.038864 0.077001 0.000000
0.046444 0.077001 0.000000
0.055201 0.077001 0.000000
0.065317 0.077001 0.000000
0.077001 0.077001 0.000000
0.090499 0.077001 0.000000
0.106090 0.077001 0.000000
0.124101 0.077001 0.000000
0.144905 0.077001 0.000000
0.168937 0.077001 0.000000
0.196698 0.077001 0.000000
0.228765 0.077001 0.000000
0.265807 0.077001 0.000000
0.308597 0.077001 0.000000
0.358024 0.077001 0.000000
0.415120 0.077001 0.000000
0.481073 0.077001 0.000000
0.557259 0.077001 0.000000
0.645264 0.077001 0.000000
0.746922 0.077001 0.000000
0.864352 0.077001 0.000000
1.000000 0.077001 0.000000
0.000000 0.090499 0.000000
0.001551 0.090499 0.000000
0.003344 0.090499 0.000000
0.005414 0.090499 0.000000
0.007805 0.090499 0.000000
0.010567 0.090499 0.000000
0.013758 0.090499 0.000000
0.017444 0.090499 0.000000
0.021702 0.090499 0.000000
0.026620 0.090499 0.000000
0.032301 0.090499 0.000000
0.038864 0.090499 0.000000
0.046444 0.090499 0.000000
0.055201 0.090499 0.000000
0.065317 0.090499 0.000000
0.077001 0.090499 0.000000
0.090499 0.090499 0.000000
0.106090 0.090499 0.000000
0.124101 0.090499 0.000000
0.144905 0.090499 0.000000
0.168937 0.090499 0.000000
0.196698 0.090499 0.000000
0.228765 0.090499 0.000000
0.265807 0.090499 0.000000
0.308597 0.090499 0.000000
0.358024 0.090499 0.000000
0.415120 0.090499 0.000000
0.481073 0.090499 0.000000
0.557259 0.090499 0.000000
0.645264 0.090499 0.000000
0.746922 0.090499 0.000000
0.864352 0.090499 0.000000
1.000000 0.090499 0.000000
0.000000 0.106090 0.000000
0.001551 0.106090 0.000000
0.003344 0.106090 0.000000
0.005414 0.106090 0.000000
0.007805 0.106090 0.000000
0.010567 0.106090 0.000000
0.013758 0.106090 0.000000
0.017444 0.106090 0.000000
0.021702 0.106090 0.000000
0.026620 0.106090 0.000000
0.032301 0.106090 0.000000
0.038864 0.106090 0.000000
0.046444 0.106090 0.000000
0.055201 0.106090 0.000000
0.065317 0.106090 0.000000
0.077001 0.106090 0.000000
0.090499 0.106090 0.000000
0.106090 0.106090 0.000000
0.124101 0.106090 0.000000
0.144905 0.106090 0.000000
0.168937 0.106090 0.000000
0.196698 0.106090 0.000000
0.228765 0.106090 0.000000
0.265807 0.106090 0.000000
0.308597 0.106090 0.000000
0.358024 0.106090 0.000000
0.415120 0.106090 0.000000
0.481073 0.106090 0.000000
0.557259 0.106090 0.000000
0.645264 0.106090 0.000000
0.746922 0.106090 0.000000
0.864352 0.106090 0.000000
1.000000 0.106090 0.000000
0.000000 0.124101 0.000000
0.001551 0.124101 0.000000
0.003344 0.124101 0.000000
0.005414 0.124101 0.000000
0.007805 0.124101 0.000000
0.010567 0.124101 0.000000
0.013758 0.124101 0.000000
0.017444 0.124101 0.000000
0.021702 0.124101 0.000000
0.026620 0.124101 0.000000
0.032301 0.124101 0.000000
0.038864 0.124101 0.000000
0.046444 0.124101 0.000000
0.055201 0.124101 0.000000
0.065317 0.124101 0.000000
0.077001 0.124101 0.000000
0.090499 0.124101 0.000000
0.106090 0.124101 0.000000
0.124101 0.124101 0.000000
0.144905 0.124101 0.000000
0.168937 0.124101 0.000000
0.196698 0.124101 0.000000
0.228765 0.124101 0.000000
0.265807 0.124101 0.000000
0.308597 0.124101 0.000000
0.358024 0.124101 0.000000
0.415120 0.124101 0.000000
0.481073 0.124101 0.000000
0.557259 0.124101 0.000000
0.645264 0.124101 0.000000
0.746922 0.124101 0.000000
0.864352 0.124101 0.000000
1.000000 0.124101 0.000000
0.000000 0.144905 0.000000
0.001551 0.144905 0.000000
0.003344 0.144905 0.000000
0.005414 0.144905 0.000000
0.007805 0.144905 0.000000
0.010567 0.144905 0.000000
0.013758 0.144905 0.000000
0.017444 0.144905 0.000000
0.021702 0.144905 0.000000
0.026620 0.144905 0.000000
0.032301 0.144905 0.000000
0.038864 0.144905 0.000000
0.046444 0.144905 0.000000
0.055201 0.144905 0.000000
0.065317 0.144905 0.000000
0.077001 0.144905 0.000000
0.090499 0.144905 0.000000
0.106090 0.144905 0.000000
0.124101 0.144905 0.000000
0.144905 0.144905 0.000000
0.168937 0.144905 0.000000
0.196698 0.144905 0.000000
0.228765 0.144905 0.000000
0.265807 0.144905 0.000000
0.308597 0.144905 0.000000
0.358024 0.144905 0.000000
0.415120 0.144905 0.000000
0.481073 0.144905 0.000000
0.557259 0.144905 0.000000
0.645264 0.144905 0.000000
0.746922 0.144905 0.000000
0.864352 0.144905 0.000000
1.000000 0.144905 0.000000
0.000000 0.168937 0.000000
0.001551 0.168937 0.000000
0.003344 0.168937 0.000000
0.005414 0.168937 0.000000
0.007805 0.168937 0.000000
0.010567 0.168937 0.000000
0.013758 0.168937 0.000000
0.017444 0.168937 0.000000
0.021702 0.168937 0.000000
0.026620 0.168937 0.000000
0.032301 0.168937 0.000000
0.038864 0.168937 0.000000
0.046444 0.168937 0.000000
0.055201 0.168937 0.000000
0.065317 0.168937 0.000000
0.077001 0.168937 0.000000
0.090499 0.168937 0.000000
0.106090 0.168937 0.000000
0.124101 0.168937 0.000000
0.144905 0.168937 0.000000
0.168937 0.168937 0.000000
0.196698 0.168937 0.000000
0.228765 0.168937 0.000000
0.265807 0.168937 0.000000
0.308597 0.168937 0.000000
0.358024 0.168937 0.000000
0.415120 0.168937 0.000000
0.481073 0.168937 0.000000
0.557259 0.168937 0.000000
0.645264 0.168937 0.000000
0.746922 0.168937 0.000000
0.864352 0.168937 0.000000
1.000000 0.168937 0.000000
0.000000 0.196698 0.000000
0.001551 0.196698 0.000000
0.003344 0.196698 0.000000
0.005414 0.196698 0.000000
0.007805 0.196698 0.000000
0.010567 0.196698 0.000000
0.013758 0.196698 0.000000
0.017444 0.196698 0.000000
0.021702 0.196698 0.000000
0.026620 0.196698 0.000000
0.032301 0.196698 0.000000
0.038864 0.196698 0.000000
0.046444 0.196698 0.000000
0.055201 0.196698 0.000000
0.065317 0.196698 0.000000
0.077001 0.196698 0.000000
0.090499 0.196698 0.000000
0.106090 0.196698 0.000000
0.124101 0.196698 0.000000
0.144905 0.196698 0.000000
0.168937 0.196698 0.000000
0.196698 0.196698 0.000000
0.228765 0.196698 0.000000
0.265807 0.196698 0.000000
0.308597 0.196698 0.000000
0.358024 0.196698 0.000000
0.415120 0.196698 0.000000
0.481073 0.196698 0.000000
0.557259 0.196698 0.000000
0.645264 0.196698 0.000000
0.746922 0.196698 0.000000
0.864352 0.196698 0.000000
1.000000 0.196698 0.000000
0.000000 0.228765 0.000000
0.001551 0.228765 0.000000
0.003344 0.228765 0.000000
0.005414 0.228765 0.000000
0.007805 0.228765 0.000000
0.010567 0.228765 0.000000
0.013758 0.228765 0.000000
0.017444 0.228765 0.000000
0.021702 0.228765 0.000000
0.026620 0.228765 0.000000
0.032301 0.228765 0.000000
0.038864 0.228765 0.000000
0.046444 0.228765 0.000000
0.055201 0.228765 0.000000
0.065317 0.228765 0.000000
0.077001 0.228765 0.000000
0.090499 0.228765 0.000000
0.106090 0.228765 0.000000
0.124101 0.228765 0.000000
0.144905 0.228765 0.000000
0.168937 0.228765 0.000000
0.196698 0.228765 0.000000
0.228765 0.228765 0.000000
0.265807 0.228765 0.000000
0.308597 0.228765 0.000000
0.358024 0.228765 0.000000
0.415120 0.228765 0.000000
0.481073 0.228765 0.000000
0.557259 0.228765 0.000000
0.645264 0.228765 0.000000
0.746922 0.228765 0.000000
0.864352 0.228765 0.000000
1.000000 0.228765 0.000000
0.000000 0.265807 0.000000
0.001551 0.265807 0.000000
0.003344 0.265807 0.000000
0.005414 0.265807 0.000000
0.007805 0.265807 0.000000
0.010567 0.265807 0.000000
0.013758 0.265807 0.000000
0.017444 0.265807 0.000000
0.021702 0.265807 0.000000
0.026620 0.265807 0.000000
0.032301 0.265807 0.000000
0.038864 0.265807 0.000000
0.046444 0.265807 0.000000
0.055201 0.265807 0.000000
0.065317 0.265807 0.000000
0.077001 0.265807 0.000000
0.090499 0.265807 0.000000
0.106090 0.265807 0.000000
0.124101 0.265807 0.000000
0.144905 0.265807 0.000000
0.168937 0.265807 0.000000
0.196698 0.265807 0.000000
0.228765 0.265807 0.000000
0.265807 0.265807 0.000000
0.308597 0.265807 0.000000
0.358024 0.265807 0.000000
0.415120 0.265807 0.000000
0.481073 0.265807 0.000000
0.557259 0.265807 0.000000
0.645264 0.265807 0.000000
0.746922 0.265807 0.000000
0.864352 0.265807 0.000000
1.000000 0.265807 0.000000
0.000000 0.308597 0.000000
0.001551 0.308597 0.000000
0.003344 0.308597 0.000000
0.005414 0.308597 0.000000
0.007805 0.308597 0.000000
0.010567 0.308597 0.000000
0.013758 0.308597 0.000000
0.017444 0.308597 0.000000
0.021702 0.308597 0.000000
0.026620 0.308597 0.000000
0.032301 0.308597 0.000000
0.038864 0.308597 0.000000
0.046444 0.308597 0.000000
0.055201 0.308597 0.000000
0.065317 0.308597 0.000000
0.077001 0.308597 0.000000
0.090499 0.308597 0.000000
0.106090 0.308597 0.000000
0.124101 0.308597 0.000000
0.144905 0.308597 0.000000
0.168937 0.308597 0.000000
0.196698 0.308597 0.000000
0.228765 0.308597 0.000000
0.265807 0.308597 0.000000
0.308597 0.308597 0.000000
0.358024 0.308597 0.000000
0.415120 0.308597 0.000000
0.481073 0.308597 0.000000
0.557259 0.308597 0.000000
0.645264 0.308597 0.000000
0.746922 0.308597 0.000000
0.864352 0.308597 0.000000
1.000000 0.308597 0.000000
0.000000 0.358024 0.000000
0.001551 0.358024 0.000000
0.003344 0.358024 0.000000
0.005414 0.358024 0.000000
0.007805 0.358024 0.000000
0.010567 0.358024 0.000000
0.013758 0.358024 0.000000
0.017444 0.358024 0.000000
0.021702 0.358024 0.000000
0.026620 0.358024 0.000000
0.032301 0.358024 0.000000
0.038864 0.358024 0.000000
0.046444 0.358024 0.000000
0.055201 0.358024 0.000000
0.065317 0.358024 0.000000
0.077001 0.358024 0.000000
0.090499 0.358024 0.000000
0.106090 0.358024 0.000000
0.124101 0.358024 0.000000
0.144905 0.358024 0.000000
0.168937 0.358024 0.000000
0.196698 0.358024 0.000000
0.228765 0.358024 0.000000
0.265807 0.358024 0.000000
0.308597 0.358024 0.000000
0.358024 0.358024 0.000000
0.415120 0.358024 0.000000
0.481073 0.358024 0.000000
0.557259 0.358024 0.000000
0.645264 0.358024 0.000000
0.746922 0.358024 0.000000
0.864352 0.358024 0.000000
1.000000 0.358024 0.000000
0.000000 0.415120 0.000000
0.001551 0.415120 0.000000
0.003344 0.415120 0.000000
0.005414 0.415120 0.000000
0.007805 0.415120 0.000000
0.010567 0.415120 0.000000
0.013758 0.415120 0.000000
0.017444 0.415120 0.000000
0.021702 0.415120 0.000000
0.026620 0.415120 0.000000
0.032301 0.415120 0.000000
0.038864 0.415120 0.000000
0.046444 0.415120 0.000000
0.055201 0.415120 0.000000
0.065317 0.415120 0.000000
0.077001 0.415120 0.000000
0.090499 0.415120 0.000000
0.106090 0.415120 0.000000
0.124101 0.415120 0.000000
0.144905 0.415120 0.000000
0.168937 0.415120 0.000000
0.196698 0.415120 0.000000
0.228765 0.415120 0.000000
0.265807 0.415120 0.000000
0.308597 0.415120 0.000000
0.358024 0.415120 0.000000
0.415120 0.415120 0.000000
0.481073 0.415120 0.000000
