ZIRCON_LOG_V2_TO_REC709.cube
TITLE "Zircon Log V2 to Rec.709 Linearization"
LUT_3D_SIZE 9
0.000000 0.000000 0.000000
0.014768 0.000000 0.000000
0.038261 0.000000 0.000000
0.075632 0.000000 0.000000
0.135078 0.000000 0.000000
0.229642 0.000000 0.000000
0.380068 0.000000 0.000000
0.619356 0.000000 0.000000
1.000000 0.000000 0.000000
0.000000 0.014768 0.000000
0.014768 0.014768 0.000000
0.038261 0.014768 0.000000
0.075632 0.014768 0.000000
0.135078 0.014768 0.000000
0.229642 0.014768 0.000000
0.380068 0.014768 0.000000
0.619356 0.014768 0.000000
1.000000 0.014768 0.000000
0.000000 0.038261 0.000000
0.014768 0.038261 0.000000
0.038261 0.038261 0.000000
0.075632 0.038261 0.000000
0.135078 0.038261 0.000000
0.229642 0.038261 0.000000
0.380068 0.038261 0.000000
0.619356 0.038261 0.000000
1.000000 0.038261 0.000000
0.000000 0.075632 0.000000
0.014768 0.075632 0.000000
0.038261 0.075632 0.000000
0.075632 0.075632 0.000000
0.135078 0.075632 0.000000
0.229642 0.075632 0.000000
0.380068 0.075632 0.000000
0.619356 0.075632 0.000000
1.000000 0.075632 0.000000
0.000000 0.135078 0.000000
0.014768 0.135078 0.000000
0.038261 0.135078 0.000000
0.075632 0.135078 0.000000
0.135078 0.135078 0.000000
0.229642 0.135078 0.000000
0.380068 0.135078 0.000000
0.619356 0.135078 0.000000
1.000000 0.135078 0.000000
0.000000 0.229642 0.000000
0.014768 0.229642 0.000000
0.038261 0.229642 0.000000
0.075632 0.229642 0.000000
0.135078 0.229642 0.000000
0.229642 0.229642 0.000000
0.380068 0.229642 0.000000
0.619356 0.229642 0.000000
1.000000 0.229642 0.000000
0.000000 0.380068 0.000000
0.014768 0.380068 0.000000
0.038261 0.380068 0.000000
0.075632 0.380068 0.000000
0.135078 0.380068 0.000000
0.229642 0.380068 0.000000
0.380068 0.380068 0.000000
0.619356 0.380068 0.000000
1.000000 0.380068 0.000000
0.000000 0.619356 0.000000
0.014768 0.619356 0.000000
0.038261 0.619356 0.000000
0.075632 0.619356 0.000000
0.135078 0.619356 0.000000
0.229642 0.619356 0.000000
0.380068 0.619356 0.000000
0.619356 0.619356 0.000000
1.000000 0.619356 0.000000
0.000000 1.000000 0.000000
0.014768 1.000000 0.000000
0.038261 1.000000 0.000000
0.075632 1.000000 0.000000
0.135078 1.000000 0.000000
0.229642 1.000000 0.000000
0.380068 1.000000 0.000000
0.619356 1.000000 0.000000
1.000000 1.000000 0.000000
0.000000 0.000000 0.014768
0.014768 0.000000 0.014768
0.038261 0.000000 0.014768
0.075632 0.000000 0.014768
0.135078 0.000000 0.014768
0.229642 0.000000 0.014768
0.380068 0.000000 0.014768
0.619356 0.000000 0.014768
1.000000 0.000000 0.014768
0.000000 0.014768 0.014768
0.014768 0.014768 0.014768
0.038261 0.014768 0.014768
0.075632 0.014768 0.014768
0.135078 0.014768 0.014768
0.229642 0.014768 0.014768
0.380068 0.014768 0.014768
0.619356 0.014768 0.014768
1.000000 0.014768 0.014768
0.000000 0.038261 0.014768
0.014768 0.038261 0.014768
0.038261 0.038261 0.014768
0.075632 0.038261 0.014768
0.135078 0.038261 0.014768
0.229642 0.038261 0.014768
0.380068 0.038261 0.014768
0.619356 0.038261 0.014768
1.000000 0.038261 0.014768
0.000000 0.075632 0.014768
0.014768 0.075632 0.014768
0.038261 0.075632 0.014768
0.075632 0.075632 0.014768
0.135078 0.075632 0.014768
0.229642 0.075632 0.014768
0.380068 0.075632 0.014768
0.619356 0.075632 0.014768
1.000000 0.075632 0.014768
0.000000 0.135078 0.014768
0.014768 0.135078 0.014768
0.038261 0.135078 0.014768
0.075632 0.135078 0.014768
0.135078 0.135078 0.014768
0.229642 0.135078 0.014768
0.380068 0.135078 0.014768
0.619356 0.135078 0.014768
1.000000 0.135078 0.014768
0.000000 0.229642 0.014768
0.014768 0.229642 0.014768
0.038261 0.229642 0.014768
0.075632 0.229642 0.014768
0.135078 0.229642 0.014768
0.229642 0.229642 0.014768
0.380068 0.229642 0.014768
0.619356 0.229642 0.014768
1.000000 0.229642 0.014768
0.000000 0.380068 0.014768
0.014768 0.380068 0.014768
0.038261 0.380068 0.014768
0.075632 0.380068 0.014768
0.135078 0.380068 0.014768
0.229642 0.380068 0.014768
0.380068 0.380068 0.014768
0.619356 0.380068 0.014768
1.000000 0.380068 0.014768
0.000000 0.619356 0.014768
0.014768 0.619356 0.014768
0.038261 0.619356 0.014768
0.075632 0.619356 0.014768
0.135078 0.619356 0.014768
0.229642 0.619356 0.014768
0.380068 0.619356 0.014768
0.619356 0.619356 0.014768
1.000000 0.619356 0.014768
0.000000 1.000000 0.014768
0.014768 1.000000 0.014768
0.038261 1.000000 0.014768
0.075632 1.000000 0.014768
0.135078 1.000000 0.014768
0.229642 1.000000 0.014768
0.380068 1.000000 0.014768
0.619356 1.000000 0.014768
1.000000 1.000000 0.014768
0.000000 0.000000 0.038261
0.014768 0.000000 0.038261
0.038261 0.000000 0.038261
0.075632 0.000000 0.038261
0.135078 0.000000 0.038261
0.229642 0.000000 0.038261
0.380068 0.000000 0.038261
0.619356 0.000000 0.038261
1.000000 0.000000 0.038261
0.000000 0.014768 0.038261
0.014768 0.014768 0.038261
0.038261 0.014768 0.038261
0.075632 0.014768 0.038261
0.135078 0.014768 0.038261
0.229642 0.014768 0.038261
0.380068 0.014768 0.038261
0.619356 0.014768 0.038261
1.000000 0.014768 0.038261
0.000000 0.038261 0.038261
0.014768 0.038261 0.038261
0.038261 0.038261 0.038261
0.075632 0.038261 0.038261
0.135078 0.038261 0.038261
0.229642 0.038261 0.038261
0.380068 0.038261 0.038261
0.619356 0.038261 0.038261
1.000000 0.038261 0.038261
0.000000 0.075632 0.038261
0.014768 0.075632 0.038261
0.038261 0.075632 0.038261
0.075632 0.075632 0.038261
0.135078 0.075632 0.038261
0.229642 0.075632 0.038261
0.380068 0.075632 0.038261
0.619356 0.075632 0.038261
1.000000 0.075632 0.038261
0.000000 0.135078 0.038261
0.014768 0.135078 0.038261
0.038261 0.135078 0.038261
0.075632 0.135078 0.038261
0.135078 0.135078 0.038261
0.229642 0.135078 0.038261
0.380068 0.135078 0.038261
0.619356 0.135078 0.038261
1.000000 0.135078 0.038261
0.000000 0.229642 0.038261
0.014768 0.229642 0.038261
0.038261 0.229642 0.038261
0.075632 0.229642 0.038261
0.135078 0.229642 0.038261
0.229642 0.229642 0.038261
0.380068 0.229642 0.038261
0.619356 0.229642 0.038261
1.000000 0.229642 0.038261
0.000000 0.380068 0.038261
0.014768 0.380068 0.038261
0.038261 0.380068 0.038261
0.075632 0.380068 0.038261
0.135078 0.380068 0.038261
0.229642 0.380068 0.038261
0.380068 0.380068 0.038261
0.619356 0.380068 0.038261
1.000000 0.380068 0.038261
0.000000 0.619356 0.038261
0.014768 0.619356 0.038261
0.038261 0.619356 0.038261
0.075632 0.619356 0.038261
0.135078 0.619356 0.038261
0.229642 0.619356 0.038261
0.380068 0.619356 0.038261
0.619356 0.619356 0.038261
1.000000 0.619356 0.038261
0.000000 1.000000 0.038261
0.014768 1.000000 0.038261
0.038261 1.000000 0.038261
0.075632 1.000000 0.038261
0.135078 1.000000 0.038261
0.229642 1.000000 0.038261
0.380068 1.000000 0.038261
0.619356 1.000000 0.038261
1.000000 1.000000 0.038261
0.000000 0.000000 0.075632
0.014768 0.000000 0.075632
0.038261 0.000000 0.075632
0.075632 0.000000 0.075632
0.135078 0.000000 0.075632
0.229642 0.000000 0.075632
0.380068 0.000000 0.075632
0.619356 0.000000 0.075632
1.000000 0.000000 0.075632
0.000000 0.014768 0.075632
0.014768 0.014768 0.075632
0.038261 0.014768 0.075632
0.075632 0.014768 0.075632
0.135078 0.014768 0.075632
0.229642 0.014768 0.075632
0.380068 0.014768 0.075632
0.619356 0.014768 0.075632
1.000000 0.014768 0.075632
0.000000 0.038261 0.075632
0.014768 0.038261 0.075632
0.038261 0.038261 0.075632
0.075632 0.038261 0.075632
0.135078 0.038261 0.075632
0.229642 0.038261 0.075632
0.380068 0.038261 0.075632
0.619356 0.038261 0.075632
1.000000 0.038261 0.075632
0.000000 0.075632 0.075632
0.014768 0.075632 0.075632
0.038261 0.075632 0.075632
0.075632 0.075632 0.075632
0.135078 0.075632 0.075632
0.229642 0.075632 0.075632
0.380068 0.075632 0.075632
0.619356 0.075632 0.075632
1.000000 0.075632 0.075632
0.000000 0.135078 0.075632
0.014768 0.135078 0.075632
0.038261 0.135078 0.075632
0.075632 0.135078 0.075632
0.135078 0.135078 0.075632
0.229642 0.135078 0.075632
0.380068 0.135078 0.075632
0.619356 0.135078 0.075632
1.000000 0.135078 0.075632
0.000000 0.229642 0.075632
0.014768 0.229642 0.075632
0.038261 0.229642 0.075632
0.075632 0.229642 0.075632
0.135078 0.229642 0.075632
0.229642 0.229642 0.075632
0.380068 0.229642 0.075632
0.619356 0.229642 0.075632
1.000000 0.229642 0.075632
0.000000 0.380068 0.075632
0.014768 0.380068 0.075632
0.038261 0.380068 0.075632
0.075632 0.380068 0.075632
0.135078 0.380068 0.075632
0.229642 0.380068 0.075632
0.380068 0.380068 0.075632
0.619356 0.380068 0.075632
1.000000 0.380068 0.075632
0.000000 0.619356 0.075632
0.014768 0.619356 0.075632
0.038261 0.619356 0.075632
0.075632 0.619356 0.075632
0.135078 0.619356 0.075632
0.229642 0.619356 0.075632
0.380068 0.619356 0.075632
0.619356 0.619356 0.075632
1.000000 0.619356 0.075632
0.000000 1.000000 0.075632
0.014768 1.000000 0.075632
0.038261 1.000000 0.075632
0.075632 1.000000 0.075632
0.135078 1.000000 0.075632
0.229642 1.000000 0.075632
0.380068 1.000000 0.075632
0.619356 1.000000 0.075632
1.000000 1.000000 0.075632
0.000000 0.000000 0.135078
0.014768 0.000000 0.135078
0.038261 0.000000 0.135078
0.075632 0.000000 0.135078
0.135078 0.000000 0.135078
0.229642 0.000000 0.135078
0.380068 0.000000 0.135078
0.619356 0.000000 0.135078
1.000000 0.000000 0.135078
0.000000 0.014768 0.135078
0.014768 0.014768 0.135078
0.038261 0.014768 0.135078
0.075632 0.014768 0.135078
0.135078 0.014768 0.135078
0.229642 0.014768 0.135078
0.380068 0.014768 0.135078
0.619356 0.014768 0.135078
1.000000 0.014768 0.135078
0.000000 0.038261 0.135078
0.014768 0.038261 0.135078
0.038261 0.038261 0.135078
0.075632 0.038261 0.135078
0.135078 0.038261 0.135078
0.229642 0.038261 0.135078
0.380068 0.038261 0.135078
0.619356 0.038261 0.135078
1.000000 0.038261 0.135078
0.000000 0.075632 0.135078
0.014768 0.075632 0.135078
0.038261 0.075632 0.135078
0.075632 0.075632 0.135078
0.135078 0.075632 0.135078
0.229642 0.075632 0.135078
0.380068 0.075632 0.135078
0.619356 0.075632 0.135078
1.000000 0.075632 0.135078
0.000000 0.135078 0.135078
0.014768 0.135078 0.135078
0.038261 0.135078 0.135078
0.075632 0.135078 0.135078
0.135078 0.135078 0.135078
0.229642 0.135078 0.135078
0.380068 0.135078 0.135078
0.619356 0.135078 0.135078
1.000000 0.135078 0.135078
0.000000 0.229642 0.135078
0.014768 0.229642 0.135078
0.038261 0.229642 0.135078
0.075632 0.229642 0.135078
0.135078 0.229642 0.135078
0.229642 0.229642 0.135078
0.380068 0.229642 0.135078
0.619356 0.229642 0.135078
1.000000 0.229642 0.135078
0.000000 0.380068 0.135078
0.014768 0.380068 0.135078
0.038261 0.380068 0.135078
0.075632 0.380068 0.135078
0.135078 0.380068 0.135078
0.229642 0.380068 0.135078
0.380068 0.380068 0.135078
0.619356 0.380068 0.135078
1.000000 0.380068 0.135078
0.000000 0.619356 0.135078
0.014768 0.619356 0.135078
0.038261 0.619356 0.135078
0.075632 0.619356 0.135078
0.135078 0.619356 0.135078
0.229642 0.619356 0.135078
0.380068 0.619356 0.135078
0.619356 0.619356 0.135078
1.000000 0.619356 0.135078
0.000000 1.000000 0.135078
0.014768 1.000000 0.135078
0.038261 1.000000 0.135078
0.075632 1.000000 0.135078
0.135078 1.000000 0.135078
0.229642 1.000000 0.135078
0.380068 1.000000 0.135078
0.619356 1.000000 0.135078
1.000000 1.000000 0.135078
0.000000 0.000000 0.229642
0.014768 0.000000 0.229642
0.038261 0.000000 0.229642
0.075632 0.000000 0.229642
0.135078 0.000000 0.229642
0.229642 0.000000 0.229642
0.380068 0.000000 0.229642
0.619356 0.000000 0.229642
1.000000 0.000000 0.229642
0.000000 0.014768 0.229642
0.014768 0.014768 0.229642
0.038261 0.014768 0.229642
0.075632 0.014768 0.229642
0.135078 0.014768 0.229642
0.229642 0.014768 0.229642
0.380068 0.014768 0.229642
0.619356 0.014768 0.229642
1.000000 0.014768 0.229642
0.000000 0.038261 0.229642
0.014768 0.038261 0.229642
0.038261 0.038261 0.229642
0.075632 0.038261 0.229642
0.135078 0.038261 0.229642
0.229642 0.038261 0.229642
0.380068 0.038261 0.229642
0.619356 0.038261 0.229642
1.000000 0.038261 0.229642
0.000000 0.075632 0.229642
0.014768 0.075632 0.229642
0.038261 0.075632 0.229642
0.075632 0.075632 0.229642
0.135078 0.075632 0.229642
0.229642 0.075632 0.229642
0.380068 0.075632 0.229642
0.619356 0.075632 0.229642
1.000000 0.075632 0.229642
0.000000 0.135078 0.229642
0.014768 0.135078 0.229642
0.038261 0.135078 0.229642
0.075632 0.135078 0.229642
0.135078 0.135078 0.229642
0.229642 0.135078 0.229642
0.380068 0.135078 0.229642
0.619356 0.135078 0.229642
1.000000 0.135078 0.229642
0.000000 0.229642 0.229642
0.014768 0.229642 0.229642
0.038261 0.229642 0.229642
0.075632 0.229642 0.229642
0.135078 0.229642 0.229642
0.229642 0.229642 0.229642
0.380068 0.229642 0.229642
0.619356 0.229642 0.229642
1.000000 0.229642 0.229642
0.000000 0.380068 0.229642
0.014768 0.380068 0.229642
0.038261 0.380068 0.229642
0.075632 0.380068 0.229642
0.135078 0.380068 0.229642
0.229642 0.380068 0.229642
0.380068 0.380068 0.229642
0.619356 0.380068 0.229642
1.000000 0.380068 0.229642
0.000000 0.619356 0.229642
0.014768 0.619356 0.229642
0.038261 0.619356 0.229642
0.075632 0.619356 0.229642
0.135078 0.619356 0.229642
0.229642 0.619356 0.229642
0.380068 0.619356 0.229642
0.619356 0.619356 0.229642
1.000000 0.619356 0.229642
0.000000 1.000000 0.229642
0.014768 1.000000 0.229642
0.038261 1.000000 0.229642
0.075632 1.000000 0.229642
0.135078 1.000000 0.229642
0.229642 1.000000 0.229642
0.380068 1.000000 0.229642
0.619356 1.000000 0.229642
1.000000 1.000000 0.229642
0.000000 0.000000 0.380068
0.014768 0.000000 0.380068
0.038261 0.000000 0.380068
0.075632 0.000000 0.380068
0.135078 0.000000 0.380068
0.229642 0.000000 0.380068
0.380068 0.000000 0.380068
0.619356 0.000000 0.380068
1.000000 0.000000 0.380068
0.000000 0.014768 0.380068
0.014768 0.014768 0.380068
0.038261 0.014768 0.380068
0.075632 0.014768 0.380068
0.135078 0.014768 0.380068
0.229642 0.014768 0.380068
0.380068 0.014768 0.380068
0.619356 0.014768 0.380068
1.000000 0.014768 0.380068
0.000000 0.038261 0.380068
0.014768 0.038261 0.380068
0.038261 0.038261 0.380068
0.075632 0.038261 0.380068
0.135078 0.038261 0.380068
0.229642 0.038261 0.380068
0.380068 0.038261 0.380068
0.619356 0.038261 0.380068
1.000000 0.038261 0.380068
0.000000 0.075632 0.380068
0.014768 0.075632 0.380068
0.038261 0.075632 0.380068
0.075632 0.075632 0.380068
0.135078 0.075632 0.380068
0.229642 0.075632 0.380068
0.380068 0.075632 0.380068
0.619356 0.075632 0.380068
1.000000 0.075632 0.380068
0.000000 0.135078 0.380068
0.014768 0.135078 0.380068
0.038261 0.135078 0.380068
0.075632 0.135078 0.380068
0.135078 0.135078 0.380068
0.229642 0.135078 0.380068
0.380068 0.135078 0.380068
0.619356 0.135078 0.380068
1.000000 0.135078 0.380068
0.000000 0.229642 0.380068
0.014768 0.229642 0.380068
0.038261 0.229642 0.380068
0.075632 0.229642 0.380068
0.135078 0.229642 0.380068
0.229642 0.229642 0.380068
0.380068 0.229642 0.380068
0.619356 0.229642 0.380068
1.000000 0.229642 0.380068
0.000000 0.380068 0.380068
0.014768 0.380068 0.380068
0.038261 0.380068 0.380068
0.075632 0.380068 0.380068
0.135078 0.380068 0.380068
0.229642 0.380068 0.380068
0.380068 0.380068 0.380068
0.619356 0.380068 0.380068
1.000000 0.380068 0.380068
0.000000 0.619356 0.380068
0.014768 0.619356 0.380068
0.038261 0.619356 0.380068
0.075632 0.619356 0.380068
0.135078 0.619356 0.380068
0.229642 0.619356 0.380068
0.380068 0.619356 0.380068
0.619356 0.619356 0.380068
1.000000 0.619356 0.380068
0.000000 1.000000 0.380068
0.014768 1.000000 0.380068
0.038261 1.000000 0.380068
0.075632 1.000000 0.380068
0.135078 1.000000 0.380068
0.229642 1.000000 0.380068
0.380068 1.000000 0.380068
0.619356 1.000000 0.380068
1.000000 1.000000 0.380068
0.000000 0.000000 0.619356
0.014768 0.000000 0.619356
0.038261 0.000000 0.619356
0.075632 0.000000 0.619356
0.135078 0.000000 0.619356
0.229642 0.000000 0.619356
0.380068 0.000000 0.619356
0.619356 0.000000 0.619356
1.000000 0.000000 0.619356
0.000000 0.014768 0.619356
0.014768 0.014768 0.619356
0.038261 0.014768 0.619356
0.075632 0.014768 0.619356
0.135078 0.014768 0.619356
0.229642 0.014768 0.619356
0.380068 0.014768 0.619356
0.619356 0.014768 0.619356
1.000000 0.014768 0.619356
0.000000 0.038261 0.619356
0.014768 0.038261 0.619356
0.038261 0.038261 0.619356
0.075632 0.038261 0.619356
0.135078 0.038261 0.619356
0.229642 0.038261 0.619356
0.380068 0.038261 0.619356
0.619356 0.038261 0.619356
1.000000 0.038261 0.619356
0.000000 0.075632 0.619356
0.014768 0.075632 0.619356
0.038261 0.075632 0.619356
0.075632 0.075632 0.619356
0.135078 0.075632 0.619356
0.229642 0.075632 0.619356
0.380068 0.075632 0.619356
0.619356 0.075632 0.619356
1.000000 0.075632 0.619356
0.000000 0.135078 0.619356
0.014768 0.135078 0.619356
0.038261 0.135078 0.619356
0.075632 0.135078 0.619356
0.135078 0.135078 0.619356
0.229642 0.135078 0.619356
0.380068 0.135078 0.619356
0.619356 0.135078 0.619356
1.000000 0.135078 0.619356
0.000000 0.229642 0.619356
0.014768 0.229642 0.619356
0.038261 0.229642 0.619356
0.075632 0.229642 0.619356
0.135078 0.229642 0.619356
0.229642 0.229642 0.619356
0.380068 0.229642 0.619356
0.619356 0.229642 0.619356
1.000000 0.229642 0.619356
0.000000 0.380068 0.619356
0.014768 0.380068 0.619356
0.038261 0.380068 0.619356
0.075632 0.380068 0.619356
0.135078 0.380068 0.619356
0.229642 0.380068 0.619356
0.380068 0.380068 0.619356
0.619356 0.380068 0.619356
1.000000 0.380068 0.619356
0.000000 0.619356 0.619356
0.014768 0.619356 0.619356
0.038261 0.619356 0.619356
0.075632 0.619356 0.619356
0.135078 0.619356 0.619356
0.229642 0.619356 0.619356
0.380068 0.619356 0.619356
0.619356 0.619356 0.619356
1.000000 0.619356 0.619356
0.000000 1.000000 0.619356
0.014768 1.000000 0.619356
0.038261 1.000000 0.619356
0.075632 1.000000 0.619356
0.135078 1.000000 0.619356
0.229642 1.000000 0.619356
0.380068 1.000000 0.619356
0.619356 1.000000 0.619356
1.000000 1.000000 0.619356
0.000000 0.000000 1.000000
0.014768 0.000000 1.000000
0.038261 0.000000 1.000000
0.075632 0.000000 1.000000
0.135078 0.000000 1.000000
0.229642 0.000000 1.000000
0.380068 0.000000 1.000000
0.619356 0.000000 1.000000
1.000000 0.000000 1.000000
0.000000 0.014768 1.000000
0.014768 0.014768 1.000000
0.038261 0.014768 1.000000
0.075632 0.014768 1.000000
0.135078 0.014768 1.000000
0.229642 0.014768 1.000000
0.380068 0.014768 1.000000
0.619356 0.014768 1.000000
1.000000 0.014768 1.000000
0.000000 0.038261 1.000000
0.014768 0.038261 1.000000
0.038261 0.038261 1.000000
0.075632 0.038261 1.000000
0.135078 0.038261 1.000000
0.229642 0.038261 1.000000
0.380068 0.038261 1.000000
0.619356 0.038261 1.000000
1.000000 0.038261 1.000000
0.000000 0.075632 1.000000
0.014768 0.075632 1.000000
0.038261 0.075632 1.000000
0.075632 0.075632 1.000000
0.135078 0.075632 1.000000
0.229642 0.075632 1.000000
0.380068 0.075632 1.000000
0.619356 0.075632 1.000000
1.000000 0.075632 1.000000
0.000000 0.135078 1.000000
0.014768 0.135078 1.000000
0.038261 0.135078 1.000000
0.075632 0.135078 1.000000
0.135078 0.135078 1.000000
0.229642 0.135078 1.000000
0.380068 0.135078 1.000000
0.619356 0.135078 1.000000
1.000000 0.135078 1.000000
0.000000 0.229642 1.000000
0.014768 0.229642 1.000000
0.038261 0.229642 1.000000
0.075632 0.229642 1.000000
0.135078 0.229642 1.000000
0.229642 0.229642 1.000000
0.380068 0.229642 1.000000
0.619356 0.229642 1.000000
1.000000 0.229642 1.000000
0.000000 0.380068 1.000000
0.014768 0.380068 1.000000
0.038261 0.380068 1.000000
0.075632 0.380068 1.000000
0.135078 0.380068 1.000000
0.229642 0.380068 1.000000
0.380068 0.380068 1.000000
0.619356 0.380068 1.000000
1.000000 0.380068 1.000000
0.000000 0.619356 1.000000
0.014768 0.619356 1.000000
0.038261 0.619356 1.000000
0.075632 0.619356 1.000000
0.135078 0.619356 1.000000
0.229642 0.619356 1.000000
0.380068 0.619356 1.000000
0.619356 0.619356 1.000000
1.000000 0.619356 1.000000
0.000000 1.000000 1.000000
0.014768 1.000000 1.000000
0.038261 1.000000 1.000000
0.075632 1.000000 1.000000
0.135078 1.000000 1.000000
0.229642 1.000000 1.000000
0.380068 1.000000 1.000000
0.619356 1.000000 1.000000
1.000000 1.000000 1.000000
