ZIRCON_LOG_TO_REC709.cube
TITLE "Zircon Log to Rec.709 Linearization"
LUT_3D_SIZE 9
0.000000 0.000000 0.000000
0.034950 0.000000 0.000000
0.082116 0.000000 0.000000
0.145766 0.000000 0.000000
0.231662 0.000000 0.000000
0.347580 0.000000 0.000000
0.504011 0.000000 0.000000
0.715114 0.000000 0.000000
1.000000 0.000000 0.000000
0.000000 0.034950 0.000000
0.034950 0.034950 0.000000
0.082116 0.034950 0.000000
0.145766 0.034950 0.000000
0.231662 0.034950 0.000000
0.347580 0.034950 0.000000
0.504011 0.034950 0.000000
0.715114 0.034950 0.000000
1.000000 0.034950 0.000000
0.000000 0.082116 0.000000
0.034950 0.082116 0.000000
0.082116 0.082116 0.000000
0.145766 0.082116 0.000000
0.231662 0.082116 0.000000
0.347580 0.082116 0.000000
0.504011 0.082116 0.000000
0.715114 0.082116 0.000000
1.000000 0.082116 0.000000
0.000000 0.145766 0.000000
0.034950 0.145766 0.000000
0.082116 0.145766 0.000000
0.145766 0.145766 0.000000
0.231662 0.145766 0.000000
0.347580 0.145766 0.000000
0.504011 0.145766 0.000000
0.715114 0.145766 0.000000
1.000000 0.145766 0.000000
0.000000 0.231662 0.000000
0.034950 0.231662 0.000000
0.082116 0.231662 0.000000
0.145766 0.231662 0.000000
0.231662 0.231662 0.000000
0.347580 0.231662 0.000000
0.504011 0.231662 0.000000
0.715114 0.231662 0.000000
1.000000 0.231662 0.000000
0.000000 0.347580 0.000000
0.034950 0.347580 0.000000
0.082116 0.347580 0.000000
0.145766 0.347580 0.000000
0.231662 0.347580 0.000000
0.347580 0.347580 0.000000
0.504011 0.347580 0.000000
0.715114 0.347580 0.000000
1.000000 0.347580 0.000000
0.000000 0.504011 0.000000
0.034950 0.504011 0.000000
0.082116 0.504011 0.000000
0.145766 0.504011 0.000000
0.231662 0.504011 0.000000
0.347580 0.504011 0.000000
0.504011 0.504011 0.000000
0.715114 0.504011 0.000000
1.000000 0.504011 0.000000
0.000000 0.715114 0.000000
0.034950 0.715114 0.000000
0.082116 0.715114 0.000000
0.145766 0.715114 0.000000
0.231662 0.715114 0.000000
0.347580 0.715114 0.000000
0.504011 0.715114 0.000000
0.715114 0.715114 0.000000
1.000000 0.715114 0.000000
0.000000 1.000000 0.000000
0.034950 1.000000 0.000000
0.082116 1.000000 0.000000
0.145766 1.000000 0.000000
0.231662 1.000000 0.000000
0.347580 1.000000 0.000000
0.504011 1.000000 0.000000
0.715114 1.000000 0.000000
1.000000 1.000000 0.000000
0.000000 0.000000 0.034950
0.034950 0.000000 0.034950
0.082116 0.000000 0.034950
0.145766 0.000000 0.034950
0.231662 0.000000 0.034950
0.347580 0.000000 0.034950
0.504011 0.000000 0.034950
0.715114 0.000000 0.034950
1.000000 0.000000 0.034950
0.000000 0.034950 0.034950
0.034950 0.034950 0.034950
0.082116 0.034950 0.034950
0.145766 0.034950 0.034950
0.231662 0.034950 0.034950
0.347580 0.034950 0.034950
0.504011 0.034950 0.034950
0.715114 0.034950 0.034950
1.000000 0.034950 0.034950
0.000000 0.082116 0.034950
0.034950 0.082116 0.034950
0.082116 0.082116 0.034950
0.145766 0.082116 0.034950
0.231662 0.082116 0.034950
0.347580 0.082116 0.034950
0.504011 0.082116 0.034950
0.715114 0.082116 0.034950
1.000000 0.082116 0.034950
0.000000 0.145766 0.034950
0.034950 0.145766 0.034950
0.082116 0.145766 0.034950
0.145766 0.145766 0.034950
0.231662 0.145766 0.034950
0.347580 0.145766 0.034950
0.504011 0.145766 0.034950
0.715114 0.145766 0.034950
1.000000 0.145766 0.034950
0.000000 0.231662 0.034950
0.034950 0.231662 0.034950
0.082116 0.231662 0.034950
0.145766 0.231662 0.034950
0.231662 0.231662 0.034950
0.347580 0.231662 0.034950
0.504011 0.231662 0.034950
0.715114 0.231662 0.034950
1.000000 0.231662 0.034950
0.000000 0.347580 0.034950
0.034950 0.347580 0.034950
0.082116 0.347580 0.034950
0.145766 0.347580 0.034950
0.231662 0.347580 0.034950
0.347580 0.347580 0.034950
0.504011 0.347580 0.034950
0.715114 0.347580 0.034950
1.000000 0.347580 0.034950
0.000000 0.504011 0.034950
0.034950 0.504011 0.034950
0.082116 0.504011 0.034950
0.145766 0.504011 0.034950
0.231662 0.504011 0.034950
0.347580 0.504011 0.034950
0.504011 0.504011 0.034950
0.715114 0.504011 0.034950
1.000000 0.504011 0.034950
0.000000 0.715114 0.034950
0.034950 0.715114 0.034950
0.082116 0.715114 0.034950
0.145766 0.715114 0.034950
0.231662 0.715114 0.034950
0.347580 0.715114 0.034950
0.504011 0.715114 0.034950
0.715114 0.715114 0.034950
1.000000 0.715114 0.034950
0.000000 1.000000 0.034950
0.034950 1.000000 0.034950
0.082116 1.000000 0.034950
0.145766 1.000000 0.034950
0.231662 1.000000 0.034950
0.347580 1.000000 0.034950
0.504011 1.000000 0.034950
0.715114 1.000000 0.034950
1.000000 1.000000 0.034950
0.000000 0.000000 0.082116
0.034950 0.000000 0.082116
0.082116 0.000000 0.082116
0.145766 0.000000 0.082116
0.231662 0.000000 0.082116
0.347580 0.000000 0.082116
0.504011 0.000000 0.082116
0.715114 0.000000 0.082116
1.000000 0.000000 0.082116
0.000000 0.034950 0.082116
0.034950 0.034950 0.082116
0.082116 0.034950 0.082116
0.145766 0.034950 0.082116
0.231662 0.034950 0.082116
0.347580 0.034950 0.082116
0.504011 0.034950 0.082116
0.715114 0.034950 0.082116
1.000000 0.034950 0.082116
0.000000 0.082116 0.082116
0.034950 0.082116 0.082116
0.082116 0.082116 0.082116
0.145766 0.082116 0.082116
0.231662 0.082116 0.082116
0.347580 0.082116 0.082116
0.504011 0.082116 0.082116
0.715114 0.082116 0.082116
1.000000 0.082116 0.082116
0.000000 0.145766 0.082116
0.034950 0.145766 0.082116
0.082116 0.145766 0.082116
0.145766 0.145766 0.082116
0.231662 0.145766 0.082116
0.347580 0.145766 0.082116
0.504011 0.145766 0.082116
0.715114 0.145766 0.082116
1.000000 0.145766 0.082116
0.000000 0.231662 0.082116
0.034950 0.231662 0.082116
0.082116 0.231662 0.082116
0.145766 0.231662 0.082116
0.231662 0.231662 0.082116
0.347580 0.231662 0.082116
0.504011 0.231662 0.082116
0.715114 0.231662 0.082116
1.000000 0.231662 0.082116
0.000000 0.347580 0.082116
0.034950 0.347580 0.082116
0.082116 0.347580 0.082116
0.145766 0.347580 0.082116
0.231662 0.347580 0.082116
0.347580 0.347580 0.082116
0.504011 0.347580 0.082116
0.715114 0.347580 0.082116
1.000000 0.347580 0.082116
0.000000 0.504011 0.082116
0.034950 0.504011 0.082116
0.082116 0.504011 0.082116
0.145766 0.504011 0.082116
0.231662 0.504011 0.082116
0.347580 0.504011 0.082116
0.504011 0.504011 0.082116
0.715114 0.504011 0.082116
1.000000 0.504011 0.082116
0.000000 0.715114 0.082116
0.034950 0.715114 0.082116
0.082116 0.715114 0.082116
0.145766 0.715114 0.082116
0.231662 0.715114 0.082116
0.347580 0.715114 0.082116
0.504011 0.715114 0.082116
0.715114 0.715114 0.082116
1.000000 0.715114 0.082116
0.000000 1.000000 0.082116
0.034950 1.000000 0.082116
0.082116 1.000000 0.082116
0.145766 1.000000 0.082116
0.231662 1.000000 0.082116
0.347580 1.000000 0.082116
0.504011 1.000000 0.082116
0.715114 1.000000 0.082116
1.000000 1.000000 0.082116
0.000000 0.000000 0.145766
0.034950 0.000000 0.145766
0.082116 0.000000 0.145766
0.145766 0.000000 0.145766
0.231662 0.000000 0.145766
0.347580 0.000000 0.145766
0.504011 0.000000 0.145766
0.715114 0.000000 0.145766
1.000000 0.000000 0.145766
0.000000 0.034950 0.145766
0.034950 0.034950 0.145766
0.082116 0.034950 0.145766
0.145766 0.034950 0.145766
0.231662 0.034950 0.145766
0.347580 0.034950 0.145766
0.504011 0.034950 0.145766
0.715114 0.034950 0.145766
1.000000 0.034950 0.145766
0.000000 0.082116 0.145766
0.034950 0.082116 0.145766
0.082116 0.082116 0.145766
0.145766 0.082116 0.145766
0.231662 0.082116 0.145766
0.347580 0.082116 0.145766
0.504011 0.082116 0.145766
0.715114 0.082116 0.145766
1.000000 0.082116 0.145766
0.000000 0.145766 0.145766
0.034950 0.145766 0.145766
0.082116 0.145766 0.145766
0.145766 0.145766 0.145766
0.231662 0.145766 0.145766
0.347580 0.145766 0.145766
0.504011 0.145766 0.145766
0.715114 0.145766 0.145766
1.000000 0.145766 0.145766
0.000000 0.231662 0.145766
0.034950 0.231662 0.145766
0.082116 0.231662 0.145766
0.145766 0.231662 0.145766
0.231662 0.231662 0.145766
0.347580 0.231662 0.145766
0.504011 0.231662 0.145766
0.715114 0.231662 0.145766
1.000000 0.231662 0.145766
0.000000 0.347580 0.145766
0.034950 0.347580 0.145766
0.082116 0.347580 0.145766
0.145766 0.347580 0.145766
0.231662 0.347580 0.145766
0.347580 0.347580 0.145766
0.504011 0.347580 0.145766
0.715114 0.347580 0.145766
1.000000 0.347580 0.145766
0.000000 0.504011 0.145766
0.034950 0.504011 0.145766
0.082116 0.504011 0.145766
0.145766 0.504011 0.145766
0.231662 0.504011 0.145766
0.347580 0.504011 0.145766
0.504011 0.504011 0.145766
0.715114 0.504011 0.145766
1.000000 0.504011 0.145766
0.000000 0.715114 0.145766
0.034950 0.715114 0.145766
0.082116 0.715114 0.145766
0.145766 0.715114 0.145766
0.231662 0.715114 0.145766
0.347580 0.715114 0.145766
0.504011 0.715114 0.145766
0.715114 0.715114 0.145766
1.000000 0.715114 0.145766
0.000000 1.000000 0.145766
0.034950 1.000000 0.145766
0.082116 1.000000 0.145766
0.145766 1.000000 0.145766
0.231662 1.000000 0.145766
0.347580 1.000000 0.145766
0.504011 1.000000 0.145766
0.715114 1.000000 0.145766
1.000000 1.000000 0.145766
0.000000 0.000000 0.231662
0.034950 0.000000 0.231662
0.082116 0.000000 0.231662
0.145766 0.000000 0.231662
0.231662 0.000000 0.231662
0.347580 0.000000 0.231662
0.504011 0.000000 0.231662
0.715114 0.000000 0.231662
1.000000 0.000000 0.231662
0.000000 0.034950 0.231662
0.034950 0.034950 0.231662
0.082116 0.034950 0.231662
0.145766 0.034950 0.231662
0.231662 0.034950 0.231662
0.347580 0.034950 0.231662
0.504011 0.034950 0.231662
0.715114 0.034950 0.231662
1.000000 0.034950 0.231662
0.000000 0.082116 0.231662
0.034950 0.082116 0.231662
0.082116 0.082116 0.231662
0.145766 0.082116 0.231662
0.231662 0.082116 0.231662
0.347580 0.082116 0.231662
0.504011 0.082116 0.231662
0.715114 0.082116 0.231662
1.000000 0.082116 0.231662
0.000000 0.145766 0.231662
0.034950 0.145766 0.231662
0.082116 0.145766 0.231662
0.145766 0.145766 0.231662
0.231662 0.145766 0.231662
0.347580 0.145766 0.231662
0.504011 0.145766 0.231662
0.715114 0.145766 0.231662
1.000000 0.145766 0.231662
0.000000 0.231662 0.231662
0.034950 0.231662 0.231662
0.082116 0.231662 0.231662
0.145766 0.231662 0.231662
0.231662 0.231662 0.231662
0.347580 0.231662 0.231662
0.504011 0.231662 0.231662
0.715114 0.231662 0.231662
1.000000 0.231662 0.231662
0.000000 0.347580 0.231662
0.034950 0.347580 0.231662
0.082116 0.347580 0.231662
0.145766 0.347580 0.231662
0.231662 0.347580 0.231662
0.347580 0.347580 0.231662
0.504011 0.347580 0.231662
0.715114 0.347580 0.231662
1.000000 0.347580 0.231662
0.000000 0.504011 0.231662
0.034950 0.504011 0.231662
0.082116 0.504011 0.231662
0.145766 0.504011 0.231662
0.231662 0.504011 0.231662
0.347580 0.504011 0.231662
0.504011 0.504011 0.231662
0.715114 0.504011 0.231662
1.000000 0.504011 0.231662
0.000000 0.715114 0.231662
0.034950 0.715114 0.231662
0.082116 0.715114 0.231662
0.145766 0.715114 0.231662
0.231662 0.715114 0.231662
0.347580 0.715114 0.231662
0.504011 0.715114 0.231662
0.715114 0.715114 0.231662
1.000000 0.715114 0.231662
0.000000 1.000000 0.231662
0.034950 1.000000 0.231662
0.082116 1.000000 0.231662
0.145766 1.000000 0.231662
0.231662 1.000000 0.231662
0.347580 1.000000 0.231662
0.504011 1.000000 0.231662
0.715114 1.000000 0.231662
1.000000 1.000000 0.231662
0.000000 0.000000 0.347580
0.034950 0.000000 0.347580
0.082116 0.000000 0.347580
0.145766 0.000000 0.347580
0.231662 0.000000 0.347580
0.347580 0.000000 0.347580
0.504011 0.000000 0.347580
0.715114 0.000000 0.347580
1.000000 0.000000 0.347580
0.000000 0.034950 0.347580
0.034950 0.034950 0.347580
0.082116 0.034950 0.347580
0.145766 0.034950 0.347580
0.231662 0.034950 0.347580
0.347580 0.034950 0.347580
0.504011 0.034950 0.347580
0.715114 0.034950 0.347580
1.000000 0.034950 0.347580
0.000000 0.082116 0.347580
0.034950 0.082116 0.347580
0.082116 0.082116 0.347580
0.145766 0.082116 0.347580
0.231662 0.082116 0.347580
0.347580 0.082116 0.347580
0.504011 0.082116 0.347580
0.715114 0.082116 0.347580
1.000000 0.082116 0.347580
0.000000 0.145766 0.347580
0.034950 0.145766 0.347580
0.082116 0.145766 0.347580
0.145766 0.145766 0.347580
0.231662 0.145766 0.347580
0.347580 0.145766 0.347580
0.504011 0.145766 0.347580
0.715114 0.145766 0.347580
1.000000 0.145766 0.347580
0.000000 0.231662 0.347580
0.034950 0.231662 0.347580
0.082116 0.231662 0.347580
0.145766 0.231662 0.347580
0.231662 0.231662 0.347580
0.347580 0.231662 0.347580
0.504011 0.231662 0.347580
0.715114 0.231662 0.347580
1.000000 0.231662 0.347580
0.000000 0.347580 0.347580
0.034950 0.347580 0.347580
0.082116 0.347580 0.347580
0.145766 0.347580 0.347580
0.231662 0.347580 0.347580
0.347580 0.347580 0.347580
0.504011 0.347580 0.347580
0.715114 0.347580 0.347580
1.000000 0.347580 0.347580
0.000000 0.504011 0.347580
0.034950 0.504011 0.347580
0.082116 0.504011 0.347580
0.145766 0.504011 0.347580
0.231662 0.504011 0.347580
0.347580 0.504011 0.347580
0.504011 0.504011 0.347580
0.715114 0.504011 0.347580
1.000000 0.504011 0.347580
0.000000 0.715114 0.347580
0.034950 0.715114 0.347580
0.082116 0.715114 0.347580
0.145766 0.715114 0.347580
0.231662 0.715114 0.347580
0.347580 0.715114 0.347580
0.504011 0.715114 0.347580
0.715114 0.715114 0.347580
1.000000 0.715114 0.347580
0.000000 1.000000 0.347580
0.034950 1.000000 0.347580
0.082116 1.000000 0.347580
0.145766 1.000000 0.347580
0.231662 1.000000 0.347580
0.347580 1.000000 0.347580
0.504011 1.000000 0.347580
0.715114 1.000000 0.347580
1.000000 1.000000 0.347580
0.000000 0.000000 0.504011
0.034950 0.000000 0.504011
0.082116 0.000000 0.504011
0.145766 0.000000 0.504011
0.231662 0.000000 0.504011
0.347580 0.000000 0.504011
0.504011 0.000000 0.504011
0.715114 0.000000 0.504011
1.000000 0.000000 0.504011
0.000000 0.034950 0.504011
0.034950 0.034950 0.504011
0.082116 0.034950 0.504011
0.145766 0.034950 0.504011
0.231662 0.034950 0.504011
0.347580 0.034950 0.504011
0.504011 0.034950 0.504011
0.715114 0.034950 0.504011
1.000000 0.034950 0.504011
0.000000 0.082116 0.504011
0.034950 0.082116 0.504011
0.082116 0.082116 0.504011
0.145766 0.082116 0.504011
0.231662 0.082116 0.504011
0.347580 0.082116 0.504011
0.504011 0.082116 0.504011
0.715114 0.082116 0.504011
1.000000 0.082116 0.504011
0.000000 0.145766 0.504011
0.034950 0.145766 0.504011
0.082116 0.145766 0.504011
0.145766 0.145766 0.504011
0.231662 0.145766 0.504011
0.347580 0.145766 0.504011
0.504011 0.145766 0.504011
0.715114 0.145766 0.504011
1.000000 0.145766 0.504011
0.000000 0.231662 0.504011
0.034950 0.231662 0.504011
0.082116 0.231662 0.504011
0.145766 0.231662 0.504011
0.231662 0.231662 0.504011
0.347580 0.231662 0.504011
0.504011 0.231662 0.504011
0.715114 0.231662 0.504011
1.000000 0.231662 0.504011
0.000000 0.347580 0.504011
0.034950 0.347580 0.504011
0.082116 0.347580 0.504011
0.145766 0.347580 0.504011
0.231662 0.347580 0.504011
0.347580 0.347580 0.504011
0.504011 0.347580 0.504011
0.715114 0.347580 0.504011
1.000000 0.347580 0.504011
0.000000 0.504011 0.504011
0.034950 0.504011 0.504011
0.082116 0.504011 0.504011
0.145766 0.504011 0.504011
0.231662 0.504011 0.504011
0.347580 0.504011 0.504011
0.504011 0.504011 0.504011
0.715114 0.504011 0.504011
1.000000 0.504011 0.504011
0.000000 0.715114 0.504011
0.034950 0.715114 0.504011
0.082116 0.715114 0.504011
0.145766 0.715114 0.504011
0.231662 0.715114 0.504011
0.347580 0.715114 0.504011
0.504011 0.715114 0.504011
0.715114 0.715114 0.504011
1.000000 0.715114 0.504011
0.000000 1.000000 0.504011
0.034950 1.000000 0.504011
0.082116 1.000000 0.504011
0.145766 1.000000 0.504011
0.231662 1.000000 0.504011
0.347580 1.000000 0.504011
0.504011 1.000000 0.504011
0.715114 1.000000 0.504011
1.000000 1.000000 0.504011
0.000000 0.000000 0.715114
0.034950 0.000000 0.715114
0.082116 0.000000 0.715114
0.145766 0.000000 0.715114
0.231662 0.000000 0.715114
0.347580 0.000000 0.715114
0.504011 0.000000 0.715114
0.715114 0.000000 0.715114
1.000000 0.000000 0.715114
0.000000 0.034950 0.715114
0.034950 0.034950 0.715114
0.082116 0.034950 0.715114
0.145766 0.034950 0.715114
0.231662 0.034950 0.715114
0.347580 0.034950 0.715114
0.504011 0.034950 0.715114
0.715114 0.034950 0.715114
1.000000 0.034950 0.715114
0.000000 0.082116 0.715114
0.034950 0.082116 0.715114
0.082116 0.082116 0.715114
0.145766 0.082116 0.715114
0.231662 0.082116 0.715114
0.347580 0.082116 0.715114
0.504011 0.082116 0.715114
0.715114 0.082116 0.715114
1.000000 0.082116 0.715114
0.000000 0.145766 0.715114
0.034950 0.145766 0.715114
0.082116 0.145766 0.715114
0.145766 0.145766 0.715114
0.231662 0.145766 0.715114
0.347580 0.145766 0.715114
0.504011 0.145766 0.715114
0.715114 0.145766 0.715114
1.000000 0.145766 0.715114
0.000000 0.231662 0.715114
0.034950 0.231662 0.715114
0.082116 0.231662 0.715114
0.145766 0.231662 0.715114
0.231662 0.231662 0.715114
0.347580 0.231662 0.715114
0.504011 0.231662 0.715114
0.715114 0.231662 0.715114
1.000000 0.231662 0.715114
0.000000 0.347580 0.715114
0.034950 0.347580 0.715114
0.082116 0.347580 0.715114
0.145766 0.347580 0.715114
0.231662 0.347580 0.715114
0.347580 0.347580 0.715114
0.504011 0.347580 0.715114
0.715114 0.347580 0.715114
1.000000 0.347580 0.715114
0.000000 0.504011 0.715114
0.034950 0.504011 0.715114
0.082116 0.504011 0.715114
0.145766 0.504011 0.715114
0.231662 0.504011 0.715114
0.347580 0.504011 0.715114
0.504011 0.504011 0.715114
0.715114 0.504011 0.715114
1.000000 0.504011 0.715114
0.000000 0.715114 0.715114
0.034950 0.715114 0.715114
0.082116 0.715114 0.715114
0.145766 0.715114 0.715114
0.231662 0.715114 0.715114
0.347580 0.715114 0.715114
0.504011 0.715114 0.715114
0.715114 0.715114 0.715114
1.000000 0.715114 0.715114
0.000000 1.000000 0.715114
0.034950 1.000000 0.715114
0.082116 1.000000 0.715114
0.145766 1.000000 0.715114
0.231662 1.000000 0.715114
0.347580 1.000000 0.715114
0.504011 1.000000 0.715114
0.715114 1.000000 0.715114
1.000000 1.000000 0.715114
0.000000 0.000000 1.000000
0.034950 0.000000 1.000000
0.082116 0.000000 1.000000
0.145766 0.000000 1.000000
0.231662 0.000000 1.000000
0.347580 0.000000 1.000000
0.504011 0.000000 1.000000
0.715114 0.000000 1.000000
1.000000 0.000000 1.000000
0.000000 0.034950 1.000000
0.034950 0.034950 1.000000
0.082116 0.034950 1.000000
0.145766 0.034950 1.000000
0.231662 0.034950 1.000000
0.347580 0.034950 1.000000
0.504011 0.034950 1.000000
0.715114 0.034950 1.000000
1.000000 0.034950 1.000000
0.000000 0.082116 1.000000
0.034950 0.082116 1.000000
0.082116 0.082116 1.000000
0.145766 0.082116 1.000000
0.231662 0.082116 1.000000
0.347580 0.082116 1.000000
0.504011 0.082116 1.000000
0.715114 0.082116 1.000000
1.000000 0.082116 1.000000
0.000000 0.145766 1.000000
0.034950 0.145766 1.000000
0.082116 0.145766 1.000000
0.145766 0.145766 1.000000
0.231662 0.145766 1.000000
0.347580 0.145766 1.000000
0.504011 0.145766 1.000000
0.715114 0.145766 1.000000
1.000000 0.145766 1.000000
0.000000 0.231662 1.000000
0.034950 0.231662 1.000000
0.082116 0.231662 1.000000
0.145766 0.231662 1.000000
0.231662 0.231662 1.000000
0.347580 0.231662 1.000000
0.504011 0.231662 1.000000
0.715114 0.231662 1.000000
1.000000 0.231662 1.000000
0.000000 0.347580 1.000000
0.034950 0.347580 1.000000
0.082116 0.347580 1.000000
0.145766 0.347580 1.000000
0.231662 0.347580 1.000000
0.347580 0.347580 1.000000
0.504011 0.347580 1.000000
0.715114 0.347580 1.000000
1.000000 0.347580 1.000000
0.000000 0.504011 1.000000
0.034950 0.504011 1.000000
0.082116 0.504011 1.000000
0.145766 0.504011 1.000000
0.231662 0.504011 1.000000
0.347580 0.504011 1.000000
0.504011 0.504011 1.000000
0.715114 0.504011 1.000000
1.000000 0.504011 1.000000
0.000000 0.715114 1.000000
0.034950 0.715114 1.000000
0.082116 0.715114 1.000000
0.145766 0.715114 1.000000
0.231662 0.715114 1.000000
0.347580 0.715114 1.000000
0.504011 0.715114 1.000000
0.715114 0.715114 1.000000
1.000000 0.715114 1.000000
0.000000 1.000000 1.000000
0.034950 1.000000 1.000000
0.082116 1.000000 1.000000
0.145766 1.000000 1.000000
0.231662 1.000000 1.000000
0.347580 1.000000 1.000000
0.504011 1.000000 1.000000
0.715114 1.000000 1.000000
1.000000 1.000000 1.000000
